;FLAVOR:Marlin
;TIME:9306
;Filament used: 4.71902m
;Layer height: 0.15
;MINX:11.849
;MINY:11.227
;MINZ:0.3
;MAXX:88.152
;MAXY:104.842
;MAXZ:10.05
;Generated with Cura_SteamEngine 5.3.0
M82 ;absolute extrusion mode
;MachineType:ENTINA TINA2
;FilamentType:PLA
;InfillDensity:30
;Extruder0Temperature:200

;(**** start.gcode for tina2****)
M203 Z15
M104 S150
G28 Z
G28 X Y; Home extruder
G1 X55 Y55 F1000
G29
M107 ; Turn off fan
G90 ; Absolute positioning
M82 ; Extruder in absolute mode
M109 S210
G92 E0 ; Reset extruder position
G1 X90 Y6 Z0.27 F2000
G1 X20 Y6 Z0.27 E15 F1000
G92 E0 ; Reset extruder position
M203 Z5
G92 E0
G92 E0
G1 F1680 E-3
;LAYER_COUNT:66
;LAYER:0
M107
G0 F3600 X14.279 Y12.575 Z0.3
;TYPE:SKIRT
G1 F1680 E0
G1 F1560 X14.671 Y12.254 E0.02509
G1 X15.109 Y11.997 E0.05025
G1 X15.581 Y11.813 E0.07534
G1 X16.077 Y11.705 E0.10048
G1 X16.739 Y11.668 E0.13332
G1 X82.839 Y11.667 E3.40715
G1 X83.537 Y11.677 E3.44173
G1 X84.042 Y11.725 E3.46685
G1 X84.533 Y11.85 E3.49195
G1 X84.999 Y12.052 E3.5171
G1 X85.427 Y12.324 E3.54222
G1 X85.807 Y12.66 E3.56734
G1 X86.129 Y13.051 E3.59243
G1 X86.386 Y13.488 E3.61754
G1 X86.572 Y13.96 E3.64266
G1 X86.681 Y14.456 E3.66782
G1 X86.719 Y14.915 E3.69063
G1 X86.72 Y68.817 E6.36031
G1 X86.76 Y71.614 E6.49886
G1 X86.875 Y74.329 E6.63345
G1 X87.07 Y77.08 E6.77004
G1 X87.336 Y79.766 E6.90373
G1 X87.71 Y82.627 E7.04663
G1 X87.711 Y83.669 E7.09824
G1 X87.694 Y84.86 E7.15724
G1 X87.709 Y85.924 E7.20994
G1 X87.711 Y87.767 E7.30122
G1 X87.696 Y88.94 E7.35932
G1 X87.707 Y89.681 E7.39603
G1 X87.712 Y91.491 E7.48568
G1 X87.696 Y93.129 E7.56681
G1 X87.712 Y95.027 E7.66082
G1 X87.609 Y95.799 E7.69939
G1 X87.421 Y96.716 E7.74575
G1 X87.212 Y97.674 E7.79432
G1 X86.87 Y99.53 E7.88779
G1 X86.627 Y100.781 E7.95091
G1 X86.491 Y101.27 E7.97605
G1 X86.262 Y101.782 E8.00383
G1 X86.007 Y102.22 E8.02893
G1 X85.686 Y102.613 E8.05406
G1 X85.137 Y103.082 E8.08982
G1 X84.712 Y103.36 E8.11498
G1 X84.249 Y103.568 E8.14012
G1 X83.76 Y103.7 E8.1652
G1 X83.232 Y103.754 E8.19149
G1 X82.173 Y103.775 E8.24395
G1 X17.508 Y103.776 E11.44671
G1 X16.727 Y103.765 E11.4854
G1 X16.222 Y103.718 E11.51052
G1 X15.73 Y103.592 E11.53567
G1 X15.265 Y103.391 E11.56076
G1 X14.837 Y103.119 E11.58588
G1 X14.457 Y102.783 E11.611
G1 X14.016 Y102.241 E11.64561
G1 X13.741 Y101.815 E11.67072
G1 X13.536 Y101.351 E11.69585
G1 X13.393 Y100.857 E11.72132
G1 X13.195 Y99.775 E11.7758
G1 X12.678 Y97.158 E11.90792
G1 X12.384 Y95.74 E11.97964
G1 X12.29 Y94.868 E12.02308
G1 X12.289 Y94.105 E12.06087
G1 X12.306 Y92.913 E12.11992
G1 X12.291 Y91.833 E12.17341
G1 X12.289 Y90.105 E12.259
G1 X12.306 Y88.913 E12.31804
G1 X12.291 Y87.833 E12.37154
G1 X12.289 Y86.105 E12.45712
G1 X12.306 Y84.908 E12.51641
G1 X12.291 Y83.833 E12.56966
G1 X12.29 Y82.743 E12.62365
G1 X12.431 Y81.522 E12.68453
G1 X12.597 Y80.285 E12.74634
G1 X12.879 Y77.601 E12.88001
G1 X13.093 Y74.813 E13.0185
G1 X13.222 Y72.133 E13.15139
G1 X13.28 Y68.753 E13.31882
G1 X13.28 Y15.508 E15.95597
G1 X13.291 Y14.843 E15.98891
G1 X13.34 Y14.338 E16.01404
G1 X13.467 Y13.847 E16.03915
G1 X13.669 Y13.382 E16.06426
G1 X13.942 Y12.955 E16.08937
G1 X14.279 Y12.575 E16.11452
G0 F3600 X13.973 Y12.257
G1 F1560 X14.448 Y11.875 E16.14471
G1 X14.949 Y11.587 E16.17333
G1 X15.487 Y11.383 E16.20183
G1 X15.983 Y11.275 E16.22697
G1 X16.739 Y11.228 E16.26449
G1 X82.845 Y11.227 E19.53862
G1 X83.579 Y11.239 E19.57498
G1 X84.084 Y11.287 E19.6001
G1 X84.677 Y11.433 E19.63035
G1 X85.174 Y11.648 E19.65717
G1 X85.694 Y11.972 E19.68752
G1 X86.147 Y12.38 E19.71771
G1 X86.469 Y12.771 E19.7428
G1 X86.782 Y13.294 E19.77299
G1 X87.002 Y13.866 E19.80334
G1 X87.111 Y14.362 E19.82849
G1 X87.159 Y14.915 E19.85598
G1 X87.16 Y68.817 E22.52567
G1 X87.2 Y71.595 E22.66327
G1 X87.314 Y74.298 E22.79727
G1 X87.508 Y77.037 E22.93327
G1 X87.774 Y79.723 E23.06695
G1 X88.15 Y82.627 E23.21198
G1 X88.151 Y83.675 E23.26389
G1 X88.134 Y84.866 E23.32288
G1 X88.149 Y85.924 E23.37529
G1 X88.151 Y87.773 E23.46687
G1 X88.136 Y88.946 E23.52497
G1 X88.147 Y89.68 E23.56133
G1 X88.152 Y91.495 E23.65122
G1 X88.136 Y93.133 E23.73235
G1 X88.152 Y95.023 E23.82596
G1 X88.04 Y95.887 E23.86912
G1 X87.851 Y96.81 E23.91578
G1 X87.642 Y97.768 E23.96434
G1 X87.302 Y99.614 E24.05731
G1 X87.051 Y100.899 E24.12216
G1 X86.893 Y101.45 E24.15055
G1 X86.664 Y101.962 E24.17833
G1 X86.348 Y102.498 E24.20914
G1 X86 Y102.924 E24.23639
G1 X85.423 Y103.417 E24.27398
G1 X84.925 Y103.746 E24.30354
G1 X84.364 Y103.993 E24.3339
G1 X83.805 Y104.138 E24.3625
G1 X83.277 Y104.192 E24.38879
G1 X82.182 Y104.215 E24.44303
G1 X17.502 Y104.216 E27.64654
G1 X16.721 Y104.205 E27.68522
G1 X16.146 Y104.153 E27.71382
G1 X15.555 Y103.996 E27.74411
G1 X15.09 Y103.795 E27.7692
G1 X14.572 Y103.472 E27.79943
G1 X14.138 Y103.088 E27.82813
G1 X13.646 Y102.48 E27.86687
G1 X13.371 Y102.054 E27.89198
G1 X13.113 Y101.473 E27.92347
G1 X12.96 Y100.936 E27.95112
G1 X12.762 Y99.854 E28.0056
G1 X12.246 Y97.243 E28.13742
G1 X11.953 Y95.829 E28.20894
G1 X11.85 Y94.869 E28.25676
G1 X11.849 Y94.099 E28.2949
G1 X11.866 Y92.907 E28.35395
G1 X11.851 Y91.834 E28.4071
G1 X11.849 Y90.099 E28.49303
G1 X11.866 Y88.907 E28.55207
G1 X11.851 Y87.834 E28.60522
G1 X11.849 Y86.099 E28.69115
G1 X11.866 Y84.902 E28.75044
G1 X11.851 Y83.833 E28.8034
G1 X11.85 Y82.743 E28.85738
G1 X11.995 Y81.463 E28.92118
G1 X12.159 Y80.239 E28.98235
G1 X12.441 Y77.555 E29.11601
G1 X12.655 Y74.779 E29.25391
G1 X12.782 Y72.125 E29.38551
G1 X12.84 Y68.745 E29.55294
G1 X12.84 Y15.501 E32.19004
G1 X12.853 Y14.801 E32.22471
G1 X12.914 Y14.228 E32.25325
G1 X13.063 Y13.672 E32.28176
G1 X13.298 Y13.145 E32.31034
G1 X13.571 Y12.718 E32.33544
G1 X13.973 Y12.257 E32.36574
G1 F1680 E29.36574
;MESH:PiRTO_Cart-Top3D.stl
G0 F3600 X17.16 Y81.572
;TYPE:WALL-INNER
G1 F1680 E32.36574
G1 F1320 X17.5 Y81.246 E32.38907
G1 X82.84 Y81.246 E35.62526
G1 X82.84 Y15.547 E38.87923
G1 X17.16 Y15.547 E42.13227
G1 X17.16 Y81.572 E45.40238
G1 F1680 E42.40238
G0 F3600 X16.785 Y83.387
G1 F1680 E45.40238
G1 F1054.1 X16.773 Y82.425 E45.46206
G1 X16.596 Y82.595 E45.47728
G1 X16.429 Y82.618 E45.48773
G1 X16.26 Y82.748 E45.50096
G1 X16.223 Y82.885 E45.50976
G1 X16.258 Y83.023 E45.51859
G1 X16.429 Y83.156 E45.53203
G1 X16.596 Y83.179 E45.54248
G1 X16.785 Y83.387 E45.55991
G1 F1680 E42.55991
G0 F3600 X17.229 Y85.437
G1 F1680 E45.55991
G1 F1003.1 X17.5 Y85.177 E45.58439
G1 X82.771 Y85.177 E49.83843
G1 X82.771 Y84.597 E49.87623
G1 X17.5 Y84.597 E54.13027
G1 X17.229 Y84.37 E54.15331
G1 X17.229 Y85.437 E54.22285
G1 F1680 E51.22285
G0 F3600 X16.785 Y87.387
G1 F1680 E54.22285
G1 F1054.1 X16.773 Y86.425 E54.28252
G1 X16.596 Y86.595 E54.29774
G1 X16.429 Y86.618 E54.3082
G1 X16.26 Y86.748 E54.32142
G1 X16.223 Y86.885 E54.33022
G1 X16.258 Y87.023 E54.33905
G1 X16.429 Y87.156 E54.35249
G1 X16.596 Y87.179 E54.36294
G1 X16.785 Y87.387 E54.38037
G1 F1680 E51.38037
G0 F3600 X17.229 Y89.437
G1 F1680 E54.38037
G1 F1003.1 X17.5 Y89.177 E54.40485
G1 X82.771 Y89.177 E58.65889
G1 X82.771 Y88.597 E58.69669
G1 X17.5 Y88.597 E62.95073
G1 X17.229 Y88.37 E62.97377
G1 X17.229 Y89.437 E63.04331
G1 F1680 E60.04331
G0 F3600 X16.785 Y91.387
G1 F1680 E63.04331
G1 F1054.1 X16.773 Y90.425 E63.10298
G1 X16.596 Y90.595 E63.1182
G1 X16.429 Y90.618 E63.12866
G1 X16.304 Y90.691 E63.13764
G1 X16.232 Y90.816 E63.14658
G1 X16.232 Y90.961 E63.15558
G1 X16.305 Y91.084 E63.16445
G1 X16.429 Y91.156 E63.17334
G1 X16.596 Y91.179 E63.1838
G1 X16.785 Y91.387 E63.20123
G1 F1680 E60.20123
G0 F3600 X17.16 Y92.243
G1 F1680 E63.20123
G1 F1320 X17.16 Y93.886 E63.2826
G1 X17.123 Y94.105 E63.2936
G1 X16.917 Y94.399 E63.31138
G1 X16.589 Y94.541 E63.32909
G1 X16.415 Y94.565 E63.33779
G1 X16.265 Y94.651 E63.34635
G1 X16.178 Y94.801 E63.35494
G1 X16.179 Y94.975 E63.36356
G1 X16.266 Y95.123 E63.37206
G1 X16.415 Y95.209 E63.38058
G1 X16.589 Y95.233 E63.38928
G1 X16.917 Y95.375 E63.40698
G1 X17.123 Y95.669 E63.42476
G1 X17.16 Y95.888 E63.43576
G1 X17.16 Y99.896 E63.63427
G1 X82.84 Y99.895 E66.8873
G1 X82.84 Y95.888 E67.08576
G1 X82.877 Y95.669 E67.09677
G1 X82.951 Y95.519 E67.10505
G1 X83.083 Y95.375 E67.11472
G1 X83.411 Y95.233 E67.13243
G1 X83.584 Y95.21 E67.14107
G1 X83.736 Y95.123 E67.14975
G1 X83.822 Y94.974 E67.15827
G1 X83.822 Y94.803 E67.16674
G1 X83.736 Y94.654 E67.17526
G1 X83.584 Y94.564 E67.184
G1 X83.411 Y94.541 E67.19265
G1 X83.083 Y94.399 E67.21035
G1 X82.951 Y94.255 E67.22003
G1 X82.877 Y94.105 E67.22831
G1 X82.84 Y93.886 E67.23931
G1 X82.84 Y92.528 E67.30657
G1 X17.5 Y92.528 E70.54276
G1 X17.16 Y92.243 E70.56474
G1 F1680 E67.56474
G0 F3600 X83.28 Y92.088
;TYPE:WALL-OUTER
G1 F1680 E70.56474
G1 F1320 X17.5 Y92.088 E73.82272
G1 F1230.5 X17.251 Y91.912 E73.83892
G1 F1190.2 X17.284 Y90.882 E73.89553
G1 F1195.1 X17.25 Y89.896 E73.9495
G1 F1235.7 X17.5 Y89.686 E73.96678
G1 F1320 X83.28 Y89.686 E77.22476
G1 X83.28 Y88.088 E77.30391
G1 X17.5 Y88.088 E80.56189
G1 F1230.5 X17.251 Y87.912 E80.57809
G1 F1190.2 X17.284 Y86.882 E80.6347
G1 F1195.1 X17.25 Y85.896 E80.68867
G1 F1235.7 X17.5 Y85.686 E80.70595
G1 F1320 X83.28 Y85.686 E83.96393
G1 X83.28 Y84.088 E84.04308
G1 X17.5 Y84.088 E87.30106
G1 F1230.5 X17.251 Y83.912 E87.31726
G1 F1190.2 X17.284 Y82.882 E87.37387
G1 F1195.1 X17.25 Y81.896 E87.42784
G1 F1235.7 X17.5 Y81.686 E87.44512
G1 F1320 X83.28 Y81.686 E90.7031
G1 X83.28 Y15.107 E94.00066
G1 X16.72 Y15.107 E97.29728
G1 X16.72 Y80.906 E100.5562
G1 F1233.1 X16.749 Y81.93 E100.61052
G1 X16.53 Y82.105 E100.62538
G1 F1320 X16.299 Y82.136 E100.63692
G1 X16.114 Y82.213 E100.64685
G1 X15.951 Y82.337 E100.65699
G1 X15.828 Y82.498 E100.66703
G1 X15.749 Y82.686 E100.67713
G1 X15.749 Y83.089 E100.69709
G1 X15.826 Y83.273 E100.70696
G1 X15.951 Y83.437 E100.71718
G1 X16.111 Y83.559 E100.72714
G1 X16.299 Y83.638 E100.73724
G1 X16.53 Y83.669 E100.74879
G1 F1235.7 X16.75 Y83.878 E100.76484
G1 X16.72 Y84.906 E100.81925
G1 F1233.1 X16.749 Y85.93 E100.87356
G1 X16.53 Y86.105 E100.88843
G1 F1320 X16.299 Y86.136 E100.89997
G1 X16.114 Y86.213 E100.90989
G1 X15.951 Y86.337 E100.92004
G1 X15.828 Y86.498 E100.93007
G1 X15.749 Y86.686 E100.94017
G1 X15.749 Y87.089 E100.96013
G1 X15.826 Y87.273 E100.97001
G1 X15.951 Y87.437 E100.98022
G1 X16.111 Y87.559 E100.99019
G1 X16.299 Y87.638 E101.00029
G1 X16.53 Y87.669 E101.01183
G1 F1235.7 X16.75 Y87.878 E101.02789
G1 X16.72 Y88.906 E101.0823
G1 F1233.1 X16.749 Y89.93 E101.13661
G1 X16.53 Y90.105 E101.15147
G1 F1320 X16.299 Y90.136 E101.16302
G1 X16.114 Y90.213 E101.17294
G1 X15.951 Y90.337 E101.18308
G1 X15.828 Y90.498 E101.19312
G1 X15.749 Y90.686 E101.20322
G1 X15.749 Y91.089 E101.22318
G1 X15.826 Y91.272 E101.23301
G1 X15.951 Y91.437 E101.24327
G1 X16.111 Y91.559 E101.25323
G1 X16.299 Y91.638 E101.26333
G1 X16.53 Y91.669 E101.27487
G1 F1235.7 X16.75 Y91.878 E101.29093
G1 X16.72 Y92.868 E101.34333
G1 F1320 X16.72 Y93.942 E101.39652
G1 X16.639 Y94.057 E101.40349
G1 X16.114 Y94.213 E101.43062
G1 X15.951 Y94.337 E101.44076
G1 X15.828 Y94.498 E101.45079
G1 X15.749 Y94.686 E101.46089
G1 X15.749 Y95.089 E101.48085
G1 X15.826 Y95.272 E101.49069
G1 X15.951 Y95.437 E101.50094
G1 X16.111 Y95.559 E101.51091
G1 X16.639 Y95.717 E101.5382
G1 X16.72 Y95.832 E101.54517
G1 X16.72 Y99.975 E101.75037
G1 X16.771 Y100.199 E101.76174
G1 X16.91 Y100.336 E101.77141
G1 X83.081 Y100.334 E105.04876
G1 X83.206 Y100.237 E105.0566
G1 X83.28 Y99.979 E105.06989
G1 X83.28 Y95.832 E105.27529
G1 X83.361 Y95.717 E105.28225
G1 X83.889 Y95.559 E105.30955
G1 X84.05 Y95.437 E105.31955
G1 X84.172 Y95.276 E105.32956
G1 X84.251 Y95.088 E105.33966
G1 X84.251 Y94.687 E105.35952
G1 X84.172 Y94.499 E105.36962
G1 X84.05 Y94.338 E105.37962
G1 X83.889 Y94.216 E105.38963
G1 X83.361 Y94.057 E105.41694
G1 X83.28 Y93.942 E105.42391
G1 X83.28 Y92.088 E105.51573
G0 F3600 X83.745 Y91.594
G1 F1187.7 X84.032 Y91.419 E105.53424
G1 X84.151 Y91.264 E105.54499
G1 X84.227 Y91.082 E105.55585
G1 X84.227 Y90.692 E105.57732
G1 X84.152 Y90.51 E105.58815
G1 X84.032 Y90.355 E105.59894
G1 X83.746 Y90.182 E105.61734
G1 X83.745 Y91.594 E105.69506
G1 F1680 E102.69506
G0 F3600 X83.745 Y87.594
G1 F1680 E105.69506
G1 F1187.7 X84.032 Y87.419 E105.71357
G1 X84.151 Y87.264 E105.72432
G1 X84.227 Y87.082 E105.73518
G1 X84.227 Y86.691 E105.7567
G1 X84.154 Y86.513 E105.76729
G1 X84.032 Y86.355 E105.77828
G1 X83.746 Y86.182 E105.79668
G1 X83.745 Y87.594 E105.8744
G1 F1680 E102.8744
G0 F3600 X83.745 Y83.594
G1 F1680 E105.8744
G1 F1187.7 X84.032 Y83.419 E105.8929
G1 X84.151 Y83.264 E105.90366
G1 X84.227 Y83.082 E105.91451
G1 X84.227 Y82.691 E105.93604
G1 X84.154 Y82.513 E105.94663
G1 X84.032 Y82.355 E105.95761
G1 X83.746 Y82.182 E105.97601
G1 X83.745 Y83.594 E106.05374
G1 F1680 E103.05374
G0 F3600 X17.575 Y81.045
;TYPE:SKIN
G1 F1680 E106.05374
G1 F1200 X17.359 Y80.829 E106.06887
G0 F3600 X17.359 Y80.207
G1 F1200 X18.198 Y81.045 E106.1276
G0 F3600 X18.82 Y81.045
G1 F1200 X17.359 Y79.584 E106.22993
G0 F3600 X17.359 Y78.962
G1 F1200 X19.442 Y81.045 E106.37583
G0 F3600 X20.064 Y81.045
G1 F1200 X17.359 Y78.34 E106.5653
G0 F3600 X17.359 Y77.718
G1 F1200 X20.687 Y81.045 E106.79837
G0 F3600 X21.309 Y81.045
G1 F1200 X17.359 Y77.095 E107.07505
G0 F3600 X17.359 Y76.473
G1 F1200 X21.931 Y81.045 E107.39529
G0 F3600 X22.553 Y81.045
G1 F1200 X17.359 Y75.851 E107.75909
G0 F3600 X17.359 Y75.229
G1 F1200 X23.176 Y81.045 E108.1665
G0 F3600 X23.798 Y81.045
G1 F1200 X17.359 Y74.606 E108.61752
G0 F3600 X17.359 Y73.984
G1 F1200 X24.42 Y81.045 E109.1121
G0 F3600 X25.042 Y81.045
G1 F1200 X17.359 Y73.362 E109.65024
G0 F3600 X17.359 Y72.74
G1 F1200 X25.665 Y81.045 E110.23199
G0 F3600 X26.287 Y81.045
G1 F1200 X17.359 Y72.117 E110.85734
G0 F3600 X17.359 Y71.495
G1 F1200 X26.909 Y81.045 E111.52626
G0 F3600 X27.531 Y81.045
G1 F1200 X17.359 Y70.873 E112.23875
G0 F3600 X17.359 Y70.251
G1 F1200 X28.154 Y81.045 E112.99484
G0 F3600 X28.776 Y81.045
G1 F1200 X17.359 Y69.628 E113.79453
G0 F3600 X17.359 Y69.006
G1 F1200 X29.398 Y81.045 E114.63779
G0 F3600 X30.02 Y81.045
G1 F1200 X17.359 Y68.384 E115.52461
G0 F3600 X17.359 Y67.762
G1 F1200 X30.643 Y81.045 E116.45504
G0 F3600 X31.265 Y81.045
G1 F1200 X17.359 Y67.139 E117.42907
G0 F3600 X17.359 Y66.517
G1 F1200 X31.887 Y81.045 E118.44667
G0 F3600 X32.509 Y81.045
G1 F1200 X17.359 Y65.895 E119.50783
G0 F3600 X17.359 Y65.273
G1 F1200 X33.132 Y81.045 E120.6126
G0 F3600 X33.754 Y81.045
G1 F1200 X17.359 Y64.65 E121.76097
G0 F3600 X17.359 Y64.028
G1 F1200 X34.376 Y81.045 E122.95291
G0 F3600 X34.998 Y81.045
G1 F1200 X17.359 Y63.406 E124.18841
G0 F3600 X17.359 Y62.784
G1 F1200 X35.621 Y81.045 E125.46752
G0 F3600 X36.243 Y81.045
G1 F1200 X17.359 Y62.161 E126.79022
G0 F3600 X17.359 Y61.539
G1 F1200 X36.865 Y81.045 E128.1565
G0 F3600 X37.487 Y81.045
G1 F1200 X17.359 Y60.917 E129.56634
G0 F3600 X17.359 Y60.294
G1 F1200 X38.11 Y81.045 E131.01982
G0 F3600 X38.732 Y81.045
G1 F1200 X17.359 Y59.672 E132.51687
G0 F3600 X17.359 Y59.05
G1 F1200 X39.354 Y81.045 E134.05749
G0 F3600 X39.976 Y81.045
G1 F1200 X17.359 Y58.428 E135.64167
G0 F3600 X17.359 Y57.805
G1 F1200 X40.599 Y81.045 E137.26949
G0 F3600 X41.221 Y81.045
G1 F1200 X17.359 Y57.183 E138.94088
G0 F3600 X17.359 Y56.561
G1 F1200 X41.843 Y81.045 E140.65583
G0 F3600 X42.466 Y81.045
G1 F1200 X17.359 Y55.939 E142.41439
G0 F3600 X17.359 Y55.316
G1 F1200 X43.088 Y81.045 E144.21655
G0 F3600 X43.71 Y81.045
G1 F1200 X17.359 Y54.694 E146.06227
G0 F3600 X17.359 Y54.072
G1 F1200 X44.332 Y81.045 E147.95156
G0 F3600 X44.955 Y81.045
G1 F1200 X17.359 Y53.45 E149.88446
G0 F3600 X17.359 Y52.827
G1 F1200 X45.577 Y81.045 E151.86096
G0 F3600 X46.199 Y81.045
G1 F1200 X17.359 Y52.205 E153.88102
G0 F3600 X17.359 Y51.583
