;FilamentType:PLA
;MachineType:ENTINA TINA2
;Extruder0Temperature:200
;BedTemperature:40
;InfillDensity:60
;FLAVOR:Marlin
;TIME:429
;FilamentUsed: 309.144
;Layer height: 0.15
;MINX:30.7
;MINY:50.599
;MINZ:0.3
;MAXX:69.754
;MAXY:60.597
;MAXZ:3
;Generated with Cura_SteamEngine 4.10.0
M82 ;absolute extrusion mode
;(**** start.gcode for TINA2****)
M104 S150
G28 Z
G28 X Y; Home extruder
G1 X55 Y55 F1000
G1 Z10 F200
G29
G1 Z15 F100
M107 ; Turn off fan
G90 ; Absolute positioning
M82 ; Extruder in absolute mode
M109 S215
G92 E0 ; Reset extruder position
G1 X90 Y6 Z0.27 F2000
G1 X20 Y6 Z0.27 E15 F1000 
G92 E0 ; Reset extruder position

M203 Z5
G92 E0
G92 E0
G1 F2100 E-3
;LAYER_COUNT:19
;LAYER:0
M107
;MESH:PiRTO_Cart-PiRTO3d.stl
G0 F3600 X68.9 Y60.197 Z0.3
;TYPE:WALL-INNER
G1 F2100 E0
G1 F1320 X31.1 Y60.197 E1.79156
G1 X31.1 Y51.397 E2.20864
G1 X68.9 Y51.397 E4.0002
G1 X68.9 Y60.197 E4.41728
G0 F3600 X69.3 Y60.597
;TYPE:WALL-OUTER
G1 F1320 X30.7 Y60.597 E6.24675
G1 X30.7 Y50.997 E6.70175
G1 X69.3 Y50.997 E8.53122
G1 X69.3 Y60.597 E8.98622
G0 F3600 X69.1 Y60.597
G0 X68.51 Y59.807
;TYPE:SKIN
G1 F1320 X31.49 Y59.807 E10.74081
G1 X31.49 Y51.787 E11.12093
G1 X68.51 Y51.787 E12.87551
G1 X68.51 Y59.807 E13.25563
G0 F3600 X68.329 Y52.489
G1 F1320 X67.805 Y51.966 E13.29072
G0 F3600 X67.24 Y51.966
G1 F1320 X68.329 Y53.055 E13.36371
G0 F3600 X68.329 Y53.621
G1 F1320 X66.674 Y51.966 E13.47464
G0 F3600 X66.108 Y51.966
G1 F1320 X68.329 Y54.187 E13.62351
G0 F3600 X68.329 Y54.752
G1 F1320 X65.543 Y51.966 E13.81025
G0 F3600 X64.977 Y51.966
G1 F1320 X68.329 Y55.318 E14.03492
G0 F3600 X68.329 Y55.884
G1 F1320 X64.411 Y51.966 E14.29754
G0 F3600 X63.846 Y51.966
G1 F1320 X68.329 Y56.449 E14.59802
G0 F3600 X68.329 Y57.015
G1 F1320 X63.28 Y51.966 E14.93645
G0 F3600 X62.714 Y51.966
G1 F1320 X68.329 Y57.581 E15.31281
G0 F3600 X68.329 Y58.146
G1 F1320 X62.149 Y51.966 E15.72704
G0 F3600 X61.583 Y51.966
G1 F1320 X68.329 Y58.712 E16.1792
G0 F3600 X68.329 Y59.278
G1 F1320 X61.017 Y51.966 E16.66931
G0 F3600 X60.451 Y51.966
G1 F1320 X68.112 Y59.626 E17.18278
G0 F3600 X67.546 Y59.626
G1 F1320 X59.886 Y51.966 E17.69621
G0 F3600 X59.32 Y51.966
G1 F1320 X66.98 Y59.626 E18.20964
G0 F3600 X66.415 Y59.626
G1 F1320 X58.754 Y51.966 E18.7231
G0 F3600 X58.189 Y51.966
G1 F1320 X65.849 Y59.626 E19.23654
G0 F3600 X65.283 Y59.626
G1 F1320 X57.623 Y51.966 E19.74997
G0 F3600 X57.057 Y51.966
G1 F1320 X64.717 Y59.626 E20.2634
G0 F3600 X64.152 Y59.626
G1 F1320 X56.492 Y51.966 E20.77683
G0 F3600 X55.926 Y51.966
G1 F1320 X63.586 Y59.626 E21.29026
G0 F3600 X63.02 Y59.626
G1 F1320 X55.36 Y51.966 E21.80369
G0 F3600 X54.795 Y51.966
G1 F1320 X62.455 Y59.626 E22.31713
G0 F3600 X61.889 Y59.626
G1 F1320 X54.229 Y51.966 E22.83056
G0 F3600 X53.663 Y51.966
G1 F1320 X61.323 Y59.626 E23.34399
G0 F3600 X60.758 Y59.626
G1 F1320 X53.098 Y51.966 E23.85742
G0 F3600 X52.532 Y51.966
G1 F1320 X60.192 Y59.626 E24.37085
G0 F3600 X59.626 Y59.626
G1 F1320 X51.966 Y51.966 E24.88428
G0 F3600 X51.401 Y51.966
G1 F1320 X59.061 Y59.626 E25.39772
G0 F3600 X58.495 Y59.626
G1 F1320 X50.835 Y51.966 E25.91115
G0 F3600 X50.269 Y51.966
G1 F1320 X57.929 Y59.626 E26.42458
G0 F3600 X57.364 Y59.626
G1 F1320 X49.703 Y51.966 E26.93804
G0 F3600 X49.138 Y51.966
G1 F1320 X56.798 Y59.626 E27.45148
G0 F3600 X56.232 Y59.626
G1 F1320 X48.572 Y51.966 E27.96491
G0 F3600 X48.006 Y51.966
G1 F1320 X55.666 Y59.626 E28.47834
G0 F3600 X55.101 Y59.626
G1 F1320 X47.441 Y51.966 E28.99177
G0 F3600 X46.875 Y51.966
G1 F1320 X54.535 Y59.626 E29.5052
G0 F3600 X53.969 Y59.626
G1 F1320 X46.309 Y51.966 E30.01863
G0 F3600 X45.744 Y51.966
G1 F1320 X53.404 Y59.626 E30.53207
G0 F3600 X52.838 Y59.626
G1 F1320 X45.178 Y51.966 E31.0455
G0 F3600 X44.612 Y51.966
G1 F1320 X52.272 Y59.626 E31.55893
G0 F3600 X51.707 Y59.626
G1 F1320 X44.047 Y51.966 E32.07236
G0 F3600 X43.481 Y51.966
G1 F1320 X51.141 Y59.626 E32.58579
G0 F3600 X50.575 Y59.626
G1 F1320 X42.915 Y51.966 E33.09922
G0 F3600 X42.35 Y51.966
G1 F1320 X50.01 Y59.626 E33.61266
G0 F3600 X49.443 Y59.626
G1 F1320 X41.784 Y51.966 E34.12605
G0 F3600 X41.218 Y51.966
G1 F1320 X48.878 Y59.626 E34.63949
G0 F3600 X48.312 Y59.626
G1 F1320 X40.652 Y51.966 E35.15292
G0 F3600 X40.087 Y51.966
G1 F1320 X47.746 Y59.626 E35.66632
G0 F3600 X47.18 Y59.626
G1 F1320 X39.521 Y51.966 E36.17971
G0 F3600 X38.955 Y51.966
G1 F1320 X46.615 Y59.626 E36.69315
G0 F3600 X46.049 Y59.626
G1 F1320 X38.39 Y51.966 E37.20654
G0 F3600 X37.824 Y51.966
G1 F1320 X45.483 Y59.626 E37.71994
G0 F3600 X44.918 Y59.626
G1 F1320 X37.258 Y51.966 E38.23337
G0 F3600 X36.693 Y51.966
G1 F1320 X44.352 Y59.626 E38.74677
G0 F3600 X43.786 Y59.626
G1 F1320 X36.127 Y51.966 E39.26017
G0 F3600 X35.561 Y51.966
G1 F1320 X43.221 Y59.626 E39.7736
G0 F3600 X42.655 Y59.626
G1 F1320 X34.996 Y51.966 E40.287
G0 F3600 X34.43 Y51.966
G1 F1320 X42.089 Y59.626 E40.8004
G0 F3600 X41.524 Y59.626
G1 F1320 X33.864 Y51.966 E41.31383
G0 F3600 X33.299 Y51.966
G1 F1320 X40.958 Y59.626 E41.82723
G0 F3600 X40.392 Y59.626
G1 F1320 X32.733 Y51.966 E42.34063
G0 F3600 X32.167 Y51.966
G1 F1320 X39.827 Y59.626 E42.85406
G0 F3600 X39.261 Y59.626
G1 F1320 X31.669 Y52.034 E43.36293
G0 F3600 X31.669 Y52.6
M104 S200
G1 F1320 X38.695 Y59.626 E43.83387
G0 F3600 X38.13 Y59.626
G1 F1320 X31.669 Y53.165 E44.26693
G0 F3600 X31.669 Y53.731
G1 F1320 X37.564 Y59.626 E44.66206
G0 F3600 X36.998 Y59.626
G1 F1320 X31.669 Y54.297 E45.01925
G0 F3600 X31.669 Y54.863
G1 F1320 X36.432 Y59.626 E45.3385
G0 F3600 X35.867 Y59.626
G1 F1320 X31.669 Y55.428 E45.61989
G0 F3600 X31.669 Y55.994
G1 F1320 X35.301 Y59.626 E45.86333
G0 F3600 X34.735 Y59.626
G1 F1320 X31.669 Y56.56 E46.06884
G0 F3600 X31.669 Y57.125
G1 F1320 X34.17 Y59.626 E46.23647
G0 F3600 X33.604 Y59.626
G1 F1320 X31.669 Y57.691 E46.36617
G0 F3600 X31.669 Y58.257
G1 F1320 X33.038 Y59.626 E46.45793
G0 F3600 X32.473 Y59.626
G1 F1320 X31.669 Y58.822 E46.51182
G0 F3600 X31.669 Y59.388
G1 F1320 X31.907 Y59.626 E46.52777
;MESH:NONMESH
G0 F600 X31.907 Y59.626 Z0.45
G0 F3600 X68.83 Y60.127
G0 X68.9 Y60.197
;TIME_ELAPSED:51.622413
;LAYER:1
M106 S255
;TYPE:WALL-INNER
;MESH:PiRTO_Cart-PiRTO3d.stl
G1 F3060 X31.1 Y60.197 E47.42355
G1 X31.1 Y51.397 E47.63209
G1 X68.9 Y51.397 E48.52787
G1 X68.9 Y60.197 E48.73641
G0 F3750 X69.3 Y60.597
;TYPE:WALL-OUTER
G1 F1860 X30.7 Y60.597 E49.65115
G1 X30.7 Y50.997 E49.87865
G1 X69.3 Y50.997 E50.79339
G1 X69.3 Y60.597 E51.02089
G0 F3750 X69.1 Y60.597
G0 X68.51 Y59.807
;TYPE:SKIN
G1 F1560 X31.49 Y59.807 E51.89818
G1 X31.49 Y51.787 E52.08824
G1 X68.51 Y51.787 E52.96553
G1 X68.51 Y59.807 E53.15559
G0 F3750 X68.329 Y59.515
G1 F1560 X68.217 Y59.627 E53.15934
G0 F3750 X67.651 Y59.627
G1 F1560 X68.329 Y58.95 E53.18205
G0 F3750 X68.329 Y58.384
G1 F1560 X67.086 Y59.627 E53.22371
G0 F3750 X66.52 Y59.627
G1 F1560 X68.329 Y57.818 E53.28433
G0 F3750 X68.329 Y57.253
G1 F1560 X65.954 Y59.627 E53.36391
G0 F3750 X65.388 Y59.627
G1 F1560 X68.329 Y56.687 E53.46246
G0 F3750 X68.329 Y56.121
G1 F1560 X64.823 Y59.627 E53.57996
G0 F3750 X64.257 Y59.627
G1 F1560 X68.329 Y55.555 E53.71643
G0 F3750 X68.329 Y54.99
G1 F1560 X63.691 Y59.627 E53.87185
G0 F3750 X63.126 Y59.627
G1 F1560 X68.329 Y54.424 E54.04622
G0 F3750 X68.329 Y53.858
G1 F1560 X62.56 Y59.627 E54.23956
G0 F3750 X61.994 Y59.627
G1 F1560 X68.329 Y53.293 E54.45185
G0 F3750 X68.329 Y52.727
G1 F1560 X61.429 Y59.627 E54.6831
G0 F3750 X60.863 Y59.627
G1 F1560 X68.329 Y52.161 E54.93331
G0 F3750 X67.958 Y51.966
G1 F1560 X60.297 Y59.627 E55.19006
G0 F3750 X59.732 Y59.627
G1 F1560 X67.392 Y51.966 E55.44679
G0 F3750 X66.827 Y51.966
G1 F1560 X59.166 Y59.627 E55.70354
G0 F3750 X58.6 Y59.627
G1 F1560 X66.261 Y51.966 E55.96029
G0 F3750 X65.695 Y51.966
G1 F1560 X58.035 Y59.627 E56.21703
G0 F3750 X57.469 Y59.627
G1 F1560 X65.13 Y51.966 E56.47377
G0 F3750 X64.564 Y51.966
G1 F1560 X56.903 Y59.627 E56.73052
G0 F3750 X56.338 Y59.627
G1 F1560 X63.998 Y51.966 E56.98726
G0 F3750 X63.433 Y51.966
G1 F1560 X55.772 Y59.627 E57.24401
G0 F3750 X55.206 Y59.627
G1 F1560 X62.867 Y51.966 E57.50076
G0 F3750 X62.301 Y51.966
G1 F1560 X54.64 Y59.627 E57.7575
G0 F3750 X54.075 Y59.627
G1 F1560 X61.736 Y51.966 E58.01425
G0 F3750 X61.17 Y51.966
G1 F1560 X53.509 Y59.627 E58.271
G0 F3750 X52.943 Y59.627
G1 F1560 X60.604 Y51.966 E58.52775
G0 F3750 X60.039 Y51.966
G1 F1560 X52.378 Y59.627 E58.7845
G0 F3750 X51.812 Y59.627
G1 F1560 X59.473 Y51.966 E59.04125
G0 F3750 X58.907 Y51.966
G1 F1560 X51.246 Y59.627 E59.298
G0 F3750 X50.681 Y59.627
G1 F1560 X58.341 Y51.966 E59.55473
G0 F3750 X57.776 Y51.966
G1 F1560 X50.115 Y59.627 E59.81148
G0 F3750 X49.55 Y59.626
G1 F1560 X57.21 Y51.966 E60.0682
G0 F3750 X56.644 Y51.966
G1 F1560 X48.984 Y59.626 E60.32491
G0 F3750 X48.419 Y59.626
G1 F1560 X56.079 Y51.966 E60.58163
G0 F3750 X55.513 Y51.966
G1 F1560 X47.853 Y59.626 E60.83835
G0 F3750 X47.287 Y59.626
G1 F1560 X54.947 Y51.966 E61.09506
G0 F3750 X54.382 Y51.966
G1 F1560 X46.722 Y59.626 E61.35178
G0 F3750 X46.156 Y59.626
G1 F1560 X53.816 Y51.966 E61.60849
G0 F3750 X53.25 Y51.966
G1 F1560 X45.59 Y59.626 E61.86521
G0 F3750 X45.025 Y59.626
G1 F1560 X52.685 Y51.966 E62.12192
G0 F3750 X52.119 Y51.966
G1 F1560 X44.459 Y59.626 E62.37864
G0 F3750 X43.893 Y59.626
G1 F1560 X51.553 Y51.966 E62.63536
G0 F3750 X50.988 Y51.966
G1 F1560 X43.327 Y59.626 E62.89209
G0 F3750 X42.762 Y59.626
G1 F1560 X50.422 Y51.966 E63.1488
G0 F3750 X49.856 Y51.966
G1 F1560 X42.196 Y59.626 E63.40552
G0 F3750 X41.63 Y59.626
G1 F1560 X49.29 Y51.966 E63.66224
G0 F3750 X48.725 Y51.966
G1 F1560 X41.065 Y59.626 E63.91895
G0 F3750 X40.499 Y59.626
G1 F1560 X48.159 Y51.966 E64.17567
G0 F3750 X47.593 Y51.966
G1 F1560 X39.933 Y59.626 E64.43238
G0 F3750 X39.368 Y59.626
G1 F1560 X47.028 Y51.966 E64.6891
G0 F3750 X46.462 Y51.966
G1 F1560 X38.802 Y59.626 E64.94582
G0 F3750 X38.236 Y59.626
G1 F1560 X45.896 Y51.966 E65.20253
G0 F3750 X45.331 Y51.966
G1 F1560 X37.671 Y59.626 E65.45925
G0 F3750 X37.105 Y59.626
G1 F1560 X44.765 Y51.966 E65.71596
G0 F3750 X44.199 Y51.966
G1 F1560 X36.539 Y59.626 E65.97268
G0 F3750 X35.974 Y59.626
G1 F1560 X43.634 Y51.966 E66.22939
G0 F3750 X43.068 Y51.966
G1 F1560 X35.408 Y59.626 E66.48611
G0 F3750 X34.842 Y59.626
G1 F1560 X42.502 Y51.966 E66.74283
G0 F3750 X41.937 Y51.966
G1 F1560 X34.277 Y59.626 E66.99954
G0 F3750 X33.711 Y59.626
G1 F1560 X41.371 Y51.966 E67.25626
G0 F3750 X40.805 Y51.966
G1 F1560 X33.145 Y59.626 E67.51297
G0 F3750 X32.579 Y59.626
G1 F1560 X40.24 Y51.966 E67.76971
G0 F3750 X39.674 Y51.966
G1 F1560 X32.014 Y59.626 E68.02642
G0 F3750 X31.669 Y59.405
G1 F1560 X39.108 Y51.966 E68.27573
G0 F3750 X38.542 Y51.966
G1 F1560 X31.669 Y58.839 E68.50607
G0 F3750 X31.669 Y58.274
G1 F1560 X37.977 Y51.966 E68.71748
G0 F3750 X37.411 Y51.966
G1 F1560 X31.669 Y57.708 E68.90991
G0 F3750 X31.669 Y57.142
G1 F1560 X36.845 Y51.966 E69.08338
G0 F3750 X36.28 Y51.966
G1 F1560 X31.669 Y56.577 E69.23791
G0 F3750 X31.669 Y56.011
G1 F1560 X35.714 Y51.966 E69.37348
G0 F3750 X35.148 Y51.966
G1 F1560 X31.669 Y55.445 E69.49007
G0 F3750 X31.669 Y54.879
G1 F1560 X34.583 Y51.966 E69.58771
G0 F3750 X34.017 Y51.966
G1 F1560 X31.669 Y54.314 E69.6664
G0 F3750 X31.669 Y53.748
G1 F1560 X33.451 Y51.966 E69.72613
G0 F3750 X32.886 Y51.966
G1 F1560 X31.669 Y53.182 E69.7669
G0 F3750 X31.669 Y52.617
G1 F1560 X32.32 Y51.966 E69.78871
G0 F3750 X31.754 Y51.966
G1 F1560 X31.669 Y52.051 E69.79156
;MESH:NONMESH
G0 F600 X31.669 Y52.051 Z0.6
G0 F3750 X68.83 Y60.127
G0 X68.9 Y60.197
;TIME_ELAPSED:89.340091
;LAYER:2
;TYPE:WALL-INNER
;MESH:PiRTO_Cart-PiRTO3d.stl
G1 F4800 X31.1 Y60.197 E70.68734
G1 X31.1 Y51.397 E70.89588
G1 X68.9 Y51.397 E71.79166
G1 X68.9 Y60.197 E72.0002
G0 F3900 X69.3 Y60.597
;TYPE:WALL-OUTER
G1 F2400 X30.7 Y60.597 E72.91494
G1 X30.7 Y50.997 E73.14244
G1 X69.3 Y50.997 E74.05717
G1 X69.3 Y60.597 E74.28467
G0 F3900 X69.1 Y60.597
G0 X68.51 Y59.807
;TYPE:SKIN
G1 F1800 X31.49 Y59.807 E75.16197
G1 X31.49 Y51.787 E75.35202
G1 X68.51 Y51.787 E76.22932
G1 X68.51 Y59.807 E76.41938
G0 F3900 X68.329 Y52.489
G1 F1800 X67.805 Y51.966 E76.43692
G0 F3900 X67.24 Y51.966
G1 F1800 X68.329 Y53.055 E76.47342
G0 F3900 X68.329 Y53.621
G1 F1800 X66.674 Y51.966 E76.52888
G0 F3900 X66.108 Y51.966
G1 F1800 X68.329 Y54.187 E76.60332
G0 F3900 X68.329 Y54.752
G1 F1800 X65.543 Y51.966 E76.69669
G0 F3900 X64.977 Y51.966
G1 F1800 X68.329 Y55.318 E76.80902
G0 F3900 X68.329 Y55.884
G1 F1800 X64.411 Y51.966 E76.94033
G0 F3900 X63.846 Y51.966
G1 F1800 X68.329 Y56.449 E77.09057
G0 F3900 X68.329 Y57.015
G1 F1800 X63.28 Y51.966 E77.25978
G0 F3900 X62.714 Y51.966
G1 F1800 X68.329 Y57.581 E77.44796
G0 F3900 X68.329 Y58.146
G1 F1800 X62.149 Y51.966 E77.65508
G0 F3900 X61.583 Y51.966
G1 F1800 X68.329 Y58.712 E77.88116
G0 F3900 X68.329 Y59.278
G1 F1800 X61.017 Y51.966 E78.12622
G0 F3900 X60.451 Y51.966
G1 F1800 X68.112 Y59.626 E78.38295
G0 F3900 X67.546 Y59.626
G1 F1800 X59.886 Y51.966 E78.63967
G0 F3900 X59.32 Y51.966
G1 F1800 X66.98 Y59.626 E78.89638
G0 F3900 X66.415 Y59.626
G1 F1800 X58.754 Y51.966 E79.15311
G0 F3900 X58.189 Y51.966
G1 F1800 X65.849 Y59.626 E79.40983
G0 F3900 X65.283 Y59.626
G1 F1800 X57.623 Y51.966 E79.66655
G0 F3900 X57.057 Y51.966
G1 F1800 X64.717 Y59.626 E79.92326
G0 F3900 X64.152 Y59.626
G1 F1800 X56.492 Y51.966 E80.17998
G0 F3900 X55.926 Y51.966
G1 F1800 X63.586 Y59.626 E80.43669
G0 F3900 X63.02 Y59.626
G1 F1800 X55.36 Y51.966 E80.69341
G0 F3900 X54.795 Y51.966
G1 F1800 X62.455 Y59.626 E80.95012
G0 F3900 X61.889 Y59.626
G1 F1800 X54.229 Y51.966 E81.20684
G0 F3900 X53.663 Y51.966
G1 F1800 X61.323 Y59.626 E81.46356
G0 F3900 X60.758 Y59.626
G1 F1800 X53.098 Y51.966 E81.72027
G0 F3900 X52.532 Y51.966
G1 F1800 X60.192 Y59.626 E81.97699
G0 F3900 X59.626 Y59.626
G1 F1800 X51.966 Y51.966 E82.2337
G0 F3900 X51.401 Y51.966
G1 F1800 X59.061 Y59.626 E82.49042
G0 F3900 X58.495 Y59.626
G1 F1800 X50.835 Y51.966 E82.74714
G0 F3900 X50.269 Y51.966
G1 F1800 X57.929 Y59.626 E83.00385
G0 F3900 X57.364 Y59.626
G1 F1800 X49.703 Y51.966 E83.26058
G0 F3900 X49.138 Y51.966
G1 F1800 X56.798 Y59.626 E83.5173
G0 F3900 X56.232 Y59.626
G1 F1800 X48.572 Y51.966 E83.77402
G0 F3900 X48.006 Y51.966
G1 F1800 X55.666 Y59.626 E84.03073
G0 F3900 X55.101 Y59.626
G1 F1800 X47.441 Y51.966 E84.28745
G0 F3900 X46.875 Y51.966
G1 F1800 X54.535 Y59.626 E84.54416
G0 F3900 X53.969 Y59.626
G1 F1800 X46.309 Y51.966 E84.80088
G0 F3900 X45.744 Y51.966
G1 F1800 X53.404 Y59.626 E85.05759
G0 F3900 X52.838 Y59.626
G1 F1800 X45.178 Y51.966 E85.31431
G0 F3900 X44.612 Y51.966
G1 F1800 X52.272 Y59.626 E85.57103
G0 F3900 X51.707 Y59.626
G1 F1800 X44.047 Y51.966 E85.82774
G0 F3900 X43.481 Y51.966
G1 F1800 X51.141 Y59.626 E86.08446
G0 F3900 X50.575 Y59.626
G1 F1800 X42.915 Y51.966 E86.34117
G0 F3900 X42.35 Y51.966
G1 F1800 X50.01 Y59.626 E86.59789
G0 F3900 X49.443 Y59.626
G1 F1800 X41.784 Y51.966 E86.85459
G0 F3900 X41.218 Y51.966
G1 F1800 X48.878 Y59.626 E87.1113
G0 F3900 X48.312 Y59.626
G1 F1800 X40.652 Y51.966 E87.36802
G0 F3900 X40.087 Y51.966
G1 F1800 X47.746 Y59.626 E87.62472
G0 F3900 X47.18 Y59.626
G1 F1800 X39.521 Y51.966 E87.88142
G0 F3900 X38.955 Y51.966
G1 F1800 X46.615 Y59.626 E88.13813
G0 F3900 X46.049 Y59.626
G1 F1800 X38.39 Y51.966 E88.39483
G0 F3900 X37.824 Y51.966
G1 F1800 X45.483 Y59.626 E88.65153
G0 F3900 X44.918 Y59.626
G1 F1800 X37.258 Y51.966 E88.90825
G0 F3900 X36.693 Y51.966
G1 F1800 X44.352 Y59.626 E89.16495
G0 F3900 X43.786 Y59.626
G1 F1800 X36.127 Y51.966 E89.42165
G0 F3900 X35.561 Y51.966
G1 F1800 X43.221 Y59.626 E89.67836
G0 F3900 X42.655 Y59.626
G1 F1800 X34.996 Y51.966 E89.93506
G0 F3900 X34.43 Y51.966
G1 F1800 X42.089 Y59.626 E90.19176
G0 F3900 X41.524 Y59.626
G1 F1800 X33.864 Y51.966 E90.44848
