;FLAVOR:Marlin
;TIME:10807
;Filament used: 5.40595m
;Layer height: 0.15
;MINX:12.84
;MINY:8.84
;MINZ:0.3
;MAXX:87.16
;MAXY:111.16
;MAXZ:9
;Generated with Cura_SteamEngine 5.3.0
M82 ;absolute extrusion mode
;MachineType:ENTINA TINA2
;FilamentType:PLA
;InfillDensity:30
;Extruder0Temperature:200

;(**** start.gcode for tina2****)
M203 Z15
M104 S150
G28 Z
G28 X Y; Home extruder
G1 X55 Y55 F1000
G29
M107 ; Turn off fan
G90 ; Absolute positioning
M82 ; Extruder in absolute mode
M109 S210
G92 E0 ; Reset extruder position
G1 X90 Y6 Z0.27 F2000
G1 X20 Y6 Z0.27 E15 F1000
G92 E0 ; Reset extruder position
M203 Z5
G92 E0
G92 E0
G1 F1680 E-3
;LAYER_COUNT:59
;LAYER:0
M107
G0 F3600 X13.938 Y10.571 Z0.3
;TYPE:SKIRT
G1 F1680 E0
G1 F1560 X14.274 Y10.192 E0.02509
G1 X14.666 Y9.869 E0.05024
G1 X15.103 Y9.613 E0.07533
G1 X15.575 Y9.428 E0.10044
G1 X16.071 Y9.319 E0.12559
G1 X16.527 Y9.281 E0.14825
G1 X82.839 Y9.28 E3.43259
G1 X83.537 Y9.29 E3.46716
G1 X84.042 Y9.338 E3.49228
G1 X84.533 Y9.463 E3.51738
G1 X84.999 Y9.665 E3.54253
G1 X85.427 Y9.937 E3.56765
G1 X85.807 Y10.273 E3.59277
G1 X86.129 Y10.664 E3.61786
G1 X86.386 Y11.101 E3.64297
G1 X86.572 Y11.573 E3.6681
G1 X86.681 Y12.069 E3.69325
G1 X86.719 Y12.528 E3.71606
G1 X86.72 Y106.541 E8.37238
G1 X86.711 Y107.235 E8.40676
G1 X86.664 Y107.74 E8.43188
G1 X86.493 Y108.401 E8.4657
G1 X86.224 Y109.014 E8.49885
G1 X85.949 Y109.44 E8.52397
G1 X85.611 Y109.818 E8.54908
G1 X85.217 Y110.138 E8.57422
G1 X84.779 Y110.392 E8.5993
G1 X84.305 Y110.575 E8.62446
G1 X83.696 Y110.704 E8.65529
G1 X82.676 Y110.72 E8.70582
G1 X17.217 Y110.72 E11.94791
G1 X16.472 Y110.709 E11.98481
G1 X15.968 Y110.661 E12.00988
G1 X15.476 Y110.535 E12.03504
G1 X15.011 Y110.334 E12.06013
G1 X14.583 Y110.061 E12.08527
G1 X14.203 Y109.725 E12.11039
G1 X13.881 Y109.334 E12.13548
G1 X13.624 Y108.897 E12.16059
G1 X13.439 Y108.424 E12.18575
G1 X13.306 Y107.82 E12.21638
G1 X13.28 Y106.417 E12.28588
G1 X13.28 Y13.126 E16.90644
G1 X13.29 Y12.461 E16.93938
G1 X13.338 Y11.956 E16.96451
G1 X13.464 Y11.464 E16.98966
G1 X13.666 Y10.999 E17.01477
G1 X13.938 Y10.571 E17.03989
G0 F3600 X13.586 Y10.304
G1 F1560 X13.994 Y9.852 E17.07005
G1 X14.413 Y9.507 E17.09693
G1 X14.942 Y9.203 E17.12715
G1 X15.414 Y9.018 E17.15226
G1 X15.977 Y8.889 E17.18086
G1 X16.527 Y8.841 E17.20821
G1 X82.845 Y8.84 E20.49284
G1 X83.579 Y8.852 E20.5292
G1 X84.084 Y8.9 E20.55432
G1 X84.677 Y9.046 E20.58457
G1 X85.174 Y9.261 E20.61139
G1 X85.694 Y9.585 E20.64173
G1 X86.147 Y9.993 E20.67193
G1 X86.469 Y10.384 E20.69702
G1 X86.782 Y10.907 E20.7272
G1 X87.002 Y11.479 E20.75756
G1 X87.111 Y11.975 E20.78271
G1 X87.159 Y12.528 E20.8102
G1 X87.16 Y106.547 E25.46682
G1 X87.151 Y107.241 E25.5012
G1 X87.099 Y107.817 E25.52984
G1 X86.896 Y108.578 E25.56885
G1 X86.594 Y109.253 E25.60548
G1 X86.319 Y109.679 E25.63059
G1 X85.914 Y110.139 E25.66095
G1 X85.438 Y110.519 E25.69111
G1 X85 Y110.773 E25.71619
G1 X84.431 Y110.998 E25.7465
G1 X83.743 Y111.143 E25.78132
G1 X82.683 Y111.16 E25.83383
G1 X17.211 Y111.16 E29.07656
G1 X16.43 Y111.147 E29.11524
G1 X15.859 Y111.087 E29.14368
G1 X15.301 Y110.939 E29.17227
G1 X14.836 Y110.738 E29.19736
G1 X14.346 Y110.432 E29.22598
G1 X13.885 Y110.031 E29.25624
G1 X13.541 Y109.614 E29.28301
G1 X13.226 Y109.088 E29.31338
G1 X13.009 Y108.519 E29.34354
G1 X12.867 Y107.873 E29.3763
G1 X12.84 Y106.425 E29.44803
G1 X12.84 Y13.119 E34.06933
G1 X12.852 Y12.419 E34.10401
G1 X12.912 Y11.847 E34.13249
G1 X13.06 Y11.289 E34.16109
G1 X13.262 Y10.824 E34.1862
G1 X13.586 Y10.304 E34.21654
G1 F1680 E31.21654
;MESH:PiRTO_Cart-Base3D.stl
G0 F3600 X30.012 Y58.114
;TYPE:WALL-INNER
G1 F1680 E34.21654
G1 F1320 X29.387 Y58.029 E34.24778
G1 X28.696 Y57.765 E34.28442
G1 X28.095 Y57.28 E34.32267
G1 X27.742 Y56.808 E34.35186
G1 X27.503 Y56.259 E34.38152
G1 X27.385 Y55.508 E34.41917
G1 X27.465 Y54.908 E34.44915
G1 X27.741 Y54.18 E34.48771
G1 X28.225 Y53.598 E34.5252
G1 X28.683 Y53.242 E34.55393
G1 X29.275 Y53 E34.58561
G1 X29.992 Y52.885 E34.62157
G1 X30.6 Y52.963 E34.65193
G1 X31.311 Y53.235 E34.68964
G1 X31.905 Y53.721 E34.72765
G1 X32.266 Y54.197 E34.75724
G1 X32.526 Y54.816 E34.79049
G1 X32.613 Y55.5 E34.82464
G1 X32.527 Y56.178 E34.85849
G1 X32.26 Y56.812 E34.89256
G1 X31.779 Y57.402 E34.93027
G1 X31.312 Y57.76 E34.95941
G1 X30.757 Y57.994 E34.98924
G1 X30.012 Y58.114 E35.02662
G1 F1680 E32.02662
G0 F3600 X69.008 Y58.115
G1 F1680 E35.02662
G1 F1320 X68.405 Y58.037 E35.05673
G1 X67.7 Y57.77 E35.09407
G1 X67.103 Y57.282 E35.13226
G1 X66.744 Y56.818 E35.16132
G1 X66.47 Y56.17 E35.19616
G1 X66.388 Y55.5 E35.22959
G1 X66.467 Y54.845 E35.26227
G1 X66.737 Y54.191 E35.29731
G1 X67.229 Y53.589 E35.33582
G1 X67.682 Y53.248 E35.3639
G1 X68.241 Y53.005 E35.39409
G1 X68.975 Y52.888 E35.43091
G1 X69.581 Y52.959 E35.46112
G1 X70.304 Y53.233 E35.49942
G1 X70.905 Y53.721 E35.53776
G1 X71.273 Y54.212 E35.56815
G1 X71.492 Y54.745 E35.59669
G1 X71.612 Y55.466 E35.63289
G1 X71.54 Y56.092 E35.6641
G1 X71.258 Y56.821 E35.70282
G1 X70.775 Y57.402 E35.74024
G1 X70.328 Y57.746 E35.76817
G1 X69.767 Y57.993 E35.79853
G1 X69.008 Y58.115 E35.83661
G1 F1680 E32.83661
G0 F3600 X82.84 Y106.84
G1 F1680 E35.83661
G1 F1320 X82.84 Y13.16 E40.47644
G1 X17.161 Y13.161 E43.72942
G1 X17.16 Y106.84 E48.3692
G1 X82.84 Y106.84 E51.62223
G0 F3600 X83.249 Y107.28
;TYPE:WALL-OUTER
G1 F1320 X83.28 Y107.196 E51.62667
G1 X83.28 Y12.72 E56.30592
G1 X16.721 Y12.721 E59.60249
G1 X16.72 Y107.28 E64.28585
G1 X83.249 Y107.28 E67.58094
G1 F1680 E64.58094
G0 F3600 X69.02 Y57.668
G1 F1680 E67.58094
G1 F1320 X68.522 Y57.61 E67.60577
G1 X67.907 Y57.374 E67.63839
G1 X67.414 Y56.97 E67.66996
G1 X67.123 Y56.589 E67.69371
G1 X66.9 Y56.054 E67.72242
G1 X66.831 Y55.48 E67.75105
G1 X66.9 Y54.946 E67.77772
G1 X67.122 Y54.414 E67.80627
G1 X67.521 Y53.924 E67.83757
G1 X67.897 Y53.633 E67.86111
G1 X68.365 Y53.431 E67.88636
G1 X69.002 Y53.331 E67.9183
G1 X69.475 Y53.39 E67.94191
G1 X70.084 Y53.618 E67.97411
G1 X70.566 Y54.012 E68.00495
G1 X70.878 Y54.414 E68.03015
G1 X71.069 Y54.867 E68.0545
G1 X71.166 Y55.464 E68.08446
G1 X71.108 Y55.985 E68.11042
G1 X70.878 Y56.59 E68.14248
G1 X70.47 Y57.085 E68.17425
G1 X70.093 Y57.374 E68.19777
G1 X69.64 Y57.567 E68.22216
G1 X69.02 Y57.668 E68.25327
G1 F1680 E65.25327
G0 F3600 X30.011 Y57.668
G1 F1680 E68.25327
G1 F1320 X29.525 Y57.61 E68.27752
G1 X28.907 Y57.374 E68.31028
G1 X28.434 Y56.988 E68.34052
G1 X28.122 Y56.586 E68.36572
G1 X27.931 Y56.133 E68.39007
G1 X27.834 Y55.534 E68.42013
G1 X27.892 Y55.015 E68.44599
G1 X28.122 Y54.41 E68.47805
G1 X28.53 Y53.915 E68.50982
G1 X28.923 Y53.617 E68.53425
G1 X29.36 Y53.433 E68.55773
G1 X29.98 Y53.332 E68.58884
G1 X30.47 Y53.389 E68.61328
G1 X31.086 Y53.619 E68.64584
G1 X31.572 Y54.017 E68.67696
G1 X31.877 Y54.412 E68.70167
G1 X32.092 Y54.918 E68.7289
G1 X32.169 Y55.48 E68.757
G1 X32.098 Y56.07 E68.78643
G1 X31.878 Y56.585 E68.81417
G1 X31.485 Y57.07 E68.84509
G1 X31.099 Y57.37 E68.8693
G1 X30.643 Y57.566 E68.89388
G1 X30.011 Y57.668 E68.92559
G1 F1680 E65.92559
G0 F3600 X17.657 Y106.639
;TYPE:SKIN
G1 F1680 E68.92559
G1 F1200 X17.36 Y106.342 E68.94639
G0 F3600 X17.36 Y105.72
G1 F1200 X18.279 Y106.639 E69.01076
G0 F3600 X18.901 Y106.639
G1 F1200 X17.36 Y105.097 E69.11873
G0 F3600 X17.36 Y104.475
G1 F1200 X19.523 Y106.639 E69.27027
G0 F3600 X20.146 Y106.639
G1 F1200 X17.36 Y103.853 E69.46542
G0 F3600 X17.36 Y103.231
G1 F1200 X20.768 Y106.639 E69.70413
G0 F3600 X21.39 Y106.639
G1 F1200 X17.36 Y102.608 E69.98644
G0 F3600 X17.36 Y101.986
G1 F1200 X22.012 Y106.639 E70.31232
G0 F3600 X22.635 Y106.639
G1 F1200 X17.36 Y101.364 E70.6818
G0 F3600 X17.36 Y100.742
G1 F1200 X23.257 Y106.639 E71.09485
G0 F3600 X23.879 Y106.639
G1 F1200 X17.36 Y100.119 E71.5515
G0 F3600 X17.36 Y99.497
G1 F1200 X24.501 Y106.639 E72.05172
G0 F3600 X25.124 Y106.639
G1 F1200 X17.36 Y98.875 E72.59554
G0 F3600 X17.36 Y98.253
G1 F1200 X25.746 Y106.639 E73.18292
G0 F3600 X26.368 Y106.639
G1 F1200 X17.36 Y97.63 E73.81392
G0 F3600 X17.36 Y97.008
G1 F1200 X26.99 Y106.639 E74.48847
G0 F3600 X27.613 Y106.639
G1 F1200 X17.36 Y96.386 E75.20663
G0 F3600 X17.36 Y95.764
G1 F1200 X28.235 Y106.639 E75.96836
G0 F3600 X28.857 Y106.639
G1 F1200 X17.36 Y95.141 E76.77369
G0 F3600 X17.36 Y94.519
G1 F1200 X29.479 Y106.639 E77.62259
G0 F3600 X30.102 Y106.639
G1 F1200 X17.36 Y93.897 E78.51508
G0 F3600 X17.36 Y93.275
G1 F1200 X30.724 Y106.639 E79.45115
G0 F3600 X31.346 Y106.639
G1 F1200 X17.36 Y92.652 E80.43082
G0 F3600 X17.36 Y92.03
G1 F1200 X31.969 Y106.639 E81.45409
G0 F3600 X32.591 Y106.639
G1 F1200 X17.36 Y91.408 E82.52093
G0 F3600 X17.36 Y90.786
G1 F1200 X33.213 Y106.639 E83.63133
G0 F3600 X33.835 Y106.639
G1 F1200 X17.36 Y90.163 E84.78534
G0 F3600 X17.36 Y89.541
G1 F1200 X34.458 Y106.639 E85.98295
G0 F3600 X35.08 Y106.639
G1 F1200 X17.36 Y88.919 E87.22413
G0 F3600 X17.36 Y88.297
G1 F1200 X35.702 Y106.639 E88.50887
G0 F3600 X36.324 Y106.639
G1 F1200 X17.36 Y87.674 E89.83722
G0 F3600 X17.36 Y87.052
G1 F1200 X36.947 Y106.639 E91.20917
G0 F3600 X37.569 Y106.639
G1 F1200 X17.36 Y86.43 E92.62469
G0 F3600 X17.36 Y85.808
G1 F1200 X38.191 Y106.639 E94.08377
G0 F3600 X38.813 Y106.639
G1 F1200 X17.36 Y85.185 E95.58646
G0 F3600 X17.36 Y84.563
G1 F1200 X39.436 Y106.639 E97.13275
G0 F3600 X40.058 Y106.639
G1 F1200 X17.36 Y83.941 E98.7226
G0 F3600 X17.36 Y83.319
G1 F1200 X40.68 Y106.639 E100.35603
G0 F3600 X41.302 Y106.639
G1 F1200 X17.36 Y82.696 E102.03305
G0 F3600 X17.36 Y82.074
G1 F1200 X41.925 Y106.639 E103.75368
G0 F3600 X42.547 Y106.639
G1 F1200 X17.36 Y81.452 E105.51787
G0 F3600 X17.36 Y80.83
G1 F1200 X43.169 Y106.639 E107.32564
G0 F3600 X43.791 Y106.639
G1 F1200 X17.36 Y80.207 E109.177
G0 F3600 X17.36 Y79.585
G1 F1200 X44.414 Y106.639 E111.07197
G0 F3600 X45.036 Y106.639
G1 F1200 X17.36 Y78.963 E113.0105
G0 F3600 X17.36 Y78.341
G1 F1200 X45.658 Y106.639 E114.9926
G0 F3600 X46.28 Y106.639
G1 F1200 X17.36 Y77.718 E117.01831
G0 F3600 X17.36 Y77.096
G1 F1200 X46.903 Y106.639 E119.08761
G0 F3600 X47.525 Y106.639
G1 F1200 X17.36 Y76.474 E121.20049
G0 F3600 X17.36 Y75.852
G1 F1200 X48.147 Y106.639 E123.35693
G0 F3600 X48.769 Y106.639
G1 F1200 X17.36 Y75.229 E125.55697
G0 F3600 X17.36 Y74.607
G1 F1200 X49.392 Y106.639 E127.80062
G0 F3600 X50.014 Y106.639
G1 F1200 X17.36 Y73.985 E130.08783
G0 F3600 X17.36 Y73.363
G1 F1200 X50.636 Y106.639 E132.41861
G0 F3600 X51.258 Y106.639
G1 F1200 X17.36 Y72.74 E134.79299
G0 F3600 X17.36 Y72.118
G1 F1200 X51.881 Y106.639 E137.21098
G0 F3600 X52.503 Y106.639
G1 F1200 X17.36 Y71.496 E139.67253
G0 F3600 X17.36 Y70.874
G1 F1200 X53.125 Y106.639 E142.17765
G0 F3600 X53.747 Y106.639
G1 F1200 X17.36 Y70.251 E144.72637
G0 F3600 X17.36 Y69.629
G1 F1200 X54.37 Y106.639 E147.31869
G0 F3600 X54.992 Y106.639
G1 F1200 X17.36 Y69.007 E149.95458
G0 F3600 X17.36 Y68.385
G1 F1200 X55.614 Y106.639 E152.63404
G0 F3600 X56.236 Y106.639
G1 F1200 X17.36 Y67.762 E155.3571
G0 F3600 X17.36 Y67.14
G1 F1200 X56.859 Y106.639 E158.12377
G0 F3600 X57.481 Y106.639
G1 F1200 X17.36 Y66.518 E160.934
G0 F3600 X17.36 Y65.895
G1 F1200 X58.103 Y106.639 E163.78783
G0 F3600 X58.725 Y106.639
G1 F1200 X17.36 Y65.273 E166.68523
G0 F3600 X17.36 Y64.651
G1 F1200 X59.348 Y106.639 E169.62623
G0 F3600 X59.97 Y106.639
G1 F1200 X17.36 Y64.029 E172.6108
G0 F3600 X17.36 Y63.406
G1 F1200 X60.592 Y106.639 E175.63897
G0 F3600 X61.214 Y106.639
G1 F1200 X17.36 Y62.784 E178.71071
G0 F3600 X17.36 Y62.162
G1 F1200 X61.837 Y106.639 E181.82605
G0 F3600 X62.459 Y106.639
G1 F1200 X17.36 Y61.54 E184.98496
G0 F3600 X17.36 Y60.917
G1 F1200 X63.081 Y106.639 E188.18747
G0 F3600 X63.703 Y106.639
G1 F1200 X17.36 Y60.295 E191.43355
G0 F3600 X17.36 Y59.673
G1 F1200 X64.326 Y106.639 E194.72323
G0 F3600 X64.948 Y106.639
G1 F1200 X17.36 Y59.051 E198.05648
G0 F3600 X17.36 Y58.428
G1 F1200 X65.57 Y106.639 E201.43333
G0 F3600 X66.192 Y106.639
G1 F1200 X17.36 Y57.806 E204.85375
G0 F3600 X17.36 Y57.184
G1 F1200 X66.815 Y106.639 E208.31777
G0 F3600 X67.437 Y106.639
G1 F1200 X17.36 Y56.562 E211.82535
G0 F3600 X17.36 Y55.939
G1 F1200 X68.059 Y106.639 E215.37654
G0 F3600 X68.681 Y106.639
G1 F1200 X17.36 Y55.317 E218.9713
G0 F3600 X17.36 Y54.695
G1 F1200 X69.304 Y106.639 E222.60966
G0 F3600 X69.926 Y106.639
G1 F1200 X17.36 Y54.073 E226.29158
G0 F3600 X17.36 Y53.45
G1 F1200 X70.548 Y106.639 E230.01711
G0 F3600 X71.171 Y106.639
G1 F1200 X17.36 Y52.828 E233.78624
G0 F3600 X17.36 Y52.206
G1 F1200 X71.793 Y106.639 E237.59894
G0 F3600 X72.415 Y106.639
G1 F1200 X17.36 Y51.584 E241.45521
G0 F3600 X17.36 Y50.961
G1 F1200 X73.037 Y106.639 E245.35508
G0 F3600 X73.66 Y106.639
G1 F1200 X17.36 Y50.339 E249.29855
G0 F3600 X17.36 Y49.717
G1 F1200 X74.282 Y106.639 E253.28558
G0 F3600 X74.904 Y106.639
G1 F1200 X17.36 Y49.095 E257.31619
G0 F3600 X17.36 Y48.472
G1 F1200 X75.526 Y106.639 E261.3904
G0 F3600 X76.149 Y106.639
G1 F1200 X17.36 Y47.85 E265.5082
G0 F3600 X17.36 Y47.228
G1 F1200 X76.771 Y106.639 E269.66958
G0 F3600 X77.393 Y106.639
G1 F1200 X28.753 Y57.999 E273.07652
G1 X28.683 Y57.929
G1 F1680 E270.07652
G0 F3600 X29.639 Y58.263
G1 F1680 E273.07652
G1 F1200 X78.015 Y106.639 E276.46496
G0 F3600 X78.638 Y106.639
G1 F1200 X30.273 Y58.274 E279.85263
G0 F3600 X30.807 Y58.186
G1 F1200 X79.26 Y106.639 E283.24647
G0 F3600 X79.882 Y106.639
G1 F1200 X31.248 Y58.005 E286.65298
G0 F3600 X31.632 Y57.767
G1 F1200 X80.504 Y106.639 E290.07616
G0 F3600 X81.127 Y106.639
G1 F1200 X31.971 Y57.483 E293.51924
G0 F3600 X32.251 Y57.141
G1 F1200 X81.749 Y106.639 E296.98627
G0 F3600 X82.371 Y106.639
G1 F1200 X32.496 Y56.764 E300.47971
G0 F3600 X32.683 Y56.328
G1 F1200 X82.64 Y106.285 E303.97889
G0 F3600 X82.64 Y105.663
G1 F1200 X32.775 Y55.799 E307.47159
G0 F3600 X32.774 Y55.175
G1 F1200 X82.64 Y105.041 E310.9644
G0 F3600 X82.64 Y104.419
G1 F1200 X32.529 Y54.308 E314.47437
G1 X32.459 Y54.238
G1 F1680 E311.47437
G0 F3600 X31.197 Y52.976
G1 F1680 E314.47437
G1 F1200 X17.36 Y39.139 E315.44357
G0 F3600 X17.36 Y39.761
G1 F1200 X30.33 Y52.731 E316.35204
G0 F3600 X29.704 Y52.727
G1 F1200 X17.36 Y40.383 E317.21666
G0 F3600 X17.36 Y41.005
G1 F1200 X29.173 Y52.818 E318.04409
G0 F3600 X28.733 Y53.001
G1 F1200 X17.36 Y41.628 E318.8407
G0 F3600 X17.36 Y42.25
G1 F1200 X28.353 Y53.243 E319.61069
G0 F3600 X28.016 Y53.529
G1 F1200 X17.36 Y42.872 E320.35711
G0 F3600 X17.36 Y43.494
G1 F1200 X27.739 Y53.873 E321.0841
G0 F3600 X27.499 Y54.256
G1 F1200 X17.36 Y44.117 E321.79427
G0 F3600 X17.36 Y44.739
G1 F1200 X27.324 Y54.703 E322.49219
G0 F3600 X27.221 Y55.222
G1 F1200 X17.36 Y45.361 E323.18289
G0 F3600 X17.36 Y45.983
G1 F1200 X27.237 Y55.861 E323.87475
G1 X27.307 Y55.931
G1 F1680 E320.87475
G0 F3600 X27.492 Y56.738
G1 F1680 E323.87475
G1 F1200 X17.36 Y46.606 E324.58443
G1 X17.29 Y46.536
G1 F1680 E321.58443
G0 F3600 X17.36 Y38.516
G1 F1680 E324.58443
G1 F1200 X82.64 Y103.796 E329.1569
G0 F3600 X82.64 Y103.174
G1 F1200 X17.36 Y37.894 E333.72936
G0 F3600 X17.36 Y37.272
G1 F1200 X82.64 Y102.552 E338.30183
G0 F3600 X82.64 Y101.93
G1 F1200 X17.36 Y36.65 E342.87429
G0 F3600 X17.36 Y36.027
G1 F1200 X82.64 Y101.307 E347.44675
G0 F3600 X82.64 Y100.685
G1 F1200 X17.36 Y35.405 E352.01922
G0 F3600 X17.36 Y34.783
G1 F1200 X82.64 Y100.063 E356.59168
G0 F3600 X82.64 Y99.441
G1 F1200 X17.36 Y34.161 E361.16415
G0 F3600 X17.36 Y33.538
G1 F1200 X82.64 Y98.818 E365.73661
G0 F3600 X82.64 Y98.196
G1 F1200 X17.36 Y32.916 E370.30908
G0 F3600 X17.36 Y32.294
G1 F1200 X82.64 Y97.574 E374.88154
G0 F3600 X82.64 Y96.952
G1 F1200 X17.36 Y31.672 E379.454
G0 F3600 X17.36 Y31.049
G1 F1200 X82.64 Y96.329 E384.02647
G0 F3600 X82.64 Y95.707
G1 F1200 X17.36 Y30.427 E388.59893
G0 F3600 X17.36 Y29.805
