;FLAVOR:Marlin
;TIME:9014
;Filament used: 4.58296m
;Layer height: 0.15
;MINX:11.848
;MINY:11.227
;MINZ:0.3
;MAXX:88.151
;MAXY:104.842
;MAXZ:7.95
;Generated with Cura_SteamEngine 5.3.0
M82 ;absolute extrusion mode
;MachineType:ENTINA TINA2
;FilamentType:PLA
;InfillDensity:30
;Extruder0Temperature:200

;(**** start.gcode for tina2****)
M203 Z15
M104 S150
G28 Z
G28 X Y; Home extruder
G1 X55 Y55 F1000
G29
M107 ; Turn off fan
G90 ; Absolute positioning
M82 ; Extruder in absolute mode
M109 S210
G92 E0 ; Reset extruder position
G1 X90 Y6 Z0.27 F2000
G1 X20 Y6 Z0.27 E15 F1000
G92 E0 ; Reset extruder position
M203 Z5
G92 E0
G92 E0
G1 F1680 E-3
;LAYER_COUNT:52
;LAYER:0
M107
G0 F3600 X14.42 Y12.578 Z0.3
;TYPE:SKIRT
G1 F1680 E0
G1 F1560 X14.812 Y12.256 E0.02513
G1 X15.25 Y11.999 E0.05028
G1 X15.722 Y11.815 E0.07537
G1 X16.218 Y11.707 E0.10051
G1 X16.708 Y11.667 E0.12486
G1 X82.747 Y11.667 E3.39567
G1 X83.445 Y11.677 E3.43025
G1 X83.95 Y11.725 E3.45537
G1 X84.441 Y11.85 E3.48047
G1 X84.907 Y12.052 E3.50562
G1 X85.335 Y12.324 E3.53074
G1 X85.715 Y12.66 E3.55586
G1 X86.037 Y13.051 E3.58095
G1 X86.294 Y13.488 E3.60606
G1 X86.48 Y13.96 E3.63118
G1 X86.589 Y14.456 E3.65634
G1 X86.627 Y14.916 E3.6792
G1 X86.634 Y68.123 E6.31446
G1 X86.674 Y70.918 E6.45291
G1 X86.79 Y73.636 E6.58765
G1 X86.984 Y76.378 E6.72379
G1 X87.254 Y79.085 E6.85853
G1 X87.556 Y81.486 E6.97839
G1 X87.684 Y82.41 E7.02459
G1 X87.707 Y83.024 E7.05502
G1 X87.683 Y84.143 E7.11046
G1 X87.657 Y84.905 E7.14822
G1 X87.638 Y87.67 E7.28517
G1 X87.682 Y89.952 E7.39821
G1 X87.711 Y90.924 E7.44638
G1 X87.695 Y93.12 E7.55514
G1 X87.707 Y93.875 E7.59254
G1 X87.711 Y95.036 E7.65005
G1 X87.608 Y95.801 E7.68828
G1 X87.226 Y97.667 E7.78261
G1 X86.923 Y99.354 E7.86751
G1 X86.903 Y99.429 E7.87135
G1 X86.654 Y100.76 E7.93842
G1 X86.475 Y101.407 E7.97167
G1 X86.205 Y101.99 E8.00349
G1 X85.923 Y102.412 E8.02862
G1 X85.324 Y103.009 E8.07051
G1 X84.785 Y103.369 E8.10261
G1 X84.324 Y103.58 E8.12772
G1 X83.836 Y103.717 E8.15283
G1 X83.207 Y103.788 E8.18418
G1 X17.45 Y103.789 E11.44103
G1 X16.686 Y103.778 E11.47887
G1 X16.181 Y103.73 E11.50399
G1 X15.689 Y103.605 E11.52914
G1 X15.224 Y103.403 E11.55425
G1 X14.796 Y103.131 E11.57936
G1 X14.416 Y102.795 E11.60449
G1 X13.998 Y102.289 E11.63699
G1 X13.718 Y101.866 E11.66212
G1 X13.508 Y101.405 E11.68721
G1 X13.366 Y100.875 E11.71438
G1 X12.909 Y98.326 E11.84264
G1 X12.409 Y95.882 E11.9662
G1 X12.289 Y95.124 E12.00421
G1 X12.288 Y94.254 E12.0473
G1 X12.304 Y92.644 E12.12704
G1 X12.293 Y91.899 E12.16395
G1 X12.288 Y90.283 E12.24399
G1 X12.304 Y88.645 E12.32512
G1 X12.293 Y87.899 E12.36207
G1 X12.288 Y86.283 E12.44211
G1 X12.304 Y84.645 E12.52324
G1 X12.288 Y82.699 E12.61962
G1 X12.776 Y79.007 E12.80407
G1 X13.055 Y76.284 E12.93965
G1 X13.253 Y73.58 E13.07393
G1 X13.378 Y70.828 E13.21037
G1 X13.425 Y67.767 E13.362
G1 X13.423 Y15.536 E15.94892
G1 X13.434 Y14.846 E15.9831
G1 X13.482 Y14.341 E16.00822
G1 X13.609 Y13.85 E16.03334
G1 X13.811 Y13.385 E16.05845
G1 X14.084 Y12.957 E16.0836
G1 X14.42 Y12.578 E16.10868
G0 F3600 X14.091 Y12.286
G1 F1560 X14.559 Y11.894 E16.13892
G1 X15.09 Y11.589 E16.16925
G1 X15.628 Y11.385 E16.19775
G1 X16.182 Y11.268 E16.22579
G1 X16.672 Y11.228 E16.25014
G1 X82.753 Y11.227 E19.52303
G1 X83.487 Y11.239 E19.55939
G1 X83.992 Y11.287 E19.58452
G1 X84.585 Y11.433 E19.61476
G1 X85.082 Y11.648 E19.64158
G1 X85.602 Y11.972 E19.67193
G1 X86.055 Y12.38 E19.70212
G1 X86.377 Y12.771 E19.72721
G1 X86.69 Y13.294 E19.7574
G1 X86.91 Y13.866 E19.78775
G1 X87.028 Y14.42 E19.81581
G1 X87.066 Y14.88 E19.83867
G1 X87.074 Y68.123 E22.47571
G1 X87.114 Y70.899 E22.61322
G1 X87.23 Y73.617 E22.74796
G1 X87.422 Y76.334 E22.88286
G1 X87.691 Y79.03 E23.01706
G1 X87.992 Y81.426 E23.13666
G1 X88.124 Y82.394 E23.18505
G1 X88.147 Y83.033 E23.21672
G1 X88.123 Y84.158 E23.27245
G1 X88.097 Y84.92 E23.31021
G1 X88.078 Y87.673 E23.44657
G1 X88.122 Y89.939 E23.55882
G1 X88.151 Y90.927 E23.60777
G1 X88.135 Y93.123 E23.71654
G1 X88.147 Y93.873 E23.75369
G1 X88.151 Y95.034 E23.81119
G1 X88.044 Y95.86 E23.85245
G1 X87.657 Y97.755 E23.94824
G1 X87.356 Y99.432 E24.03263
G1 X87.331 Y99.529 E24.03759
G1 X87.078 Y100.877 E24.10552
G1 X86.889 Y101.56 E24.14062
G1 X86.571 Y102.234 E24.17753
G1 X86.263 Y102.695 E24.20499
G1 X85.607 Y103.349 E24.25087
G1 X84.999 Y103.755 E24.28708
G1 X84.443 Y104.004 E24.31725
G1 X83.955 Y104.141 E24.34236
G1 X83.207 Y104.228 E24.37965
G1 X17.444 Y104.229 E27.6368
G1 X16.68 Y104.218 E27.67464
G1 X16.139 Y104.168 E27.70155
G1 X15.514 Y104.009 E27.73349
G1 X15.049 Y103.807 E27.7586
G1 X14.531 Y103.484 E27.78883
G1 X14.125 Y103.125 E27.81568
G1 X13.631 Y102.532 E27.8539
G1 X13.351 Y102.109 E27.87903
G1 X13.092 Y101.552 E27.90945
G1 X12.933 Y100.953 E27.94015
G1 X12.476 Y98.404 E28.06841
G1 X11.974 Y95.951 E28.19242
G1 X11.854 Y95.193 E28.23043
G1 X11.848 Y94.25 E28.27714
G1 X11.864 Y92.64 E28.35688
G1 X11.853 Y91.9 E28.39354
G1 X11.848 Y90.279 E28.47382
G1 X11.864 Y88.641 E28.55495
G1 X11.853 Y87.9 E28.59166
G1 X11.848 Y86.279 E28.67194
G1 X11.864 Y84.641 E28.75308
G1 X11.848 Y82.703 E28.84906
G1 X12.338 Y78.962 E29.03593
G1 X12.617 Y76.239 E29.17151
G1 X12.814 Y73.548 E29.30514
G1 X12.938 Y70.808 E29.44099
G1 X12.985 Y67.76 E29.59197
G1 X12.983 Y15.529 E32.17889
G1 X12.996 Y14.804 E32.21481
G1 X13.056 Y14.231 E32.24334
G1 X13.205 Y13.675 E32.27185
G1 X13.44 Y13.148 E32.30043
G1 X13.713 Y12.72 E32.32558
G1 X14.091 Y12.286 E32.35408
G1 F1680 E29.35408
;MESH:PiRTO_Cart-Top3D.stl
G0 F3600 X83.712 Y86.316
;TYPE:WALL-OUTER
G1 F1680 E32.35408
G1 F1376.3 X83.767 Y86.314 E32.35669
G1 X84.002 Y86.495 E32.37079
G1 X84.131 Y86.8 E32.38652
G1 F1373 X84.102 Y87.089 E32.40035
G1 F1369.8 X83.921 Y87.363 E32.41602
G1 X83.713 Y87.466 E32.4271
G1 F1373 X83.712 Y86.316 E32.48185
G1 F1680 E29.48185
G0 F3600 X17.23 Y85.435
;TYPE:WALL-INNER
G1 F1680 E32.48185
G1 F1001.4 X17.5 Y85.176 E32.50628
G1 F1004.8 X49.993 Y85.174 E34.62035
G1 F1008.3 X82.486 Y85.171 E36.72711
G1 F1010.1 X82.773 Y85.171 E36.74569
G1 X82.773 Y84.595 E36.78297
G1 X82.485 Y84.595 E36.80161
G1 F1008.3 X49.992 Y84.596 E38.90837
G1 F1004.8 X17.499 Y84.598 E41.02244
G1 F1001.4 X17.23 Y84.371 E41.04542
G1 X17.23 Y85.435 E41.11489
G1 F1680 E38.11489
G0 F3600 X16.786 Y87.389
G1 F1680 E41.11489
G1 F1059.9 X16.765 Y86.432 E41.17394
G1 X16.596 Y86.594 E41.18838
G1 X16.427 Y86.621 E41.19893
G1 X16.303 Y86.693 E41.20778
G1 X16.231 Y86.817 E41.21662
G1 X16.231 Y86.96 E41.22545
G1 X16.36 Y87.128 E41.23851
G1 X16.596 Y87.18 E41.25342
G1 X16.786 Y87.389 E41.27084
G1 F1680 E38.27084
G0 F3600 X17.229 Y89.437
G1 F1680 E41.27084
G1 F1003.1 X17.5 Y89.177 E41.29532
G1 F1006.6 X82.484 Y89.178 E45.51602
G1 F1008.3 X82.772 Y89.178 E45.53469
G1 X82.772 Y88.603 E45.57198
G1 X82.484 Y88.603 E45.59065
G1 F1006.6 X17.5 Y88.597 E49.81135
G1 F1003.1 X17.229 Y88.369 E49.83443
G1 X17.229 Y89.437 E49.90404
G1 F1680 E46.90404
G0 F3600 X16.786 Y91.389
G1 F1680 E49.90404
G1 F1059.9 X16.765 Y90.432 E49.96309
G1 X16.596 Y90.594 E49.97753
G1 X16.427 Y90.621 E49.98809
G1 X16.303 Y90.693 E49.99693
G1 X16.231 Y90.817 E50.00578
G1 X16.231 Y90.96 E50.0146
G1 X16.36 Y91.128 E50.02766
G1 X16.596 Y91.18 E50.04257
G1 X16.786 Y91.389 E50.05999
G1 F1680 E47.05999
G0 F3600 X17.16 Y92.242
G1 F1680 E50.05999
G1 F1320 X17.161 Y93.886 E50.14142
G1 X17.123 Y94.105 E50.15243
G1 X16.917 Y94.399 E50.17021
G1 X16.589 Y94.541 E50.18791
G1 X16.413 Y94.568 E50.19673
G1 X16.264 Y94.654 E50.20525
G1 X16.178 Y94.803 E50.21377
G1 X16.178 Y94.974 E50.22224
G1 X16.264 Y95.123 E50.23076
G1 X16.413 Y95.209 E50.23928
G1 X16.589 Y95.233 E50.24808
G1 X16.917 Y95.375 E50.26578
G1 X17.123 Y95.669 E50.28356
G1 X17.161 Y95.888 E50.29457
G1 X17.161 Y99.908 E50.49367
G1 X82.84 Y99.908 E53.74666
G1 X82.84 Y95.888 E53.94576
G1 X82.877 Y95.669 E53.95676
G1 X82.951 Y95.519 E53.96504
G1 X83.083 Y95.375 E53.97472
G1 X83.411 Y95.233 E53.99242
G1 X83.584 Y95.21 E54.00107
G1 X83.736 Y95.123 E54.00974
G1 X83.822 Y94.974 E54.01826
G1 X83.822 Y94.803 E54.02673
G1 X83.736 Y94.654 E54.03525
G1 X83.584 Y94.564 E54.044
G1 X83.411 Y94.541 E54.05264
G1 X83.083 Y94.399 E54.07035
G1 X82.951 Y94.255 E54.08002
G1 X82.877 Y94.105 E54.08831
G1 X82.84 Y93.886 E54.09931
G1 X82.84 Y92.528 E54.16657
G1 X17.5 Y92.528 E57.40276
G1 X17.16 Y92.242 E57.42476
G1 F1680 E54.42476
G0 F3600 X16.787 Y83.391
G1 F1680 E57.42476
G1 F1061.8 X16.787 Y82.522 E57.47827
G1 X16.691 Y82.609 E57.48625
G1 F1063.7 X16.406 Y82.626 E57.50379
G1 X16.302 Y82.689 E57.51127
G1 X16.229 Y82.814 E57.52016
G1 X16.234 Y82.963 E57.52933
G1 X16.305 Y83.087 E57.53811
G1 X16.43 Y83.158 E57.54694
G1 X16.596 Y83.181 E57.55724
G1 F1061.8 X16.787 Y83.391 E57.57472
G1 F1680 E54.57472
G0 F3600 X17.306 Y81.436
G1 F1680 E57.57472
G1 F1320 X17.5 Y81.247 E57.58814
G1 X82.754 Y81.238 E60.82007
G1 X82.748 Y15.547 E64.07365
G1 X17.304 Y15.547 E67.31499
G1 X17.306 Y81.436 E70.57837
G1 F1680 E67.57837
G0 F3600 X83.749 Y83.587
;TYPE:WALL-OUTER
G1 F1680 E70.57837
G1 F1168.6 X84.014 Y83.431 E70.59558
G1 X84.209 Y83.13 E70.61564
G1 X84.248 Y82.942 E70.62638
G1 F1171 X84.185 Y82.579 E70.64695
G1 F1173.3 X83.96 Y82.295 E70.66714
G1 X83.749 Y82.186 E70.68037
G1 F1171 X83.749 Y83.587 E70.7586
G1 F1680 E67.7586
G0 F3600 X83.745 Y91.594
G1 F1680 E70.7586
G1 F1187.7 X84.032 Y91.419 E70.7771
G1 X84.151 Y91.264 E70.78785
G1 X84.227 Y91.082 E70.79871
G1 X84.227 Y90.692 E70.82018
G1 X84.152 Y90.51 E70.83101
G1 X84.032 Y90.355 E70.8418
G1 X83.746 Y90.182 E70.8602
G1 X83.745 Y91.594 E70.93792
G0 F3600 X83.28 Y92.088
G1 F1320 X17.5 Y92.088 E74.19591
G1 F1230.5 X17.251 Y91.911 E74.21214
G1 F1190.2 X17.284 Y90.882 E74.26869
G1 F1195.1 X17.25 Y89.896 E74.32267
G1 F1235.7 X17.5 Y89.686 E74.33994
G1 F1320 X83.28 Y89.686 E77.59792
G1 X83.28 Y88.211 E77.67098
G1 X83.189 Y88.168 E77.67596
G1 X83.165 Y88.096 E77.67972
G1 X17.5 Y88.088 E80.93201
G1 F1230.5 X17.251 Y87.911 E80.94824
G1 F1190.2 X17.284 Y86.882 E81.0048
G1 F1195.1 X17.25 Y85.896 E81.05877
G1 F1235.7 X17.5 Y85.686 E81.07604
G1 F1320 X83.179 Y85.678 E84.32903
G1 X83.28 Y85.407 E84.34335
G1 X83.28 Y84.088 E84.40868
G1 X17.5 Y84.088 E87.66666
G1 F1230.5 X17.251 Y83.911 E87.68289
G1 X17.28 Y83.014 E87.73058
G1 F1341.3 X17.287 Y81.901 E87.78483
G1 X17.5 Y81.687 E87.79954
G1 F1320 X83.194 Y81.678 E91.05327
G1 X83.188 Y15.107 E94.35043
G1 X16.864 Y15.107 E97.63536
G1 X16.866 Y81.053 E100.90156
G1 F1335.2 X16.858 Y81.933 E100.94466
G1 X16.66 Y82.116 E100.95786
G1 F1320 X16.294 Y82.139 E100.97602
G1 X16.11 Y82.215 E100.98588
G1 X15.95 Y82.337 E100.99585
G1 X15.828 Y82.498 E101.00585
G1 X15.749 Y82.686 E101.01595
G1 X15.75 Y83.089 E101.03591
G1 X15.829 Y83.277 E101.04601
G1 X15.951 Y83.437 E101.05598
G1 X16.112 Y83.56 E101.06601
G1 X16.3 Y83.638 E101.07609
G1 X16.53 Y83.669 E101.08759
G1 F1235.7 X16.75 Y83.877 E101.1036
G1 X16.72 Y84.906 E101.15807
G1 F1233.1 X16.749 Y85.93 E101.21238
G1 X16.53 Y86.105 E101.22724
G1 F1320 X16.299 Y86.137 E101.23879
G1 X16.114 Y86.214 E101.24872
G1 X15.95 Y86.338 E101.2589
G1 X15.828 Y86.499 E101.26891
G1 X15.749 Y86.687 E101.27901
G1 X15.749 Y87.088 E101.29887
G1 X15.828 Y87.276 E101.30897
G1 X15.95 Y87.437 E101.31897
G1 X16.111 Y87.559 E101.32898
G1 X16.299 Y87.638 E101.33908
G1 X16.53 Y87.669 E101.35062
G1 F1235.7 X16.75 Y87.877 E101.36664
G1 X16.72 Y88.906 E101.4211
G1 F1233.1 X16.749 Y89.93 E101.47541
G1 X16.53 Y90.105 E101.49028
G1 F1320 X16.299 Y90.137 E101.50183
G1 X16.114 Y90.214 E101.51175
G1 X15.95 Y90.338 E101.52193
G1 X15.828 Y90.499 E101.53194
G1 X15.749 Y90.687 E101.54204
G1 X15.749 Y91.088 E101.5619
G1 X15.828 Y91.276 E101.572
G1 X15.95 Y91.437 E101.582
G1 X16.111 Y91.559 E101.59201
G1 X16.299 Y91.638 E101.60211
G1 X16.53 Y91.669 E101.61365
G1 F1235.7 X16.75 Y91.877 E101.62967
G1 X16.721 Y92.867 E101.68207
G1 F1320 X16.721 Y93.941 E101.73526
G1 X16.639 Y94.057 E101.7423
G1 X16.114 Y94.214 E101.76944
G1 X15.95 Y94.338 E101.77962
G1 X15.828 Y94.499 E101.78963
G1 X15.749 Y94.687 E101.79973
G1 X15.749 Y95.088 E101.81959
G1 X15.828 Y95.276 E101.82969
G1 X15.95 Y95.437 E101.83969
G1 X16.111 Y95.559 E101.8497
G1 X16.639 Y95.717 E101.87699
G1 X16.721 Y95.833 E101.88403
G1 X16.72 Y100.141 E102.0974
G1 X16.753 Y100.248 E102.10295
G1 X16.853 Y100.349 E102.10998
G1 X83.142 Y100.348 E105.39318
G1 X83.219 Y100.286 E105.39808
G1 X83.28 Y100.133 E105.40623
G1 X83.28 Y95.832 E105.61926
G1 X83.361 Y95.717 E105.62622
G1 X83.889 Y95.559 E105.65352
G1 X84.05 Y95.437 E105.66352
G1 X84.172 Y95.276 E105.67353
G1 X84.251 Y95.088 E105.68363
G1 X84.251 Y94.687 E105.70349
G1 X84.172 Y94.499 E105.71359
G1 X84.05 Y94.338 E105.72359
G1 X83.889 Y94.216 E105.7336
G1 X83.361 Y94.057 E105.76091
G1 X83.28 Y93.942 E105.76788
G1 X83.28 Y92.088 E105.8597
G1 F1680 E102.8597
G0 F3600 X82.639 Y93.217
;TYPE:SKIN
G1 F1680 E105.8597
G1 F1200 X82.148 Y92.727 E105.89406
G0 F3600 X81.526 Y92.727
G1 F1200 X82.639 Y93.84 E105.97202
G1 X82.709 Y93.91
G1 F1680 E102.97202
G0 F3600 X83.277 Y95.1
G1 F1680 E105.97202
G1 F1200 X80.904 Y92.727 E106.13823
G0 F3600 X80.282 Y92.727
G1 F1200 X82.87 Y95.315 E106.31951
G0 F3600 X82.666 Y95.733
G1 F1200 X79.659 Y92.727 E106.53009
G0 F3600 X79.037 Y92.727
G1 F1200 X82.64 Y96.329 E106.78243
G0 F3600 X82.64 Y96.952
G1 F1200 X78.415 Y92.727 E107.07836
G0 F3600 X77.793 Y92.727
G1 F1200 X82.64 Y97.574 E107.41786
G0 F3600 X82.64 Y98.196
G1 F1200 X77.17 Y92.727 E107.80097
G0 F3600 X76.548 Y92.727
G1 F1200 X82.64 Y98.818 E108.22764
G0 F3600 X82.64 Y99.441
G1 F1200 X75.926 Y92.727 E108.69792
G0 F3600 X75.304 Y92.727
G1 F1200 X82.283 Y99.707 E109.18679
G0 F3600 X81.661 Y99.707
G1 F1200 X74.681 Y92.727 E109.67569
G0 F3600 X74.059 Y92.727
G1 F1200 X81.039 Y99.707 E110.1646
G0 F3600 X80.417 Y99.707
G1 F1200 X73.437 Y92.727 E110.65351
G0 F3600 X72.815 Y92.727
G1 F1200 X79.794 Y99.707 E111.14238
G0 F3600 X79.172 Y99.707
G1 F1200 X72.192 Y92.727 E111.63128
G0 F3600 X71.57 Y92.727
G1 F1200 X78.55 Y99.707 E112.12019
G0 F3600 X77.928 Y99.707
G1 F1200 X70.948 Y92.727 E112.6091
G0 F3600 X70.326 Y92.727
G1 F1200 X77.305 Y99.707 E113.09797
G0 F3600 X76.683 Y99.707
G1 F1200 X69.703 Y92.727 E113.58687
G0 F3600 X69.081 Y92.727
G1 F1200 X76.061 Y99.707 E114.07578
G0 F3600 X75.439 Y99.707
G1 F1200 X68.459 Y92.727 E114.56469
G0 F3600 X67.836 Y92.727
G1 F1200 X74.816 Y99.707 E115.05359
G0 F3600 X74.194 Y99.707
G1 F1200 X67.214 Y92.727 E115.5425
G0 F3600 X66.592 Y92.727
G1 F1200 X73.572 Y99.707 E116.0314
G0 F3600 X72.95 Y99.707
G1 F1200 X65.97 Y92.727 E116.52031
G0 F3600 X65.347 Y92.727
G1 F1200 X72.327 Y99.707 E117.00922
G0 F3600 X71.705 Y99.707
G1 F1200 X64.725 Y92.727 E117.49812
G0 F3600 X64.103 Y92.727
G1 F1200 X71.083 Y99.707 E117.98703
G0 F3600 X70.461 Y99.707
G1 F1200 X63.481 Y92.727 E118.47594
G0 F3600 X62.858 Y92.727
G1 F1200 X69.838 Y99.707 E118.96484
G0 F3600 X69.216 Y99.707
G1 F1200 X62.236 Y92.727 E119.45375
G0 F3600 X61.614 Y92.727
G1 F1200 X68.594 Y99.707 E119.94265
G0 F3600 X67.972 Y99.707
G1 F1200 X60.992 Y92.727 E120.43156
G0 F3600 X60.369 Y92.727
G1 F1200 X67.349 Y99.707 E120.92047
G0 F3600 X66.727 Y99.707
G1 F1200 X59.747 Y92.727 E121.40937
G0 F3600 X59.125 Y92.727
G1 F1200 X66.105 Y99.707 E121.89828
G0 F3600 X65.483 Y99.707
G1 F1200 X58.503 Y92.727 E122.38719
G0 F3600 X57.88 Y92.727
G1 F1200 X64.86 Y99.707 E122.87609
G0 F3600 X64.238 Y99.707
G1 F1200 X57.258 Y92.727 E123.365
G0 F3600 X56.636 Y92.727
G1 F1200 X63.616 Y99.707 E123.8539
G0 F3600 X62.994 Y99.707
G1 F1200 X56.014 Y92.727 E124.34281
G0 F3600 X55.391 Y92.727
G1 F1200 X62.371 Y99.707 E124.83172
G0 F3600 X61.749 Y99.707
G1 F1200 X54.769 Y92.727 E125.32062
G0 F3600 X54.147 Y92.727
