;FilamentType:PLA
;MachineType:ENTINA TINA2
;Extruder0Temperature:200
;BedTemperature:40
;InfillDensity:60
;FLAVOR:Marlin
;TIME:7533
;FilamentUsed: 5873.44
;Layer height: 0.15
;MINX:14.835
;MINY:10.2
;MINZ:0.3
;MAXX:84.299
;MAXY:109.8
;MAXZ:9
;Generated with Cura_SteamEngine 4.10.0
M82 ;absolute extrusion mode
;(**** start.gcode for TINA2****)
M104 S150
G28 Z
G28 X Y; Home extruder
G1 X55 Y55 F1000
G1 Z10 F200
G29
G1 Z15 F100
M107 ; Turn off fan
G90 ; Absolute positioning
M82 ; Extruder in absolute mode
M109 S215
G92 E0 ; Reset extruder position
G1 X90 Y6 Z0.27 F2000
G1 X20 Y6 Z0.27 E15 F1000 
G92 E0 ; Reset extruder position

M203 Z5
G92 E0
G92 E0
G1 F2100 E-3
;LAYER_COUNT:59
;LAYER:0
M107
;MESH:PiRTO_Cart-Base3D.stl
G0 F3600 X25.422 Y74.48 Z0.3
;TYPE:WALL-INNER
G1 F2100 E0
G1 F1320 X26.007 Y74.555 E0.02795
G1 X26.74 Y74.436 E0.06315
G1 X27.283 Y74.21 E0.09103
G1 X27.86 Y73.738 E0.12636
G1 X28.226 Y73.249 E0.15531
G1 X28.454 Y72.701 E0.18344
G1 X28.481 Y72.585 E0.18908
G1 X28.554 Y72.004 E0.21684
G1 X28.481 Y71.424 E0.24454
G1 X28.457 Y71.307 E0.2502
G1 X28.209 Y70.716 E0.28058
G1 X27.739 Y70.142 E0.31574
G1 X27.272 Y69.784 E0.34363
G1 X26.578 Y69.52 E0.37882
G1 X25.993 Y69.445 E0.40678
G1 X25.26 Y69.564 E0.44197
G1 X24.717 Y69.79 E0.46985
G1 X24.142 Y70.261 E0.50508
G1 X23.784 Y70.728 E0.53297
G1 X23.52 Y71.422 E0.56816
G1 X23.445 Y72.007 E0.59611
G1 X23.564 Y72.74 E0.63131
G1 X23.79 Y73.283 E0.65918
G1 X24.261 Y73.858 E0.69441
G1 X24.728 Y74.216 E0.7223
G1 X25.422 Y74.48 E0.75749
G0 F3600 X25.398 Y74.577
G0 X72.398 Y74.577
G0 X72.422 Y74.48
G1 F1320 X73.007 Y74.555 E0.78545
G1 X73.74 Y74.436 E0.82064
G1 X74.283 Y74.21 E0.84852
G1 X74.858 Y73.739 E0.88375
G1 X75.216 Y73.272 E0.91164
G1 X75.48 Y72.578 E0.94683
G1 X75.555 Y71.993 E0.97478
G1 X75.436 Y71.26 E1.00998
G1 X75.21 Y70.717 E1.03785
G1 X74.739 Y70.142 E1.07308
G1 X74.272 Y69.784 E1.10097
G1 X73.578 Y69.52 E1.13616
G1 X72.993 Y69.445 E1.16412
G1 X72.26 Y69.564 E1.19931
G1 X71.717 Y69.79 E1.22719
G1 X71.14 Y70.262 E1.26252
G1 X70.773 Y70.753 E1.29157
G1 X70.529 Y71.353 E1.32227
G1 X70.445 Y72 E1.35319
G1 X70.529 Y72.645 E1.38402
G1 X70.789 Y73.283 E1.41668
G1 X71.261 Y73.858 E1.45193
G1 X71.728 Y74.216 E1.47982
G1 X72.422 Y74.48 E1.51502
G0 F3600 X72.398 Y74.577
G0 X82.83 Y109.33
G0 X82.9 Y109.4
G1 F1320 X16.1 Y109.4 E4.68105
G1 X16.1 Y10.6 E9.36374
G1 X82.9 Y10.6 E12.52977
G1 X82.9 Y109.4 E17.21247
G0 F3600 X83.282 Y109.8
;TYPE:WALL-OUTER
G1 F1320 X15.7 Y109.8 E20.41556
G1 X15.7 Y10.2 E25.13618
G1 X83.3 Y10.2 E28.34012
G1 X83.3 Y109.663 E33.05424
G1 X83.282 Y109.8 E33.06079
G0 F3600 X83.082 Y109.8
G0 X82.83 Y109.33
G0 X72.457 Y74.585
G0 X72.52 Y74.089
G1 F1320 X73 Y74.151 E33.08373
G1 X73.629 Y74.049 E33.11393
G1 X74.075 Y73.863 E33.13683
G1 X74.569 Y73.459 E33.16708
G1 X74.863 Y73.075 E33.19
G1 X75.089 Y72.48 E33.22017
G1 X75.151 Y72 E33.24311
G1 X75.049 Y71.371 E33.27331
G1 X74.863 Y70.925 E33.29621
G1 X74.459 Y70.431 E33.32646
G1 X74.075 Y70.137 E33.34938
G1 X73.48 Y69.911 E33.37955
G1 X73 Y69.849 E33.40248
G1 X72.371 Y69.951 E33.43269
G1 X71.925 Y70.137 E33.45559
G1 X71.431 Y70.541 E33.48583
G1 X71.124 Y70.951 E33.51011
G1 X70.919 Y71.456 E33.53594
G1 X70.848 Y72 E33.56194
G1 X70.919 Y72.542 E33.58785
G1 X71.137 Y73.076 E33.61519
G1 X71.541 Y73.569 E33.6454
G1 X71.925 Y73.863 E33.66832
G1 X72.52 Y74.089 E33.69849
G0 F3600 X72.718 Y74.114
G0 X72.655 Y74.61
G0 X25.457 Y74.585
G0 X25.52 Y74.089
G1 F1320 X26 Y74.151 E33.72143
G1 X26.629 Y74.049 E33.75163
G1 X27.075 Y73.863 E33.77453
G1 X27.569 Y73.459 E33.80478
G1 X27.876 Y73.049 E33.82905
G1 X28.072 Y72.577 E33.85328
G1 X28.087 Y72.514 E33.85634
G1 X28.151 Y72.004 E33.88071
G1 X28.086 Y71.489 E33.90531
G1 X28.073 Y71.425 E33.9084
G1 X27.863 Y70.924 E33.93415
G1 X27.459 Y70.431 E33.96436
G1 X27.075 Y70.137 E33.98728
G1 X26.48 Y69.911 E34.01745
G1 X26 Y69.849 E34.04039
G1 X25.371 Y69.951 E34.07059
G1 X24.925 Y70.137 E34.09349
G1 X24.431 Y70.541 E34.12374
G1 X24.137 Y70.925 E34.14666
G1 X23.911 Y71.52 E34.17683
G1 X23.849 Y72 E34.19976
G1 X23.951 Y72.629 E34.22997
G1 X24.137 Y73.075 E34.25287
G1 X24.541 Y73.569 E34.28312
G1 X24.925 Y73.863 E34.30604
G1 X25.52 Y74.089 E34.3362
G0 F3600 X25.718 Y74.114
G0 X25.327 Y74.861
;TYPE:SKIN
G1 F1320 X26.013 Y74.949 E34.36898
G1 X26.847 Y74.814 E34.40903
G1 X27.486 Y74.548 E34.44183
G1 X28.144 Y74.009 E34.48214
G1 X28.567 Y73.444 E34.5156
G1 X28.827 Y72.821 E34.54759
G1 X28.865 Y72.653 E34.55576
G1 X28.948 Y72.004 E34.58677
G1 X28.866 Y71.36 E34.61754
G1 X28.831 Y71.192 E34.62567
G1 X28.547 Y70.513 E34.66055
G1 X28.012 Y69.86 E34.70056
G1 X27.463 Y69.439 E34.73335
G1 X26.673 Y69.139 E34.7734
G1 X25.987 Y69.051 E34.80618
G1 X25.153 Y69.186 E34.84623
G1 X24.514 Y69.452 E34.87903
G1 X23.86 Y69.988 E34.91911
G1 X23.439 Y70.537 E34.9519
G1 X23.139 Y71.327 E34.99195
G1 X23.051 Y72.013 E35.02473
G1 X23.186 Y72.847 E35.06477
G1 X23.452 Y73.486 E35.09758
G1 X23.988 Y74.14 E35.13765
G1 X24.537 Y74.561 E35.17044
G1 X25.327 Y74.861 E35.2105
G0 F3600 X16.49 Y109.01
G1 F1320 X16.49 Y10.99 E39.85622
G1 X82.51 Y10.99 E42.98529
G1 X82.51 Y109.01 E47.63101
G1 X16.49 Y109.01 E50.76007
G0 F3600 X70.051 Y72
G1 F1320 X70.149 Y72.746 E50.79574
G1 X70.45 Y73.485 E50.83356
G1 X70.988 Y74.141 E50.87377
G1 X71.537 Y74.561 E50.90653
G1 X72.327 Y74.861 E50.94658
G1 X73.013 Y74.949 E50.97936
G1 X73.847 Y74.814 E51.0194
G1 X74.486 Y74.548 E51.05221
G1 X75.14 Y74.012 E51.09228
G1 X75.561 Y73.463 E51.12507
G1 X75.861 Y72.673 E51.16512
G1 X75.949 Y71.987 E51.1979
G1 X75.814 Y71.153 E51.23795
G1 X75.548 Y70.514 E51.27075
G1 X75.012 Y69.86 E51.31083
G1 X74.463 Y69.439 E51.34362
G1 X73.673 Y69.139 E51.38367
G1 X72.987 Y69.051 E51.41645
G1 X72.153 Y69.186 E51.45649
G1 X71.514 Y69.452 E51.4893
G1 X70.856 Y69.991 E51.52961
G1 X70.43 Y70.56 E51.5633
G1 X70.149 Y71.253 E51.59874
G1 X70.051 Y72 E51.63445
G0 F3600 X82.329 Y11.619
G1 F1320 X81.88 Y11.17 E51.66455
G0 F3600 X81.315 Y11.17
G1 F1320 X82.329 Y12.184 E51.73251
G0 F3600 X82.329 Y12.75
G1 F1320 X80.749 Y11.17 E51.83842
G0 F3600 X80.183 Y11.17
G1 F1320 X82.329 Y13.316 E51.98226
G0 F3600 X82.329 Y13.881
G1 F1320 X79.618 Y11.17 E52.16397
G0 F3600 X79.052 Y11.17
G1 F1320 X82.329 Y14.447 E52.38362
G0 F3600 X82.329 Y15.013
G1 F1320 X78.486 Y11.17 E52.64121
G0 F3600 X77.921 Y11.17
G1 F1320 X82.329 Y15.578 E52.93666
G0 F3600 X82.329 Y16.144
G1 F1320 X77.355 Y11.17 E53.27006
G0 F3600 X76.789 Y11.17
G1 F1320 X82.329 Y16.71 E53.64139
G0 F3600 X82.329 Y17.276
G1 F1320 X76.223 Y11.17 E54.05066
G0 F3600 X75.658 Y11.17
G1 F1320 X82.329 Y17.841 E54.49781
G0 F3600 X82.329 Y18.407
G1 F1320 X75.092 Y11.17 E54.98288
G0 F3600 X74.526 Y11.17
G1 F1320 X82.329 Y18.973 E55.5059
G0 F3600 X82.329 Y19.538
G1 F1320 X73.961 Y11.17 E56.06679
G0 F3600 X73.395 Y11.17
G1 F1320 X82.329 Y20.104 E56.66561
G0 F3600 X82.329 Y20.67
G1 F1320 X72.829 Y11.17 E57.30238
G0 F3600 X72.264 Y11.17
G1 F1320 X82.329 Y21.235 E57.97701
G0 F3600 X82.329 Y21.801
G1 F1320 X71.698 Y11.17 E58.68958
G0 F3600 X71.132 Y11.17
G1 F1320 X82.329 Y22.367 E59.44009
G0 F3600 X82.329 Y22.932
G1 F1320 X70.567 Y11.17 E60.22847
G0 F3600 X70.001 Y11.17
G1 F1320 X82.329 Y23.498 E61.05478
G0 F3600 X82.329 Y24.064
G1 F1320 X69.435 Y11.17 E61.91904
G0 F3600 X68.87 Y11.17
G1 F1320 X82.329 Y24.629 E62.82116
G0 F3600 X82.329 Y25.195
G1 F1320 X68.304 Y11.17 E63.76122
G0 F3600 X67.738 Y11.17
G1 F1320 X82.329 Y25.761 E64.73922
G0 F3600 X82.329 Y26.326
G1 F1320 X67.173 Y11.17 E65.7551
G0 F3600 X66.607 Y11.17
G1 F1320 X82.329 Y26.892 E66.8089
G0 F3600 X82.329 Y27.458
G1 F1320 X66.041 Y11.17 E67.90065
G0 F3600 X65.475 Y11.17
G1 F1320 X82.329 Y28.024 E69.03033
G0 F3600 X82.329 Y28.589
G1 F1320 X64.91 Y11.17 E70.19789
G0 F3600 X64.344 Y11.17
G1 F1320 X82.329 Y29.155 E71.40338
G0 F3600 X82.329 Y29.721
G1 F1320 X63.778 Y11.17 E72.64681
G0 F3600 X63.213 Y11.17
G1 F1320 X82.329 Y30.286 E73.92811
G0 F3600 X82.329 Y30.852
G1 F1320 X62.647 Y11.17 E75.24735
G0 F3600 X62.081 Y11.17
G1 F1320 X82.329 Y31.418 E76.60452
G0 F3600 X82.329 Y31.983
G1 F1320 X61.516 Y11.17 E77.99957
G0 F3600 X60.95 Y11.17
G1 F1320 X82.329 Y32.549 E79.43255
G0 F3600 X82.329 Y33.115
G1 F1320 X60.384 Y11.17 E80.90347
G0 F3600 X59.819 Y11.17
G1 F1320 X82.329 Y33.68 E82.41227
G0 F3600 X82.329 Y34.246
G1 F1320 X59.253 Y11.17 E83.959
G0 F3600 X58.687 Y11.17
G1 F1320 X82.329 Y34.812 E85.54366
G0 F3600 X82.329 Y35.377
G1 F1320 X58.122 Y11.17 E87.1662
G0 F3600 X57.556 Y11.17
G1 F1320 X82.329 Y35.943 E88.82668
G0 F3600 X82.329 Y36.509
G1 F1320 X56.99 Y11.17 E90.52509
G0 F3600 X56.424 Y11.17
G1 F1320 X82.329 Y37.075 E92.26144
G0 F3600 X82.329 Y37.64
G1 F1320 X55.859 Y11.17 E94.03566
G0 F3600 X55.293 Y11.17
G1 F1320 X82.329 Y38.206 E95.84782
G0 F3600 X82.329 Y38.772
G1 F1320 X54.727 Y11.17 E97.69792
G0 F3600 X54.162 Y11.17
G1 F1320 X82.329 Y39.337 E99.58588
G0 F3600 X82.329 Y39.903
G1 F1320 X53.596 Y11.17 E101.51179
G0 F3600 X53.03 Y11.17
G1 F1320 X82.329 Y40.469 E103.47563
G0 F3600 X82.329 Y41.034
G1 F1320 X52.465 Y11.17 E105.47735
G0 F3600 X51.899 Y11.17
G1 F1320 X82.329 Y41.6 E107.517
G0 F3600 X82.329 Y42.166
G1 F1320 X51.333 Y11.17 E109.59458
G0 F3600 X50.768 Y11.17
G1 F1320 X82.329 Y42.731 E111.71004
G0 F3600 X82.329 Y43.297
G1 F1320 X50.202 Y11.17 E113.86344
G0 F3600 X49.636 Y11.17
G1 F1320 X82.329 Y43.863 E116.05477
G0 F3600 X82.329 Y44.428
G1 F1320 X49.071 Y11.17 E118.28398
G0 F3600 X48.505 Y11.17
G1 F1320 X82.329 Y44.994 E120.55112
G0 F3600 X82.329 Y45.56
G1 F1320 X47.939 Y11.17 E122.8562
G0 F3600 X47.374 Y11.17
G1 F1320 X82.329 Y46.125 E125.19915
G0 F3600 X82.329 Y46.691
G1 F1320 X46.808 Y11.17 E127.58004
G0 F3600 X46.242 Y11.17
G1 F1320 X82.329 Y47.257 E129.99887
G0 F3600 X82.329 Y47.823
G1 F1320 X45.676 Y11.17 E132.45563
G0 F3600 X45.111 Y11.17
G1 F1320 X82.329 Y48.388 E134.95027
G0 F3600 X82.329 Y48.954
G1 F1320 X44.545 Y11.17 E137.48284
G0 F3600 X43.979 Y11.17
G1 F1320 X82.329 Y49.52 E140.05335
G0 F3600 X82.329 Y50.085
G1 F1320 X43.414 Y11.17 E142.66173
G0 F3600 X42.848 Y11.17
G1 F1320 X82.329 Y50.651 E145.30805
G0 F3600 X82.329 Y51.217
G1 F1320 X42.282 Y11.17 E147.9923
G0 F3600 X41.717 Y11.17
G1 F1320 X82.329 Y51.782 E150.71443
G0 F3600 X82.329 Y52.348
G1 F1320 X41.151 Y11.17 E153.47449
G0 F3600 X40.585 Y11.17
G1 F1320 X82.329 Y52.914 E156.27249
G0 F3600 X82.329 Y53.479
G1 F1320 X40.02 Y11.17 E159.10837
G0 F3600 X39.454 Y11.17
G1 F1320 X82.329 Y54.045 E161.98217
G0 F3600 X82.329 Y54.611
G1 F1320 X38.888 Y11.17 E164.89392
G0 F3600 X38.323 Y11.17
G1 F1320 X82.329 Y55.176 E167.84354
G0 F3600 X82.329 Y55.742
G1 F1320 X37.757 Y11.17 E170.8311
G0 F3600 X37.191 Y11.17
G1 F1320 X82.329 Y56.308 E173.85659
G0 F3600 X82.329 Y56.874
G1 F1320 X36.626 Y11.17 E176.91999
G0 F3600 X36.06 Y11.17
G1 F1320 X82.329 Y57.439 E180.02129
G0 F3600 X82.329 Y58.005
G1 F1320 X35.494 Y11.17 E183.16053
G0 F3600 X34.928 Y11.17
G1 F1320 X82.329 Y58.571 E186.3377
G0 F3600 X82.329 Y59.136
G1 F1320 X34.363 Y11.17 E189.55275
G0 F3600 X33.797 Y11.17
G1 F1320 X82.329 Y59.702 E192.80574
G0 F3600 X82.329 Y60.268
G1 F1320 X33.231 Y11.17 E196.09666
G0 F3600 X32.666 Y11.17
G1 F1320 X82.329 Y60.833 E199.42545
G0 F3600 X82.329 Y61.399
G1 F1320 X32.1 Y11.17 E202.79218
G0 F3600 X31.534 Y11.17
G1 F1320 X82.329 Y61.965 E206.19685
G0 F3600 X82.329 Y62.53
G1 F1320 X30.969 Y11.17 E209.63939
G0 F3600 X30.403 Y11.17
G1 F1320 X82.329 Y63.096 E213.11987
G0 F3600 X82.329 Y63.662
G1 F1320 X29.837 Y11.17 E216.63828
G0 F3600 X29.272 Y11.17
G1 F1320 X82.329 Y64.227 E220.19457
G0 F3600 X82.329 Y64.793
G1 F1320 X28.706 Y11.17 E223.78879
G0 F3600 X28.14 Y11.17
G1 F1320 X82.329 Y65.359 E227.42095
G0 F3600 X82.329 Y65.924
G1 F1320 X27.575 Y11.17 E231.09098
G0 F3600 X27.009 Y11.17
G1 F1320 X82.329 Y66.49 E234.79895
G0 F3600 X82.329 Y67.056
G1 F1320 X26.443 Y11.17 E238.54486
G0 F3600 X25.877 Y11.17
G1 F1320 X82.329 Y67.622 E242.3287
G0 F3600 X82.329 Y68.187
G1 F1320 X25.312 Y11.17 E246.15041
G0 F3600 X24.746 Y11.17
G1 F1320 X82.329 Y68.753 E250.01007
G0 F3600 X82.329 Y69.319
G1 F1320 X24.18 Y11.17 E253.90766
G0 F3600 X23.615 Y11.17
G1 F1320 X82.329 Y69.884 E257.84312
G0 F3600 X82.329 Y70.45
G1 F1320 X23.049 Y11.17 E261.81651
G0 F3600 X22.483 Y11.17
G1 F1320 X82.329 Y71.016 E265.82785
G0 F3600 X82.329 Y71.581
G1 F1320 X21.918 Y11.17 E269.87706
G0 F3600 X21.352 Y11.17
G1 F1320 X82.329 Y72.147 E273.9642
G0 F3600 X82.329 Y72.713
G1 F1320 X20.786 Y11.17 E278.08928
G0 F3600 X20.221 Y11.17
G1 F1320 X82.329 Y73.278 E282.25223
G0 F3600 X82.329 Y73.844
G1 F1320 X19.655 Y11.17 E286.45312
G0 F3600 X19.089 Y11.17
G1 F1320 X82.329 Y74.41 E290.69195
G0 F3600 X82.329 Y74.975
G1 F1320 X18.524 Y11.17 E294.96865
G0 F3600 X17.958 Y11.17
G1 F1320 X82.329 Y75.541 E299.28328
G0 F3600 X82.329 Y76.107
G1 F1320 X17.392 Y11.17 E303.63586
G0 F3600 X16.827 Y11.17
G1 F1320 X82.329 Y76.673 E308.02633
G0 F3600 X82.329 Y77.238
G1 F1320 X75.839 Y70.748 E308.46134
G1 X75.769 Y70.678
G0 F3600 X76.056 Y71.53
G1 F1320 X82.329 Y77.804 E308.88184
G0 F3600 X82.329 Y78.37
G1 F1320 X76.108 Y72.148 E309.29885
G0 F3600 X76.044 Y72.65
G1 F1320 X82.329 Y78.935 E309.72012
G0 F3600 X82.329 Y79.501
G1 F1320 X75.9 Y73.072 E310.15104
G0 F3600 X75.745 Y73.482
G1 F1320 X82.329 Y80.067 E310.59239
G0 F3600 X82.329 Y80.632
G1 F1320 X75.515 Y73.818 E311.04911
G0 F3600 X75.269 Y74.138
G1 F1320 X82.329 Y81.198 E311.52233
G0 F3600 X82.329 Y81.764
G1 F1320 X74.958 Y74.393 E312.01639
G0 F3600 X74.647 Y74.647
G1 F1320 X82.329 Y82.329 E312.53129
G0 F3600 X82.329 Y82.895
G1 F1320 X74.268 Y74.833 E313.07164
G0 F3600 X73.862 Y74.994
G1 F1320 X82.329 Y83.461 E313.63916
G0 F3600 X82.329 Y84.026
G1 F1320 X73.375 Y75.072 E314.23933
G0 F3600 X72.845 Y75.108
G1 F1320 X82.329 Y84.592 E314.87502
G0 F3600 X82.329 Y85.158
G1 F1320 X72.16 Y74.989 E315.55662
G1 X72.09 Y74.919
G0 F3600 X70.927 Y74.321
G1 F1320 X82.329 Y85.723 E316.32087
G0 F3600 X82.329 Y86.289
G1 F1320 X16.669 Y20.629 E320.7219
G0 F3600 X16.669 Y21.194
G1 F1320 X82.329 Y86.855 E325.12297
G0 F3600 X82.329 Y87.421
G1 F1320 X16.669 Y21.76 E329.52404
G0 F3600 X16.669 Y22.326
G1 F1320 X82.329 Y87.986 E333.92507
G0 F3600 X82.329 Y88.552
G1 F1320 X16.669 Y22.891 E338.32614
G0 F3600 X16.669 Y23.457
G1 F1320 X82.329 Y89.118 E342.72721
G0 F3600 X82.329 Y89.683
G1 F1320 X16.669 Y24.023 E347.12824
G0 F3600 X16.669 Y24.588
G1 F1320 X82.329 Y90.249 E351.52931
G0 F3600 X82.329 Y90.815
G1 F1320 X16.669 Y25.154 E355.93038
G0 F3600 X16.669 Y25.72
G1 F1320 X82.329 Y91.38 E360.33141
G0 F3600 X82.329 Y91.946
G1 F1320 X16.669 Y26.285 E364.73248
G0 F3600 X16.669 Y26.851
G1 F1320 X82.329 Y92.512 E369.13355
G0 F3600 X82.329 Y93.077
G1 F1320 X16.669 Y27.417 E373.53458
G0 F3600 X16.669 Y27.983
G1 F1320 X82.329 Y93.643 E377.93562
G0 F3600 X82.329 Y94.209
G1 F1320 X16.669 Y28.548 E382.33668
G0 F3600 X16.669 Y29.114
G1 F1320 X82.329 Y94.774 E386.73772
G0 F3600 X82.329 Y95.34
G1 F1320 X16.669 Y29.68 E391.13875
G0 F3600 X16.669 Y30.245
G1 F1320 X82.329 Y95.906 E395.53982
G0 F3600 X82.329 Y96.471
G1 F1320 X16.669 Y30.811 E399.94086
G0 F3600 X16.669 Y31.377
G1 F1320 X82.329 Y97.037 E404.34189
G0 F3600 X82.329 Y97.603
G1 F1320 X16.669 Y31.942 E408.74296
G0 F3600 X16.669 Y32.508
G1 F1320 X82.329 Y98.169 E413.14403
G0 F3600 X82.329 Y98.734
G1 F1320 X16.669 Y33.074 E417.54506
G0 F3600 X16.669 Y33.639
G1 F1320 X82.329 Y99.3 E421.94613
G0 F3600 X82.329 Y99.866
G1 F1320 X16.669 Y34.205 E426.34719
G0 F3600 X16.669 Y34.771
G1 F1320 X82.329 Y100.431 E430.74823
G0 F3600 X82.329 Y100.997
G1 F1320 X16.669 Y35.336 E435.1493
G0 F3600 X16.669 Y35.902
G1 F1320 X82.329 Y101.563 E439.55036
G0 F3600 X82.329 Y102.128
