;FilamentType:PLA
;MachineType:ENTINA TINA2
;Extruder0Temperature:200
;BedTemperature:40
;InfillDensity:60
;FLAVOR:Marlin
;TIME:426
;FilamentUsed: 309.145
;Layer height: 0.15
;MINX:30.7
;MINY:50.053
;MINZ:0.3
;MAXX:69.754
;MAXY:60.051
;MAXZ:3
;Generated with Cura_SteamEngine 4.10.0
M82 ;absolute extrusion mode
;(**** start.gcode for TINA2****)
M104 S150
G28 Z
G28 X Y; Home extruder
G1 X55 Y55 F1000
G1 Z10 F200
G29
G1 Z15 F100
M107 ; Turn off fan
G90 ; Absolute positioning
M82 ; Extruder in absolute mode
M109 S215
G92 E0 ; Reset extruder position
G1 X90 Y6 Z0.27 F2000
G1 X20 Y6 Z0.27 E15 F1000 
G92 E0 ; Reset extruder position

M203 Z5
G92 E0
G92 E0
G1 F2100 E-3
;LAYER_COUNT:19
;LAYER:0
M107
;MESH:PiRTO_Cart-PiRTO3d.stl
G0 F3600 X68.9 Y59.651 Z0.3
;TYPE:WALL-INNER
G1 F2100 E0
G1 F1320 X31.1 Y59.651 E1.79156
G1 X31.1 Y50.851 E2.20864
G1 X68.9 Y50.851 E4.0002
G1 X68.9 Y59.651 E4.41728
G0 F3600 X69.3 Y60.051
;TYPE:WALL-OUTER
G1 F1320 X30.7 Y60.051 E6.24675
G1 X30.7 Y50.451 E6.70175
G1 X69.3 Y50.451 E8.53122
G1 X69.3 Y60.051 E8.98622
G0 F3600 X69.1 Y60.051
G0 X68.51 Y59.261
;TYPE:SKIN
G1 F1320 X31.49 Y59.261 E10.74081
G1 X31.49 Y51.241 E11.12093
G1 X68.51 Y51.241 E12.87551
G1 X68.51 Y59.261 E13.25563
G0 F3600 X68.329 Y51.924
G1 F1320 X67.825 Y51.42 E13.28941
G0 F3600 X67.259 Y51.42
G1 F1320 X68.329 Y52.49 E13.36113
G0 F3600 X68.329 Y53.056
G1 F1320 X66.694 Y51.42 E13.47075
G0 F3600 X66.128 Y51.42
G1 F1320 X68.329 Y53.622 E13.61831
G0 F3600 X68.329 Y54.187
G1 F1320 X65.562 Y51.42 E13.80378
G0 F3600 X64.997 Y51.42
G1 F1320 X68.329 Y54.753 E14.02715
G0 F3600 X68.329 Y55.319
G1 F1320 X64.431 Y51.42 E14.28846
G0 F3600 X63.865 Y51.42
G1 F1320 X68.329 Y55.884 E14.58767
G0 F3600 X68.329 Y56.45
G1 F1320 X63.3 Y51.42 E14.92478
G0 F3600 X62.734 Y51.42
G1 F1320 X68.329 Y57.016 E15.29984
G0 F3600 X68.329 Y57.581
G1 F1320 X62.168 Y51.42 E15.71279
G0 F3600 X61.603 Y51.42
G1 F1320 X68.329 Y58.147 E16.16365
G0 F3600 X68.329 Y58.713
G1 F1320 X61.037 Y51.42 E16.65245
G0 F3600 X60.471 Y51.42
G1 F1320 X68.131 Y59.08 E17.16589
G0 F3600 X67.565 Y59.08
G1 F1320 X59.906 Y51.42 E17.67928
G0 F3600 X59.34 Y51.42
G1 F1320 X66.999 Y59.08 E18.19268
G0 F3600 X66.434 Y59.08
G1 F1320 X58.774 Y51.42 E18.70611
G0 F3600 X58.209 Y51.42
G1 F1320 X65.868 Y59.08 E19.21951
G0 F3600 X65.302 Y59.08
G1 F1320 X57.643 Y51.42 E19.73291
G0 F3600 X57.077 Y51.42
G1 F1320 X64.737 Y59.08 E20.24634
G0 F3600 X64.171 Y59.08
G1 F1320 X56.511 Y51.42 E20.75977
G0 F3600 X55.946 Y51.42
G1 F1320 X63.605 Y59.08 E21.27317
G0 F3600 X63.039 Y59.08
G1 F1320 X55.38 Y51.42 E21.78657
G0 F3600 X54.814 Y51.42
G1 F1320 X62.474 Y59.08 E22.3
G0 F3600 X61.908 Y59.08
G1 F1320 X54.249 Y51.42 E22.8134
G0 F3600 X53.683 Y51.42
G1 F1320 X61.342 Y59.08 E23.3268
G0 F3600 X60.777 Y59.08
G1 F1320 X53.117 Y51.42 E23.84023
G0 F3600 X52.552 Y51.42
G1 F1320 X60.211 Y59.08 E24.35363
G0 F3600 X59.645 Y59.08
G1 F1320 X51.986 Y51.42 E24.86702
G0 F3600 X51.42 Y51.42
G1 F1320 X59.08 Y59.08 E25.38046
G0 F3600 X58.514 Y59.08
G1 F1320 X50.855 Y51.42 E25.89385
G0 F3600 X50.289 Y51.42
G1 F1320 X57.948 Y59.08 E26.40725
G0 F3600 X57.383 Y59.08
G1 F1320 X49.723 Y51.42 E26.92068
G0 F3600 X49.158 Y51.42
G1 F1320 X56.817 Y59.08 E27.43408
G0 F3600 X56.251 Y59.08
G1 F1320 X48.592 Y51.42 E27.94748
G0 F3600 X48.026 Y51.42
G1 F1320 X55.686 Y59.08 E28.46091
G0 F3600 X55.12 Y59.08
G1 F1320 X47.461 Y51.42 E28.97431
G0 F3600 X46.895 Y51.42
G1 F1320 X54.554 Y59.08 E29.48771
G0 F3600 X53.989 Y59.08
G1 F1320 X46.329 Y51.42 E30.00114
G0 F3600 X45.763 Y51.42
G1 F1320 X53.423 Y59.08 E30.51457
G0 F3600 X52.857 Y59.08
G1 F1320 X45.198 Y51.42 E31.02797
G0 F3600 X44.632 Y51.42
G1 F1320 X52.291 Y59.08 E31.54137
G0 F3600 X51.726 Y59.08
G1 F1320 X44.066 Y51.42 E32.0548
G0 F3600 X43.501 Y51.42
G1 F1320 X51.16 Y59.08 E32.5682
G0 F3600 X50.594 Y59.08
G1 F1320 X42.935 Y51.42 E33.0816
G0 F3600 X42.369 Y51.42
G1 F1320 X50.029 Y59.08 E33.59503
G0 F3600 X49.463 Y59.08
G1 F1320 X41.804 Y51.42 E34.10843
G0 F3600 X41.238 Y51.42
G1 F1320 X48.897 Y59.08 E34.62182
G0 F3600 X48.332 Y59.08
G1 F1320 X40.672 Y51.42 E35.13526
G0 F3600 X40.107 Y51.42
G1 F1320 X47.766 Y59.08 E35.64865
G0 F3600 X47.2 Y59.08
G1 F1320 X39.541 Y51.42 E36.16205
G0 F3600 X38.975 Y51.42
G1 F1320 X46.635 Y59.08 E36.67548
G0 F3600 X46.069 Y59.08
G1 F1320 X38.41 Y51.42 E37.18888
G0 F3600 X37.844 Y51.42
G1 F1320 X45.503 Y59.08 E37.70228
G0 F3600 X44.938 Y59.08
G1 F1320 X37.278 Y51.42 E38.21571
G0 F3600 X36.712 Y51.42
G1 F1320 X44.372 Y59.08 E38.72914
G0 F3600 X43.806 Y59.08
G1 F1320 X36.147 Y51.42 E39.24254
G0 F3600 X35.581 Y51.42
G1 F1320 X43.24 Y59.08 E39.75594
G0 F3600 X42.675 Y59.08
G1 F1320 X35.015 Y51.42 E40.26937
G0 F3600 X34.45 Y51.42
G1 F1320 X42.109 Y59.08 E40.78277
G0 F3600 X41.543 Y59.08
G1 F1320 X33.884 Y51.42 E41.29617
G0 F3600 X33.318 Y51.42
G1 F1320 X40.978 Y59.08 E41.8096
G0 F3600 X40.412 Y59.08
G1 F1320 X32.753 Y51.42 E42.323
G0 F3600 X32.187 Y51.42
G1 F1320 X39.846 Y59.08 E42.8364
G0 F3600 X39.281 Y59.08
G1 F1320 X31.669 Y51.468 E43.34661
G0 F3600 X31.669 Y52.034
M104 S200
G1 F1320 X38.715 Y59.08 E43.81889
G0 F3600 X38.149 Y59.08
G1 F1320 X31.669 Y52.6 E44.25323
G0 F3600 X31.669 Y53.165
G1 F1320 X37.584 Y59.08 E44.64969
G0 F3600 X37.018 Y59.08
G1 F1320 X31.669 Y53.731 E45.00822
G0 F3600 X31.669 Y54.297
G1 F1320 X36.452 Y59.08 E45.32882
G0 F3600 X35.887 Y59.08
G1 F1320 X31.669 Y54.863 E45.61151
G0 F3600 X31.669 Y55.428
G1 F1320 X35.321 Y59.08 E45.85629
G0 F3600 X34.755 Y59.08
G1 F1320 X31.669 Y55.994 E46.06314
G0 F3600 X31.669 Y56.56
G1 F1320 X34.19 Y59.08 E46.23208
G0 F3600 X33.624 Y59.08
G1 F1320 X31.669 Y57.125 E46.36312
G0 F3600 X31.669 Y57.691
G1 F1320 X33.058 Y59.08 E46.45622
G0 F3600 X32.492 Y59.08
G1 F1320 X31.669 Y58.257 E46.51139
G0 F3600 X31.669 Y58.822
G1 F1320 X31.927 Y59.08 E46.52868
;MESH:NONMESH
G0 F600 X31.927 Y59.08 Z0.45
G0 F3600 X68.83 Y59.581
G0 X68.9 Y59.651
;TIME_ELAPSED:51.621554
;LAYER:1
M106 S255
;TYPE:WALL-INNER
;MESH:PiRTO_Cart-PiRTO3d.stl
G1 F3060 X31.1 Y59.651 E47.42446
G1 X31.1 Y50.851 E47.633
G1 X68.9 Y50.851 E48.52878
G1 X68.9 Y59.651 E48.73732
G0 F3750 X69.3 Y60.051
;TYPE:WALL-OUTER
G1 F1860 X30.7 Y60.051 E49.65206
G1 X30.7 Y50.451 E49.87956
G1 X69.3 Y50.451 E50.79429
G1 X69.3 Y60.051 E51.02179
G0 F3750 X69.1 Y60.051
G0 X68.51 Y59.261
;TYPE:SKIN
G1 F1560 X31.49 Y59.261 E51.89909
G1 X31.49 Y51.241 E52.08914
G1 X68.51 Y51.241 E52.96644
G1 X68.51 Y59.261 E53.15649
G0 F3750 X68.329 Y58.95
G1 F1560 X68.198 Y59.08 E53.16087
G0 F3750 X67.632 Y59.08
G1 F1560 X68.329 Y58.384 E53.18421
G0 F3750 X68.329 Y57.818
G1 F1560 X67.066 Y59.08 E53.22652
G0 F3750 X66.501 Y59.08
G1 F1560 X68.329 Y57.253 E53.28777
G0 F3750 X68.329 Y56.687
G1 F1560 X65.935 Y59.08 E53.36798
G0 F3750 X65.369 Y59.08
G1 F1560 X68.329 Y56.121 E53.46717
G0 F3750 X68.329 Y55.555
G1 F1560 X64.804 Y59.08 E53.5853
G0 F3750 X64.238 Y59.08
G1 F1560 X68.329 Y54.99 E53.72239
G0 F3750 X68.329 Y54.424
G1 F1560 X63.672 Y59.08 E53.87845
G0 F3750 X63.107 Y59.08
G1 F1560 X68.329 Y53.858 E54.05346
G0 F3750 X68.329 Y53.293
G1 F1560 X62.541 Y59.08 E54.24742
G0 F3750 X61.975 Y59.08
G1 F1560 X68.329 Y52.727 E54.46035
G0 F3750 X68.329 Y52.161
G1 F1560 X61.41 Y59.08 E54.69223
G0 F3750 X60.844 Y59.08
G1 F1560 X68.329 Y51.596 E54.94306
G0 F3750 X67.938 Y51.42
G1 F1560 X60.278 Y59.08 E55.19978
G0 F3750 X59.713 Y59.08
G1 F1560 X67.373 Y51.42 E55.4565
G0 F3750 X66.807 Y51.42
G1 F1560 X59.147 Y59.08 E55.71321
G0 F3750 X58.581 Y59.08
G1 F1560 X66.241 Y51.42 E55.96993
G0 F3750 X65.676 Y51.42
G1 F1560 X58.015 Y59.08 E56.22666
G0 F3750 X57.45 Y59.08
G1 F1560 X65.11 Y51.42 E56.48338
G0 F3750 X64.544 Y51.42
G1 F1560 X56.884 Y59.08 E56.74009
G0 F3750 X56.318 Y59.08
G1 F1560 X63.979 Y51.42 E56.99682
G0 F3750 X63.413 Y51.42
G1 F1560 X55.753 Y59.08 E57.25354
G0 F3750 X55.187 Y59.08
G1 F1560 X62.847 Y51.42 E57.51026
G0 F3750 X62.281 Y51.42
G1 F1560 X54.621 Y59.08 E57.76697
G0 F3750 X54.056 Y59.08
G1 F1560 X61.716 Y51.42 E58.02369
G0 F3750 X61.15 Y51.42
G1 F1560 X53.49 Y59.08 E58.2804
G0 F3750 X52.924 Y59.08
G1 F1560 X60.584 Y51.42 E58.53712
G0 F3750 X60.019 Y51.42
G1 F1560 X52.359 Y59.08 E58.79384
G0 F3750 X51.793 Y59.08
G1 F1560 X59.453 Y51.42 E59.05055
G0 F3750 X58.887 Y51.42
G1 F1560 X51.227 Y59.08 E59.30727
G0 F3750 X50.662 Y59.08
G1 F1560 X58.322 Y51.42 E59.56398
G0 F3750 X57.756 Y51.42
G1 F1560 X50.096 Y59.08 E59.8207
G0 F3750 X49.53 Y59.08
G1 F1560 X57.19 Y51.42 E60.07741
G0 F3750 X56.625 Y51.42
G1 F1560 X48.965 Y59.08 E60.33413
G0 F3750 X48.399 Y59.08
G1 F1560 X56.059 Y51.42 E60.59085
G0 F3750 X55.493 Y51.42
G1 F1560 X47.833 Y59.08 E60.84756
G0 F3750 X47.267 Y59.08
G1 F1560 X54.928 Y51.42 E61.10429
G0 F3750 X54.362 Y51.42
G1 F1560 X46.702 Y59.08 E61.36101
G0 F3750 X46.136 Y59.08
G1 F1560 X53.796 Y51.42 E61.61773
G0 F3750 X53.23 Y51.42
G1 F1560 X45.57 Y59.08 E61.87444
G0 F3750 X45.005 Y59.08
G1 F1560 X52.665 Y51.42 E62.13116
G0 F3750 X52.099 Y51.42
G1 F1560 X44.439 Y59.08 E62.38787
G0 F3750 X43.873 Y59.08
G1 F1560 X51.533 Y51.42 E62.64459
G0 F3750 X50.968 Y51.42
G1 F1560 X43.308 Y59.08 E62.90131
G0 F3750 X42.742 Y59.08
G1 F1560 X50.402 Y51.42 E63.15802
G0 F3750 X49.836 Y51.42
G1 F1560 X42.176 Y59.08 E63.41474
G0 F3750 X41.611 Y59.08
G1 F1560 X49.271 Y51.42 E63.67145
G0 F3750 X48.705 Y51.42
G1 F1560 X41.045 Y59.08 E63.92817
G0 F3750 X40.479 Y59.08
G1 F1560 X48.139 Y51.42 E64.18488
G0 F3750 X47.574 Y51.42
G1 F1560 X39.914 Y59.08 E64.4416
G0 F3750 X39.348 Y59.08
G1 F1560 X47.008 Y51.42 E64.69832
G0 F3750 X46.442 Y51.42
G1 F1560 X38.782 Y59.08 E64.95503
G0 F3750 X38.217 Y59.08
G1 F1560 X45.877 Y51.42 E65.21175
G0 F3750 X45.311 Y51.42
G1 F1560 X37.651 Y59.08 E65.46846
G0 F3750 X37.085 Y59.08
G1 F1560 X44.745 Y51.42 E65.72518
G0 F3750 X44.18 Y51.42
G1 F1560 X36.519 Y59.08 E65.98191
G0 F3750 X35.954 Y59.08
G1 F1560 X43.614 Y51.42 E66.23863
G0 F3750 X43.048 Y51.42
G1 F1560 X35.388 Y59.08 E66.49534
G0 F3750 X34.822 Y59.08
G1 F1560 X42.482 Y51.42 E66.75206
G0 F3750 X41.917 Y51.42
G1 F1560 X34.257 Y59.08 E67.00878
G0 F3750 X33.691 Y59.08
G1 F1560 X41.351 Y51.42 E67.26549
G0 F3750 X40.785 Y51.42
G1 F1560 X33.125 Y59.08 E67.52221
G0 F3750 X32.56 Y59.08
G1 F1560 X40.22 Y51.42 E67.77892
G0 F3750 X39.654 Y51.42
G1 F1560 X31.994 Y59.08 E68.03564
G0 F3750 X31.669 Y58.839
G1 F1560 X39.088 Y51.42 E68.28428
G0 F3750 X38.523 Y51.42
G1 F1560 X31.669 Y58.274 E68.51398
G0 F3750 X31.669 Y57.708
G1 F1560 X37.957 Y51.42 E68.72472
G0 F3750 X37.391 Y51.42
G1 F1560 X31.669 Y57.142 E68.91648
G0 F3750 X31.669 Y56.577
G1 F1560 X36.826 Y51.42 E69.08931
G0 F3750 X36.26 Y51.42
G1 F1560 X31.669 Y56.011 E69.24318
G0 F3750 X31.669 Y55.445
G1 F1560 X35.694 Y51.42 E69.37807
G0 F3750 X35.129 Y51.42
G1 F1560 X31.669 Y54.879 E69.49401
G0 F3750 X31.669 Y54.314
G1 F1560 X34.563 Y51.42 E69.591
G0 F3750 X33.997 Y51.42
G1 F1560 X31.669 Y53.748 E69.66902
G0 F3750 X31.669 Y53.182
G1 F1560 X33.432 Y51.42 E69.72809
G0 F3750 X32.866 Y51.42
G1 F1560 X31.669 Y52.617 E69.7682
G0 F3750 X31.669 Y52.051
G1 F1560 X32.3 Y51.42 E69.78935
G0 F3750 X31.734 Y51.42
G1 F1560 X31.669 Y51.485 E69.79153
;MESH:NONMESH
G0 F600 X31.669 Y51.485 Z0.6
G0 F3750 X68.83 Y59.581
G0 X68.9 Y59.651
;TIME_ELAPSED:89.338217
;LAYER:2
;TYPE:WALL-INNER
;MESH:PiRTO_Cart-PiRTO3d.stl
G1 F4800 X31.1 Y59.651 E70.68731
G1 X31.1 Y50.851 E70.89585
G1 X68.9 Y50.851 E71.79163
G1 X68.9 Y59.651 E72.00017
G0 F3900 X69.3 Y60.051
;TYPE:WALL-OUTER
G1 F2400 X30.7 Y60.051 E72.9149
G1 X30.7 Y50.451 E73.1424
G1 X69.3 Y50.451 E74.05714
G1 X69.3 Y60.051 E74.28464
G0 F3900 X69.1 Y60.051
G0 X68.51 Y59.261
;TYPE:SKIN
G1 F1800 X31.49 Y59.261 E75.16193
G1 X31.49 Y51.241 E75.35199
G1 X68.51 Y51.241 E76.22928
G1 X68.51 Y59.261 E76.41934
G0 F3900 X68.329 Y51.924
G1 F1800 X67.825 Y51.42 E76.43623
G0 F3900 X67.259 Y51.42
G1 F1800 X68.329 Y52.49 E76.47209
G0 F3900 X68.329 Y53.056
G1 F1800 X66.694 Y51.42 E76.5269
G0 F3900 X66.128 Y51.42
G1 F1800 X68.329 Y53.622 E76.60068
G0 F3900 X68.329 Y54.187
G1 F1800 X65.562 Y51.42 E76.69342
G0 F3900 X64.997 Y51.42
G1 F1800 X68.329 Y54.753 E76.8051
G0 F3900 X68.329 Y55.319
G1 F1800 X64.431 Y51.42 E76.93576
G0 F3900 X63.865 Y51.42
G1 F1800 X68.329 Y55.884 E77.08536
G0 F3900 X68.329 Y56.45
G1 F1800 X63.3 Y51.42 E77.25392
G0 F3900 X62.734 Y51.42
G1 F1800 X68.329 Y57.016 E77.44145
G0 F3900 X68.329 Y57.581
G1 F1800 X62.168 Y51.42 E77.64792
G0 F3900 X61.603 Y51.42
G1 F1800 X68.329 Y58.147 E77.87336
G0 F3900 X68.329 Y58.713
G1 F1800 X61.037 Y51.42 E78.11775
G0 F3900 X60.471 Y51.42
G1 F1800 X68.131 Y59.08 E78.37447
G0 F3900 X67.565 Y59.08
G1 F1800 X59.906 Y51.42 E78.63117
G0 F3900 X59.34 Y51.42
G1 F1800 X66.999 Y59.08 E78.88787
G0 F3900 X66.434 Y59.08
G1 F1800 X58.774 Y51.42 E79.14458
G0 F3900 X58.209 Y51.42
G1 F1800 X65.868 Y59.08 E79.40128
G0 F3900 X65.302 Y59.08
G1 F1800 X57.643 Y51.42 E79.65798
G0 F3900 X57.077 Y51.42
G1 F1800 X64.737 Y59.08 E79.9147
G0 F3900 X64.171 Y59.08
G1 F1800 X56.511 Y51.42 E80.17141
G0 F3900 X55.946 Y51.42
G1 F1800 X63.605 Y59.08 E80.42811
G0 F3900 X63.039 Y59.08
G1 F1800 X55.38 Y51.42 E80.68481
G0 F3900 X54.814 Y51.42
G1 F1800 X62.474 Y59.08 E80.94153
G0 F3900 X61.908 Y59.08
G1 F1800 X54.249 Y51.42 E81.19823
G0 F3900 X53.683 Y51.42
G1 F1800 X61.342 Y59.08 E81.45493
G0 F3900 X60.777 Y59.08
G1 F1800 X53.117 Y51.42 E81.71164
G0 F3900 X52.552 Y51.42
G1 F1800 X60.211 Y59.08 E81.96834
G0 F3900 X59.645 Y59.08
G1 F1800 X51.986 Y51.42 E82.22504
G0 F3900 X51.42 Y51.42
G1 F1800 X59.08 Y59.08 E82.48176
G0 F3900 X58.514 Y59.08
G1 F1800 X50.855 Y51.42 E82.73846
G0 F3900 X50.289 Y51.42
G1 F1800 X57.948 Y59.08 E82.99515
G0 F3900 X57.383 Y59.08
G1 F1800 X49.723 Y51.42 E83.25187
G0 F3900 X49.158 Y51.42
G1 F1800 X56.817 Y59.08 E83.50857
G0 F3900 X56.251 Y59.08
G1 F1800 X48.592 Y51.42 E83.76527
G0 F3900 X48.026 Y51.42
G1 F1800 X55.686 Y59.08 E84.02198
G0 F3900 X55.12 Y59.08
G1 F1800 X47.461 Y51.42 E84.27868
G0 F3900 X46.895 Y51.42
G1 F1800 X54.554 Y59.08 E84.53538
G0 F3900 X53.989 Y59.08
G1 F1800 X46.329 Y51.42 E84.7921
G0 F3900 X45.763 Y51.42
G1 F1800 X53.423 Y59.08 E85.04881
G0 F3900 X52.857 Y59.08
G1 F1800 X45.198 Y51.42 E85.30551
G0 F3900 X44.632 Y51.42
G1 F1800 X52.291 Y59.08 E85.56221
G0 F3900 X51.726 Y59.08
G1 F1800 X44.066 Y51.42 E85.81893
G0 F3900 X43.501 Y51.42
G1 F1800 X51.16 Y59.08 E86.07563
G0 F3900 X50.594 Y59.08
G1 F1800 X42.935 Y51.42 E86.33233
G0 F3900 X42.369 Y51.42
G1 F1800 X50.029 Y59.08 E86.58904
G0 F3900 X49.463 Y59.08
G1 F1800 X41.804 Y51.42 E86.84574
G0 F3900 X41.238 Y51.42
G1 F1800 X48.897 Y59.08 E87.10244
G0 F3900 X48.332 Y59.08
G1 F1800 X40.672 Y51.42 E87.35916
G0 F3900 X40.107 Y51.42
G1 F1800 X47.766 Y59.08 E87.61586
G0 F3900 X47.2 Y59.08
G1 F1800 X39.541 Y51.42 E87.87255
G0 F3900 X38.975 Y51.42
G1 F1800 X46.635 Y59.08 E88.12927
G0 F3900 X46.069 Y59.08
G1 F1800 X38.41 Y51.42 E88.38597
G0 F3900 X37.844 Y51.42
G1 F1800 X45.503 Y59.08 E88.64267
G0 F3900 X44.938 Y59.08
G1 F1800 X37.278 Y51.42 E88.89938
G0 F3900 X36.712 Y51.42
G1 F1800 X44.372 Y59.08 E89.1561
G0 F3900 X43.806 Y59.08
G1 F1800 X36.147 Y51.42 E89.4128
G0 F3900 X35.581 Y51.42
G1 F1800 X43.24 Y59.08 E89.6695
G0 F3900 X42.675 Y59.08
G1 F1800 X35.015 Y51.42 E89.92621
G0 F3900 X34.45 Y51.42
G1 F1800 X42.109 Y59.08 E90.18291
G0 F3900 X41.543 Y59.08
G1 F1800 X33.884 Y51.42 E90.43961
G0 F3900 X33.318 Y51.42
G1 F1800 X40.978 Y59.08 E90.69633
G0 F3900 X40.412 Y59.08
G1 F1800 X32.753 Y51.42 E90.95303
G0 F3900 X32.187 Y51.42
G1 F1800 X39.846 Y59.08 E91.20973
G0 F3900 X39.281 Y59.08
G1 F1800 X31.669 Y51.468 E91.46483
G0 F3900 X31.669 Y52.034
G1 F1800 X38.715 Y59.08 E91.70097
G0 F3900 X38.149 Y59.08
G1 F1800 X31.669 Y52.6 E91.91814
