;FLAVOR:Marlin
;TIME:7506
;Filament used: 3.91131m
;Layer height: 0.15
;MINX:12.929
;MINY:7.796
;MINZ:0.3
;MAXX:87.07
;MAXY:109.322
;MAXZ:7.95
;Generated with Cura_SteamEngine 5.3.0
M82 ;absolute extrusion mode
;MachineType:ENTINA TINA2
;FilamentType:PLA
;InfillDensity:30
;Extruder0Temperature:200

;(**** start.gcode for tina2****)
M203 Z15
M104 S150
G28 Z
G28 X Y; Home extruder
G1 X55 Y55 F1000
G29
M107 ; Turn off fan
G90 ; Absolute positioning
M82 ; Extruder in absolute mode
M109 S210
G92 E0 ; Reset extruder position
G1 X90 Y6 Z0.27 F2000
G1 X20 Y6 Z0.27 E15 F1000
G92 E0 ; Reset extruder position
M203 Z5
G92 E0
G92 E0
G1 F1680 E-3
;LAYER_COUNT:52
;LAYER:0
M107
G0 F3600 X14.029 Y9.528 Z0.3
;TYPE:SKIRT
G1 F1680 E0
G1 F1560 X14.365 Y9.149 E0.02509
G1 X14.757 Y8.826 E0.05024
G1 X15.194 Y8.57 E0.07533
G1 X15.667 Y8.385 E0.10048
G1 X16.162 Y8.276 E0.12559
G1 X16.923 Y8.236 E0.16333
G1 X82.748 Y8.236 E3.42354
G1 X83.446 Y8.246 E3.45812
G1 X83.951 Y8.294 E3.48324
G1 X84.442 Y8.419 E3.50834
G1 X84.908 Y8.621 E3.53349
G1 X85.336 Y8.893 E3.55861
G1 X85.716 Y9.229 E3.58373
G1 X86.038 Y9.62 E3.60882
G1 X86.295 Y10.057 E3.63393
G1 X86.481 Y10.529 E3.65906
G1 X86.59 Y11.025 E3.68421
G1 X86.628 Y11.688 E3.7171
G1 X86.63 Y104.657 E8.32171
G1 X86.62 Y105.395 E8.35827
G1 X86.573 Y105.9 E8.38339
G1 X86.352 Y106.668 E8.42297
G1 X86.062 Y107.238 E8.45465
G1 X85.765 Y107.648 E8.47972
G1 X85.407 Y108.007 E8.50483
G1 X84.996 Y108.306 E8.53
G1 X84.367 Y108.612 E8.56465
G1 X83.886 Y108.773 E8.58977
G1 X83.157 Y108.869 E8.62619
G1 X82.358 Y108.882 E8.66577
G1 X17.56 Y108.882 E11.87512
G1 X16.869 Y108.872 E11.90934
G1 X16.364 Y108.824 E11.93447
G1 X15.671 Y108.63 E11.97011
G1 X15.205 Y108.429 E11.99525
G1 X14.777 Y108.158 E12.02034
G1 X14.396 Y107.823 E12.04546
G1 X14.073 Y107.433 E12.07054
G1 X13.735 Y106.852 E12.10384
G1 X13.512 Y106.259 E12.13521
G1 X13.389 Y105.659 E12.16555
G1 X13.369 Y104.449 E12.22549
G1 X13.371 Y12.082 E16.80029
G1 X13.381 Y11.418 E16.83318
G1 X13.429 Y10.913 E16.8583
G1 X13.555 Y10.421 E16.88346
G1 X13.757 Y9.956 E16.90857
G1 X14.029 Y9.528 E16.93368
G0 F3600 X13.677 Y9.261
G1 F1560 X14.085 Y8.809 E16.96384
G1 X14.477 Y8.486 E16.989
G1 X15.001 Y8.172 E17.01925
G1 X15.572 Y7.955 E17.04951
G1 X16.067 Y7.846 E17.07461
G1 X16.923 Y7.796 E17.11708
G1 X82.754 Y7.796 E20.37759
G1 X83.488 Y7.808 E20.41395
G1 X83.993 Y7.856 E20.43907
G1 X84.586 Y8.002 E20.46932
G1 X85.083 Y8.217 E20.49614
G1 X85.603 Y8.541 E20.52649
G1 X86.056 Y8.949 E20.55668
G1 X86.378 Y9.34 E20.58177
G1 X86.691 Y9.863 E20.61196
G1 X86.911 Y10.435 E20.64231
G1 X87.02 Y10.931 E20.66746
G1 X87.068 Y11.688 E20.70503
G1 X87.07 Y104.663 E25.30994
G1 X87.06 Y105.401 E25.3465
G1 X87.007 Y105.983 E25.37544
G1 X86.764 Y106.829 E25.41904
G1 X86.454 Y107.438 E25.45288
G1 X86.077 Y107.959 E25.48474
G1 X85.719 Y108.318 E25.50985
G1 X85.226 Y108.684 E25.54026
G1 X84.559 Y109.008 E25.57698
G1 X83.988 Y109.203 E25.60687
G1 X83.214 Y109.305 E25.64554
G1 X82.365 Y109.322 E25.68759
G1 X17.554 Y109.322 E28.89759
G1 X16.827 Y109.31 E28.9336
G1 X16.281 Y109.258 E28.96076
G1 X15.552 Y109.054 E28.99826
G1 X14.998 Y108.819 E29.02806
G1 X14.486 Y108.488 E29.05826
G1 X14.057 Y108.104 E29.08677
G1 X13.734 Y107.714 E29.11185
G1 X13.335 Y107.04 E29.15065
G1 X13.1 Y106.414 E29.18377
G1 X12.95 Y105.708 E29.21951
G1 X12.929 Y104.449 E29.28188
G1 X12.931 Y12.075 E33.85702
G1 X12.943 Y11.376 E33.89165
G1 X13.003 Y10.804 E33.92013
G1 X13.151 Y10.246 E33.94873
G1 X13.353 Y9.781 E33.97384
G1 X13.677 Y9.261 E34.00418
G1 F1680 E31.00418
;MESH:PiRTO_Cart-Top3D.stl
G0 F3600 X82.75 Y105.002
;TYPE:WALL-INNER
G1 F1680 E34.00418
G1 F1320 X82.749 Y12.116 E38.60469
G1 X17.251 Y12.116 E41.8487
G1 X17.25 Y105.002 E46.44921
G1 X82.75 Y105.002 E49.69332
G0 F3600 X83.19 Y105.308
;TYPE:WALL-OUTER
G1 F1320 X83.189 Y11.676 E54.33078
G1 X16.811 Y11.676 E57.61838
G1 X16.809 Y105.306 E62.25573
G1 X16.859 Y105.414 E62.26163
G1 X16.936 Y105.442 E62.26569
G1 X83.055 Y105.442 E65.54046
G1 X83.151 Y105.4 E65.54565
G1 X83.19 Y105.308 E65.5506
G1 F1680 E62.5506
G0 F3600 X17.685 Y104.801
;TYPE:SKIN
G1 F1680 E65.5506
G1 F1200 X17.449 Y104.565 E65.56713
G0 F3600 X17.449 Y103.943
G1 F1200 X18.307 Y104.801 E65.62723
G0 F3600 X18.929 Y104.801
G1 F1200 X17.449 Y103.321 E65.73089
G0 F3600 X17.449 Y102.698
G1 F1200 X19.552 Y104.801 E65.87819
G0 F3600 X20.174 Y104.801
G1 F1200 X17.449 Y102.076 E66.06906
G0 F3600 X17.449 Y101.454
G1 F1200 X20.796 Y104.801 E66.3035
G0 F3600 X21.418 Y104.801
G1 F1200 X17.449 Y100.832 E66.58151
G0 F3600 X17.449 Y100.209
G1 F1200 X22.041 Y104.801 E66.90315
G0 F3600 X22.663 Y104.801
G1 F1200 X17.449 Y99.587 E67.26836
G0 F3600 X17.449 Y98.965
G1 F1200 X23.285 Y104.801 E67.67713
G0 F3600 X23.907 Y104.801
G1 F1200 X17.449 Y98.342 E68.12951
G0 F3600 X17.449 Y97.72
G1 F1200 X24.53 Y104.801 E68.62549
G0 F3600 X25.152 Y104.801
G1 F1200 X17.449 Y97.098 E69.16504
G0 F3600 X17.449 Y96.476
G1 F1200 X25.774 Y104.801 E69.74815
G0 F3600 X26.397 Y104.801
G1 F1200 X17.449 Y95.853 E70.37491
G0 F3600 X17.449 Y95.231
G1 F1200 X27.019 Y104.801 E71.04523
G0 F3600 X27.641 Y104.801
G1 F1200 X17.449 Y94.609 E71.75911
G0 F3600 X17.449 Y93.987
G1 F1200 X28.263 Y104.801 E72.51657
G0 F3600 X28.886 Y104.801
G1 F1200 X17.449 Y93.364 E73.31766
G0 F3600 X17.449 Y92.742
G1 F1200 X29.508 Y104.801 E74.16232
G0 F3600 X30.13 Y104.801
G1 F1200 X17.449 Y92.12 E75.05055
G0 F3600 X17.449 Y91.498
G1 F1200 X30.752 Y104.801 E75.98234
G0 F3600 X31.375 Y104.801
G1 F1200 X17.449 Y90.875 E76.95777
G0 F3600 X17.449 Y90.253
G1 F1200 X31.997 Y104.801 E77.97677
G0 F3600 X32.619 Y104.801
G1 F1200 X17.449 Y89.631 E79.03933
G0 F3600 X17.449 Y89.009
G1 F1200 X33.241 Y104.801 E80.14547
G0 F3600 X33.864 Y104.801
G1 F1200 X17.449 Y88.386 E81.29524
G0 F3600 X17.449 Y87.764
G1 F1200 X34.486 Y104.801 E82.48857
G0 F3600 X35.108 Y104.801
G1 F1200 X17.449 Y87.142 E83.72548
G0 F3600 X17.449 Y86.52
G1 F1200 X35.73 Y104.801 E85.00595
G0 F3600 X36.353 Y104.801
G1 F1200 X17.449 Y85.897 E86.33006
G0 F3600 X17.449 Y85.275
G1 F1200 X36.975 Y104.801 E87.69774
G0 F3600 X37.597 Y104.801
G1 F1200 X17.449 Y84.653 E89.10898
G0 F3600 X17.449 Y84.031
G1 F1200 X38.219 Y104.801 E90.56379
G0 F3600 X38.842 Y104.801
G1 F1200 X17.449 Y83.408 E92.06224
G0 F3600 X17.449 Y82.786
G1 F1200 X39.464 Y104.801 E93.60426
G0 F3600 X40.086 Y104.801
G1 F1200 X17.449 Y82.164 E95.18984
G0 F3600 X17.449 Y81.542
G1 F1200 X40.708 Y104.801 E96.81899
G0 F3600 X41.331 Y104.801
G1 F1200 X17.449 Y80.919 E98.49178
G0 F3600 X17.449 Y80.297
G1 F1200 X41.953 Y104.801 E100.20813
G0 F3600 X42.575 Y104.801
G1 F1200 X17.449 Y79.675 E101.96806
G0 F3600 X17.449 Y79.053
G1 F1200 X43.197 Y104.801 E103.77155
G0 F3600 X43.82 Y104.801
G1 F1200 X17.449 Y78.43 E105.61867
G0 F3600 X17.449 Y77.808
G1 F1200 X44.442 Y104.801 E107.50937
G0 F3600 X45.064 Y104.801
G1 F1200 X17.449 Y77.186 E109.44363
G0 F3600 X17.449 Y76.564
G1 F1200 X45.686 Y104.801 E111.42146
G0 F3600 X46.309 Y104.801
G1 F1200 X17.449 Y75.941 E113.44292
G0 F3600 X17.449 Y75.319
G1 F1200 X46.931 Y104.801 E115.50796
G0 F3600 X47.553 Y104.801
G1 F1200 X17.449 Y74.697 E117.61656
G0 F3600 X17.449 Y74.075
G1 F1200 X48.175 Y104.801 E119.76873
G0 F3600 X48.798 Y104.801
G1 F1200 X17.449 Y73.452 E121.96453
G0 F3600 X17.449 Y72.83
G1 F1200 X49.42 Y104.801 E124.2039
G0 F3600 X50.042 Y104.801
G1 F1200 X17.449 Y72.208 E126.48684
G0 F3600 X17.449 Y71.586
G1 F1200 X50.664 Y104.801 E128.81335
G0 F3600 X51.287 Y104.801
G1 F1200 X17.449 Y70.963 E131.1835
G0 F3600 X17.449 Y70.341
G1 F1200 X51.909 Y104.801 E133.59721
G0 F3600 X52.531 Y104.801
G1 F1200 X17.449 Y69.719 E136.05449
G0 F3600 X17.449 Y69.097
G1 F1200 X53.153 Y104.801 E138.55533
G0 F3600 X53.776 Y104.801
G1 F1200 X17.449 Y68.474 E141.09982
G0 F3600 X17.449 Y67.852
G1 F1200 X54.398 Y104.801 E143.68787
G0 F3600 X55.02 Y104.801
G1 F1200 X17.449 Y67.23 E146.31949
G0 F3600 X17.449 Y66.608
G1 F1200 X55.642 Y104.801 E148.99467
G0 F3600 X56.265 Y104.801
G1 F1200 X17.449 Y65.985 E151.7135
G0 F3600 X17.449 Y65.363
G1 F1200 X56.887 Y104.801 E154.47589
G0 F3600 X57.509 Y104.801
G1 F1200 X17.449 Y64.741 E157.28184
G0 F3600 X17.449 Y64.119
G1 F1200 X58.131 Y104.801 E160.13137
G0 F3600 X58.754 Y104.801
G1 F1200 X17.449 Y63.496 E163.02453
G0 F3600 X17.449 Y62.874
G1 F1200 X59.376 Y104.801 E165.96126
G0 F3600 X59.998 Y104.801
G1 F1200 X17.449 Y62.252 E168.94156
G0 F3600 X17.449 Y61.63
G1 F1200 X60.62 Y104.801 E171.96542
G0 F3600 X61.243 Y104.801
G1 F1200 X17.449 Y61.007 E175.03292
G0 F3600 X17.449 Y60.385
G1 F1200 X61.865 Y104.801 E178.14399
G0 F3600 X62.487 Y104.801
G1 F1200 X17.449 Y59.763 E181.29863
G0 F3600 X17.449 Y59.14
G1 F1200 X63.109 Y104.801 E184.49687
G0 F3600 X63.732 Y104.801
G1 F1200 X17.449 Y58.518 E187.73871
G0 F3600 X17.449 Y57.896
G1 F1200 X64.354 Y104.801 E191.02411
G0 F3600 X64.976 Y104.801
G1 F1200 X17.449 Y57.274 E194.35309
G0 F3600 X17.449 Y56.651
G1 F1200 X65.599 Y104.801 E197.7257
G0 F3600 X66.221 Y104.801
G1 F1200 X17.449 Y56.029 E201.14188
G0 F3600 X17.449 Y55.407
G1 F1200 X66.843 Y104.801 E204.60163
G0 F3600 X67.465 Y104.801
G1 F1200 X17.449 Y54.785 E208.10494
G0 F3600 X17.449 Y54.162
G1 F1200 X68.088 Y104.801 E211.6519
G0 F3600 X68.71 Y104.801
G1 F1200 X17.449 Y53.54 E215.24241
G0 F3600 X17.449 Y52.918
G1 F1200 X69.332 Y104.801 E218.8765
G0 F3600 X69.954 Y104.801
G1 F1200 X17.449 Y52.296 E222.55415
G0 F3600 X17.449 Y51.673
G1 F1200 X70.577 Y104.801 E226.27545
G0 F3600 X71.199 Y104.801
G1 F1200 X17.449 Y51.051 E230.0403
G0 F3600 X17.449 Y50.429
G1 F1200 X71.821 Y104.801 E233.84873
G0 F3600 X72.443 Y104.801
G1 F1200 X17.449 Y49.807 E237.70072
G0 F3600 X17.449 Y49.184
G1 F1200 X73.066 Y104.801 E241.59635
G0 F3600 X73.688 Y104.801
G1 F1200 X17.449 Y48.562 E245.53555
G0 F3600 X17.449 Y47.94
G1 F1200 X74.31 Y104.801 E249.51831
G0 F3600 X74.932 Y104.801
G1 F1200 X17.449 Y47.318 E253.54465
G0 F3600 X17.449 Y46.695
G1 F1200 X75.555 Y104.801 E257.61462
G0 F3600 X76.177 Y104.801
G1 F1200 X17.449 Y46.073 E261.72815
G0 F3600 X17.449 Y45.451
G1 F1200 X76.799 Y104.801 E265.88526
G0 F3600 X77.421 Y104.801
G1 F1200 X17.449 Y44.829 E270.08593
G0 F3600 X17.449 Y44.206
G1 F1200 X78.044 Y104.801 E274.33024
G0 F3600 X78.666 Y104.801
G1 F1200 X17.449 Y43.584 E278.61811
G0 F3600 X17.449 Y42.962
G1 F1200 X79.288 Y104.801 E282.94955
G0 F3600 X79.91 Y104.801
G1 F1200 X17.449 Y42.34 E287.32457
G0 F3600 X17.449 Y41.717
G1 F1200 X80.533 Y104.801 E291.74321
G0 F3600 X81.155 Y104.801
G1 F1200 X17.449 Y41.095 E296.20543
G0 F3600 X17.449 Y40.473
G1 F1200 X81.777 Y104.801 E300.71121
G0 F3600 X82.399 Y104.801
G1 F1200 X17.449 Y39.851 E305.26056
G0 F3600 X17.449 Y39.228
G1 F1200 X82.549 Y104.328 E309.82042
G0 F3600 X82.549 Y103.706
G1 F1200 X17.449 Y38.606 E314.38027
G0 F3600 X17.449 Y37.984
G1 F1200 X82.549 Y103.084 E318.94013
G0 F3600 X82.549 Y102.461
G1 F1200 X17.449 Y37.362 E323.49995
G0 F3600 X17.449 Y36.739
G1 F1200 X82.549 Y101.839 E328.05981
G0 F3600 X82.549 Y101.217
G1 F1200 X17.449 Y36.117 E332.61966
G0 F3600 X17.449 Y35.495
G1 F1200 X82.549 Y100.595 E337.17952
G0 F3600 X82.549 Y99.972
G1 F1200 X17.449 Y34.873 E341.73934
G0 F3600 X17.449 Y34.25
G1 F1200 X82.549 Y99.35 E346.2992
G0 F3600 X82.549 Y98.728
G1 F1200 X17.449 Y33.628 E350.85905
G0 F3600 X17.449 Y33.006
G1 F1200 X82.549 Y98.106 E355.41891
G0 F3600 X82.549 Y97.483
G1 F1200 X17.449 Y32.384 E359.97873
G0 F3600 X17.449 Y31.761
G1 F1200 X82.549 Y96.861 E364.53859
G0 F3600 X82.549 Y96.239
G1 F1200 X17.449 Y31.139 E369.09844
G0 F3600 X17.449 Y30.517
G1 F1200 X82.549 Y95.617 E373.6583
G0 F3600 X82.549 Y94.994
G1 F1200 X17.449 Y29.895 E378.21812
G0 F3600 X17.449 Y29.272
G1 F1200 X82.549 Y94.372 E382.77798
G0 F3600 X82.549 Y93.75
G1 F1200 X17.449 Y28.65 E387.33783
G0 F3600 X17.449 Y28.028
G1 F1200 X82.549 Y93.128 E391.89769
G0 F3600 X82.549 Y92.505
G1 F1200 X17.449 Y27.406 E396.45751
G0 F3600 X17.449 Y26.783
G1 F1200 X82.549 Y91.883 E401.01737
G0 F3600 X82.549 Y91.261
G1 F1200 X17.449 Y26.161 E405.57722
G0 F3600 X17.449 Y25.539
G1 F1200 X82.549 Y90.639 E410.13708
G0 F3600 X82.549 Y90.016
G1 F1200 X17.449 Y24.917 E414.6969
G0 F3600 X17.449 Y24.294
G1 F1200 X82.549 Y89.394 E419.25676
G0 F3600 X82.549 Y88.772
G1 F1200 X17.449 Y23.672 E423.81661
G0 F3600 X17.449 Y23.05
G1 F1200 X82.549 Y88.15 E428.37647
G0 F3600 X82.549 Y87.527
G1 F1200 X17.449 Y22.428 E432.93629
G0 F3600 X17.449 Y21.805
G1 F1200 X82.549 Y86.905 E437.49615
G0 F3600 X82.549 Y86.283
G1 F1200 X17.449 Y21.183 E442.056
G0 F3600 X17.449 Y20.561
G1 F1200 X82.549 Y85.661 E446.61586
G0 F3600 X82.549 Y85.038
G1 F1200 X17.449 Y19.938 E451.17571
G0 F3600 X17.449 Y19.316
G1 F1200 X82.549 Y84.416 E455.73557
G0 F3600 X82.549 Y83.794
G1 F1200 X17.449 Y18.694 E460.29543
G0 F3600 X17.449 Y18.072
G1 F1200 X82.549 Y83.172 E464.85528
G0 F3600 X82.549 Y82.549
G1 F1200 X17.449 Y17.449 E469.41514
G0 F3600 X17.449 Y16.827
G1 F1200 X82.549 Y81.927 E473.975
G0 F3600 X82.549 Y81.305
G1 F1200 X17.449 Y16.205 E478.53485
G0 F3600 X17.449 Y15.583
G1 F1200 X82.549 Y80.683 E483.09471
G0 F3600 X82.549 Y80.06
G1 F1200 X17.449 Y14.96 E487.65456
G0 F3600 X17.449 Y14.338
G1 F1200 X82.549 Y79.438 E492.21442
G0 F3600 X82.549 Y78.816
G1 F1200 X17.449 Y13.716 E496.77428
G0 F3600 X17.449 Y13.094
G1 F1200 X82.549 Y78.193 E501.3341
G0 F3600 X82.549 Y77.571
G1 F1200 X17.449 Y12.471 E505.89395
G0 F3600 X17.916 Y12.316
G1 F1200 X82.549 Y76.949 E510.4211
G0 F3600 X82.549 Y76.327
G1 F1200 X18.538 Y12.316 E514.90468
G0 F3600 X19.161 Y12.316
G1 F1200 X82.549 Y75.704 E519.34462
G0 F3600 X82.549 Y75.082
G1 F1200 X19.783 Y12.316 E523.74099
G0 F3600 X20.405 Y12.316
G1 F1200 X82.549 Y74.46 E528.0938
G0 F3600 X82.549 Y73.838
G1 F1200 X21.027 Y12.316 E532.40304
G0 F3600 X21.65 Y12.316
G1 F1200 X82.549 Y73.215 E536.66864
G0 F3600 X82.549 Y72.593
G1 F1200 X22.272 Y12.316 E540.89068
G0 F3600 X22.894 Y12.316
G1 F1200 X82.549 Y71.971 E545.06914
G0 F3600 X82.549 Y71.349
G1 F1200 X23.516 Y12.316 E549.20404
G0 F3600 X24.139 Y12.316
G1 F1200 X82.549 Y70.726 E553.29531
G0 F3600 X82.549 Y70.104
G1 F1200 X24.761 Y12.316 E557.343
G0 F3600 X25.383 Y12.316
G1 F1200 X82.549 Y69.482 E561.34713
G0 F3600 X82.549 Y68.86
G1 F1200 X26.005 Y12.316 E565.30769
G0 F3600 X26.628 Y12.316
G1 F1200 X82.549 Y68.237 E569.22461
G0 F3600 X82.549 Y67.615
G1 F1200 X27.25 Y12.316 E573.09797
G0 F3600 X27.872 Y12.316
G1 F1200 X82.549 Y66.993 E576.92776
G0 F3600 X82.549 Y66.371
G1 F1200 X28.494 Y12.316 E580.71398
G0 F3600 X29.117 Y12.316
G1 F1200 X82.549 Y65.748 E584.45656
G0 F3600 X82.549 Y65.126
G1 F1200 X29.739 Y12.316 E588.15558
G0 F3600 X30.361 Y12.316
G1 F1200 X82.549 Y64.504 E591.81103
G0 F3600 X82.549 Y63.882
G1 F1200 X30.984 Y12.316 E595.42288
G0 F3600 X31.606 Y12.316
G1 F1200 X82.549 Y63.259 E598.99112
G0 F3600 X82.549 Y62.637
G1 F1200 X32.228 Y12.316 E602.5158
G0 F3600 X32.85 Y12.316
G1 F1200 X82.549 Y62.015 E605.99691
G0 F3600 X82.549 Y61.393
G1 F1200 X33.473 Y12.316 E609.43442
G0 F3600 X34.095 Y12.316
G1 F1200 X82.549 Y60.77 E612.82833
G0 F3600 X82.549 Y60.148
G1 F1200 X34.717 Y12.316 E616.17866
G0 F3600 X35.339 Y12.316
G1 F1200 X82.549 Y59.526 E619.48544
G0 F3600 X82.549 Y58.904
G1 F1200 X35.962 Y12.316 E622.74861
G0 F3600 X36.584 Y12.316
G1 F1200 X82.549 Y58.281 E625.96817
G0 F3600 X82.549 Y57.658
G1 F1200 X37.206 Y12.316 E629.14414
G0 F3600 X37.828 Y12.316
G1 F1200 X82.549 Y57.036 E632.27653
G0 F3600 X82.549 Y56.414
G1 F1200 X38.451 Y12.316 E635.36533
G0 F3600 X39.073 Y12.316
G1 F1200 X82.549 Y55.792 E638.41056
G0 F3600 X82.549 Y55.169
G1 F1200 X39.695 Y12.316 E641.41218
G0 F3600 X40.317 Y12.316
G1 F1200 X82.549 Y54.547 E644.37024
G0 F3600 X82.549 Y53.925
