;FLAVOR:Marlin
;TIME:7895
;Filament used: 4.24784m
;Layer height: 0.15
;MINX:12.34
;MINY:6.34
;MINZ:0.3
;MAXX:86.66
;MAXY:113.66
;MAXZ:8.55
;Generated with Cura_SteamEngine 5.3.0
M82 ;absolute extrusion mode
;MachineType:ENTINA TINA2
;FilamentType:PLA
;InfillDensity:30
;Extruder0Temperature:200

;(**** start.gcode for tina2****)
M203 Z15
M104 S150
G28 Z
G28 X Y; Home extruder
G1 X55 Y55 F1000
G29
M107 ; Turn off fan
G90 ; Absolute positioning
M82 ; Extruder in absolute mode
M109 S210
G92 E0 ; Reset extruder position
G1 X90 Y6 Z0.27 F2000
G1 X20 Y6 Z0.27 E15 F1000
G92 E0 ; Reset extruder position
M203 Z5
G92 E0
G92 E0
G1 F1680 E-3
;LAYER_COUNT:56
;LAYER:0
M107
G0 F3600 X13.166 Y8.499 Z0.3
;TYPE:SKIRT
G1 F1680 E0
G1 F1560 X13.438 Y8.071 E0.02512
G1 X13.774 Y7.692 E0.0502
G1 X14.166 Y7.369 E0.07536
G1 X14.603 Y7.113 E0.10044
G1 X15.075 Y6.928 E0.12555
G1 X15.571 Y6.819 E0.15071
G1 X16.027 Y6.781 E0.17337
G1 X82.339 Y6.78 E3.4577
G1 X83.037 Y6.79 E3.49228
G1 X83.542 Y6.838 E3.5174
G1 X84.033 Y6.963 E3.5425
G1 X84.499 Y7.165 E3.56765
G1 X84.927 Y7.437 E3.59277
G1 X85.307 Y7.773 E3.61789
G1 X85.629 Y8.164 E3.64298
G1 X85.886 Y8.601 E3.66809
G1 X86.072 Y9.073 E3.69321
G1 X86.181 Y9.569 E3.71837
G1 X86.219 Y10.028 E3.74118
G1 X86.22 Y108.936 E8.63994
G1 X86.21 Y109.648 E8.67521
G1 X86.163 Y110.153 E8.70033
G1 X85.958 Y110.879 E8.73769
G1 X85.682 Y111.439 E8.76862
G1 X85.282 Y111.995 E8.80254
G1 X84.825 Y112.448 E8.83441
G1 X84.413 Y112.744 E8.85954
G1 X83.96 Y112.971 E8.88463
G1 X83.477 Y113.125 E8.90974
G1 X82.806 Y113.208 E8.94323
G1 X82.16 Y113.22 E8.97523
G1 X16.903 Y113.22 E12.20731
G1 X16.201 Y113.21 E12.24208
G1 X15.696 Y113.163 E12.2672
G1 X15.205 Y113.037 E12.29231
G1 X14.739 Y112.835 E12.31746
G1 X14.311 Y112.563 E12.34258
G1 X13.724 Y112.01 E12.38252
G1 X13.355 Y111.496 E12.41386
G1 X13.055 Y110.874 E12.44807
G1 X12.895 Y110.392 E12.47322
G1 X12.802 Y109.683 E12.50864
G1 X12.78 Y108.564 E12.56407
G1 X12.78 Y10.626 E17.41479
G1 X12.79 Y9.961 E17.44773
G1 X12.838 Y9.456 E17.47286
G1 X12.964 Y8.964 E17.49801
G1 X13.166 Y8.499 E17.52312
G0 F3600 X13.086 Y7.804
G1 F1560 X13.494 Y7.352 E17.55328
G1 X13.913 Y7.007 E17.58016
G1 X14.442 Y6.703 E17.61038
G1 X14.914 Y6.518 E17.63549
G1 X15.477 Y6.389 E17.6641
G1 X16.027 Y6.341 E17.69144
G1 X82.345 Y6.34 E20.97607
G1 X83.079 Y6.352 E21.01243
G1 X83.584 Y6.4 E21.03755
G1 X84.177 Y6.546 E21.0678
G1 X84.674 Y6.761 E21.09462
G1 X85.194 Y7.085 E21.12497
G1 X85.647 Y7.493 E21.15516
G1 X85.969 Y7.884 E21.18025
G1 X86.282 Y8.407 E21.21044
G1 X86.502 Y8.979 E21.24079
G1 X86.611 Y9.475 E21.26594
G1 X86.659 Y10.028 E21.29343
G1 X86.66 Y108.942 E26.1925
G1 X86.65 Y109.654 E26.22776
G1 X86.598 Y110.232 E26.25651
G1 X86.369 Y111.042 E26.2982
G1 X86.077 Y111.634 E26.33089
G1 X85.618 Y112.282 E26.37022
G1 X85.082 Y112.805 E26.40731
G1 X84.641 Y113.122 E26.43421
G1 X84.094 Y113.39 E26.46438
G1 X83.569 Y113.557 E26.49167
G1 X82.86 Y113.645 E26.52705
G1 X82.168 Y113.66 E26.56133
G1 X16.897 Y113.66 E29.79411
G1 X16.195 Y113.65 E29.82888
G1 X15.62 Y113.598 E29.85748
G1 X15.03 Y113.441 E29.88772
G1 X14.564 Y113.239 E29.91287
G1 X14.04 Y112.912 E29.94346
G1 X13.392 Y112.302 E29.98754
G1 X12.976 Y111.722 E30.02289
G1 X12.637 Y111.013 E30.06182
G1 X12.465 Y110.494 E30.0889
G1 X12.362 Y109.692 E30.12894
G1 X12.34 Y108.573 E30.18438
G1 X12.34 Y10.619 E35.03589
G1 X12.352 Y9.919 E35.07057
G1 X12.412 Y9.347 E35.09905
G1 X12.56 Y8.789 E35.12764
G1 X12.762 Y8.324 E35.15275
G1 X13.086 Y7.804 E35.1831
G1 F1680 E32.1831
;MESH:PiRTO_Cart-Base3D.stl
G0 F3600 X26.048 Y74.442
;TYPE:WALL-INNER
G1 F1680 E35.1831
G1 F1320 X25.459 Y74.382 E35.21242
G1 X24.773 Y74.123 E35.24874
G1 X24.274 Y73.712 E35.28076
G1 X23.879 Y73.228 E35.3117
G1 X23.653 Y72.642 E35.34281
G1 X23.555 Y72.031 E35.37346
G1 X23.619 Y71.455 E35.40216
G1 X23.877 Y70.774 E35.43823
G1 X24.338 Y70.213 E35.47419
G1 X24.779 Y69.884 E35.50144
G1 X25.293 Y69.668 E35.52906
G1 X25.963 Y69.56 E35.56267
G1 X26.551 Y69.623 E35.59196
G1 X27.22 Y69.875 E35.62737
G1 X27.673 Y70.23 E35.65587
G1 X28.129 Y70.793 E35.69176
G1 X28.364 Y71.36 E35.72215
G1 X28.448 Y72.003 E35.75427
G1 X28.371 Y72.587 E35.78345
G1 X28.136 Y73.198 E35.81587
G1 X27.671 Y73.776 E35.85261
G1 X27.177 Y74.139 E35.88297
G1 X26.677 Y74.34 E35.90966
G1 X26.048 Y74.442 E35.94122
G1 F1680 E32.94122
G0 F3600 X73.037 Y74.441
G1 F1680 E35.94122
G1 F1320 X72.452 Y74.378 E35.97037
G1 X71.797 Y74.131 E36.00504
G1 X71.33 Y73.779 E36.034
G1 X70.867 Y73.201 E36.07068
G1 X70.63 Y72.61 E36.10222
G1 X70.551 Y71.992 E36.13308
G1 X70.639 Y71.368 E36.16429
G1 X70.863 Y70.804 E36.19434
G1 X71.328 Y70.229 E36.23097
G1 X71.758 Y69.896 E36.25791
G1 X72.284 Y69.666 E36.28634
G1 X72.986 Y69.553 E36.32156
G1 X73.544 Y69.625 E36.34942
G1 X74.226 Y69.876 E36.38542
G1 X74.726 Y70.288 E36.41751
G1 X75.122 Y70.773 E36.44852
G1 X75.348 Y71.367 E36.47999
G1 X75.445 Y71.971 E36.51029
G1 X75.379 Y72.55 E36.53916
G1 X75.123 Y73.227 E36.575
G1 X74.661 Y73.787 E36.61096
G1 X74.221 Y74.116 E36.63817
G1 X73.707 Y74.332 E36.66579
G1 X73.037 Y74.441 E36.69941
G1 F1680 E33.69941
G0 F3600 X82.34 Y109.34
G1 F1680 E36.69941
G1 F1320 X82.34 Y10.66 E41.58688
G1 X16.66 Y10.66 E44.83991
G1 X16.661 Y109.339 E49.72733
G1 X82.34 Y109.34 E52.98031
G1 F1680 E49.98031
G0 F3600 X73.034 Y73.999
;TYPE:WALL-OUTER
G1 F1680 E52.98031
G1 F1320 X72.569 Y73.95 E53.00347
G1 X72.005 Y73.739 E53.0333
G1 X71.629 Y73.449 E53.05682
G1 X71.251 Y72.974 E53.08688
G1 X71.068 Y72.523 E53.11099
G1 X70.997 Y72.021 E53.1361
G1 X71.054 Y71.522 E53.16097
G1 X71.25 Y71.027 E53.18734
G1 X71.63 Y70.55 E53.21755
G1 X71.991 Y70.27 E53.24018
G1 X72.397 Y70.096 E53.26205
G1 X72.979 Y69.999 E53.29128
G1 X73.44 Y70.051 E53.31425
G1 X74.001 Y70.265 E53.34399
G1 X74.446 Y70.628 E53.37244
G1 X74.746 Y71.022 E53.39696
G1 X74.914 Y71.437 E53.41914
G1 X75.002 Y72 E53.44736
G1 X74.95 Y72.427 E53.46867
G1 X74.734 Y73.003 E53.49913
G1 X74.356 Y73.466 E53.52874
G1 X73.978 Y73.746 E53.55204
G1 X73.563 Y73.914 E53.57421
G1 X73.034 Y73.999 E53.60075
G1 F1680 E50.60075
G0 F3600 X26.034 Y73.999
G1 F1680 E53.60075
G1 F1320 X25.559 Y73.949 E53.6244
G1 X24.999 Y73.735 E53.6541
G1 X24.554 Y73.372 E53.68254
G1 X24.254 Y72.978 E53.70707
G1 X24.086 Y72.563 E53.72924
G1 X24.001 Y72.034 E53.75578
G1 X24.051 Y71.559 E53.77943
G1 X24.264 Y70.996 E53.80925
G1 X24.645 Y70.534 E53.83891
G1 X25.022 Y70.254 E53.86216
G1 X25.437 Y70.086 E53.88434
G1 X25.966 Y70.001 E53.91088
G1 X26.431 Y70.05 E53.93403
G1 X26.995 Y70.261 E53.96386
G1 X27.351 Y70.531 E53.98599
G1 X27.754 Y71.034 E54.01791
G1 X27.923 Y71.436 E54.03951
G1 X28.002 Y71.979 E54.06669
G1 X27.937 Y72.515 E54.09343
G1 X27.75 Y72.973 E54.11793
G1 X27.351 Y73.469 E54.14946
G1 X26.996 Y73.738 E54.17152
G1 X26.603 Y73.904 E54.19265
G1 X26.034 Y73.999 E54.22122
G1 F1680 E51.22122
G0 F3600 X82.78 Y10.22
G1 F1680 E54.22122
G1 F1320 X16.22 Y10.22 E57.51784
G1 X16.22 Y109.559 E62.43795
G1 X16.345 Y109.78 E62.45052
G1 X82.651 Y109.779 E65.73456
G1 X82.78 Y109.561 E65.74711
G1 X82.78 Y10.22 E70.66732
G1 F1680 E67.66732
G0 F3600 X82.139 Y11.202
;TYPE:SKIN
G1 F1680 E70.66732
G1 F1200 X81.796 Y10.859 E70.69134
G0 F3600 X81.174 Y10.859
G1 F1200 X82.139 Y11.824 E70.75894
G0 F3600 X82.139 Y12.447
G1 F1200 X80.552 Y10.859 E70.87013
G0 F3600 X79.929 Y10.859
G1 F1200 X82.139 Y13.069 E71.02493
G0 F3600 X82.139 Y13.691
G1 F1200 X79.307 Y10.859 E71.22329
G0 F3600 X78.685 Y10.859
G1 F1200 X82.139 Y14.313 E71.46522
G0 F3600 X82.139 Y14.936
G1 F1200 X78.063 Y10.859 E71.75076
G0 F3600 X77.44 Y10.859
G1 F1200 X82.139 Y15.558 E72.07989
G0 F3600 X82.139 Y16.18
G1 F1200 X76.818 Y10.859 E72.4526
G0 F3600 X76.196 Y10.859
G1 F1200 X82.139 Y16.802 E72.86887
G0 F3600 X82.139 Y17.425
G1 F1200 X75.574 Y10.859 E73.32874
G0 F3600 X74.951 Y10.859
G1 F1200 X82.139 Y18.047 E73.83222
G0 F3600 X82.139 Y18.669
G1 F1200 X74.329 Y10.859 E74.37926
G0 F3600 X73.707 Y10.859
G1 F1200 X82.139 Y19.291 E74.96987
G0 F3600 X82.139 Y19.914
G1 F1200 X73.085 Y10.859 E75.60408
G0 F3600 X72.462 Y10.859
G1 F1200 X82.139 Y20.536 E76.28189
G0 F3600 X82.139 Y21.158
G1 F1200 X71.84 Y10.859 E77.00328
G0 F3600 X71.218 Y10.859
G1 F1200 X82.139 Y21.781 E77.76826
G0 F3600 X82.139 Y22.403
G1 F1200 X70.596 Y10.859 E78.57681
G0 F3600 X69.973 Y10.859
G1 F1200 X82.139 Y23.025 E79.42897
G0 F3600 X82.139 Y23.647
G1 F1200 X69.351 Y10.859 E80.32469
G0 F3600 X68.729 Y10.859
G1 F1200 X82.139 Y24.27 E81.26401
G0 F3600 X82.139 Y24.892
G1 F1200 X68.107 Y10.859 E82.2469
G0 F3600 X67.484 Y10.859
G1 F1200 X82.139 Y25.514 E83.27339
G0 F3600 X82.139 Y26.136
G1 F1200 X66.862 Y10.859 E84.34345
G0 F3600 X66.24 Y10.859
G1 F1200 X82.139 Y26.759 E85.45712
G0 F3600 X82.139 Y27.381
G1 F1200 X65.618 Y10.859 E86.61435
G0 F3600 X64.995 Y10.859
G1 F1200 X82.139 Y28.003 E87.81518
G0 F3600 X82.139 Y28.625
G1 F1200 X64.373 Y10.859 E89.05958
G0 F3600 X63.751 Y10.859
G1 F1200 X82.139 Y29.248 E90.34758
G0 F3600 X82.139 Y29.87
G1 F1200 X63.129 Y10.859 E91.67915
G0 F3600 X62.506 Y10.859
G1 F1200 X82.139 Y30.492 E93.05432
G0 F3600 X82.139 Y31.114
G1 F1200 X61.884 Y10.859 E94.47306
G0 F3600 X61.262 Y10.859
G1 F1200 X82.139 Y31.737 E95.9354
G0 F3600 X82.139 Y32.359
G1 F1200 X60.64 Y10.859 E97.44131
G0 F3600 X60.017 Y10.859
G1 F1200 X82.139 Y32.981 E98.99082
G0 F3600 X82.139 Y33.603
G1 F1200 X59.395 Y10.859 E100.5839
G0 F3600 X58.773 Y10.859
G1 F1200 X82.139 Y34.226 E102.22058
G0 F3600 X82.139 Y34.848
G1 F1200 X58.151 Y10.859 E103.90082
G0 F3600 X57.528 Y10.859
G1 F1200 X82.139 Y35.47 E105.62467
G0 F3600 X82.139 Y36.092
G1 F1200 X56.906 Y10.859 E107.39209
G0 F3600 X56.284 Y10.859
G1 F1200 X82.139 Y36.715 E109.20311
G0 F3600 X82.139 Y37.337
G1 F1200 X55.662 Y10.859 E111.0577
G0 F3600 X55.039 Y10.859
G1 F1200 X82.139 Y37.959 E112.95589
G0 F3600 X82.139 Y38.581
G1 F1200 X54.417 Y10.859 E114.89764
G0 F3600 X53.795 Y10.859
G1 F1200 X82.139 Y39.204 E116.883
G0 F3600 X82.139 Y39.826
G1 F1200 X53.173 Y10.859 E118.91193
G0 F3600 X52.55 Y10.859
G1 F1200 X82.139 Y40.448 E120.98446
G0 F3600 X82.139 Y41.07
G1 F1200 X51.928 Y10.859 E123.10055
G0 F3600 X51.306 Y10.859
G1 F1200 X82.139 Y41.693 E125.26025
G0 F3600 X82.139 Y42.315
G1 F1200 X50.683 Y10.859 E127.46355
G0 F3600 X50.061 Y10.859
G1 F1200 X82.139 Y42.937 E129.71042
G0 F3600 X82.139 Y43.559
G1 F1200 X49.439 Y10.859 E132.00085
G0 F3600 X48.817 Y10.859
G1 F1200 X82.139 Y44.182 E134.33489
G0 F3600 X82.139 Y44.804
G1 F1200 X48.194 Y10.859 E136.71253
G0 F3600 X47.572 Y10.859
G1 F1200 X82.139 Y45.426 E139.13373
G0 F3600 X82.139 Y46.048
G1 F1200 X46.95 Y10.859 E141.59851
G0 F3600 X46.328 Y10.859
G1 F1200 X82.139 Y46.671 E144.10688
G0 F3600 X82.139 Y47.293
G1 F1200 X45.705 Y10.859 E146.65886
G0 F3600 X45.083 Y10.859
G1 F1200 X82.139 Y47.915 E149.25441
G0 F3600 X82.139 Y48.537
G1 F1200 X44.461 Y10.859 E151.89352
G0 F3600 X43.839 Y10.859
G1 F1200 X82.139 Y49.16 E154.57624
G0 F3600 X82.139 Y49.782
G1 F1200 X43.216 Y10.859 E157.30255
G0 F3600 X42.594 Y10.859
G1 F1200 X82.139 Y50.404 E160.07244
G0 F3600 X82.139 Y51.026
G1 F1200 X41.972 Y10.859 E162.88589
G0 F3600 X41.35 Y10.859
G1 F1200 X82.139 Y51.649 E165.74295
G0 F3600 X82.139 Y52.271
G1 F1200 X40.727 Y10.859 E168.6436
G0 F3600 X40.105 Y10.859
G1 F1200 X82.139 Y52.893 E171.58783
G0 F3600 X82.139 Y53.515
G1 F1200 X39.483 Y10.859 E174.57562
G0 F3600 X38.861 Y10.859
G1 F1200 X82.139 Y54.138 E177.60701
G0 F3600 X82.139 Y54.76
G1 F1200 X38.238 Y10.859 E180.68201
G0 F3600 X37.616 Y10.859
G1 F1200 X82.139 Y55.382 E183.80057
G0 F3600 X82.139 Y56.004
G1 F1200 X36.994 Y10.859 E186.9627
G0 F3600 X36.372 Y10.859
G1 F1200 X82.139 Y56.627 E190.16844
G0 F3600 X82.139 Y57.249
G1 F1200 X35.749 Y10.859 E193.41777
G0 F3600 X35.127 Y10.859
G1 F1200 X82.139 Y57.871 E196.71067
G0 F3600 X82.139 Y58.493
G1 F1200 X34.505 Y10.859 E200.04714
G0 F3600 X33.883 Y10.859
G1 F1200 X82.139 Y59.116 E203.42722
G0 F3600 X82.139 Y59.738
G1 F1200 X33.26 Y10.859 E206.85089
G0 F3600 X32.638 Y10.859
G1 F1200 X82.14 Y60.361 E210.3182
G0 F3600 X82.14 Y60.983
G1 F1200 X32.016 Y10.859 E213.82908
G0 F3600 X31.394 Y10.859
G1 F1200 X82.14 Y61.605 E217.38353
G0 F3600 X82.14 Y62.228
G1 F1200 X30.771 Y10.859 E220.98161
G0 F3600 X30.149 Y10.859
G1 F1200 X82.14 Y62.85 E224.62326
G0 F3600 X82.14 Y63.472
G1 F1200 X29.527 Y10.859 E228.30848
G0 F3600 X28.905 Y10.859
G1 F1200 X82.14 Y64.094 E232.03727
G0 F3600 X82.14 Y64.717
G1 F1200 X28.282 Y10.859 E235.80969
G0 F3600 X27.66 Y10.859
G1 F1200 X82.14 Y65.339 E239.62568
G0 F3600 X82.14 Y65.961
G1 F1200 X27.038 Y10.859 E243.48524
G0 F3600 X26.416 Y10.859
G1 F1200 X82.14 Y66.584 E247.3884
G0 F3600 X82.14 Y67.206
G1 F1200 X25.793 Y10.859 E251.33516
G0 F3600 X25.171 Y10.859
G1 F1200 X82.14 Y67.828 E255.32549
G0 F3600 X82.14 Y68.45
G1 F1200 X24.549 Y10.859 E259.35939
G0 F3600 X23.927 Y10.859
G1 F1200 X82.14 Y69.073 E263.43689
G0 F3600 X82.14 Y69.695
G1 F1200 X23.304 Y10.859 E267.55799
G0 F3600 X22.682 Y10.859
G1 F1200 X82.14 Y70.317 E271.72266
G0 F3600 X82.14 Y70.939
G1 F1200 X22.06 Y10.859 E275.93089
G0 F3600 X21.438 Y10.859
G1 F1200 X82.14 Y71.562 E280.18273
G0 F3600 X82.14 Y72.184
G1 F1200 X20.815 Y10.859 E284.47817
G0 F3600 X20.193 Y10.859
G1 F1200 X82.14 Y72.806 E288.81718
G0 F3600 X82.14 Y73.428
G1 F1200 X19.571 Y10.859 E293.19975
G0 F3600 X18.949 Y10.859
G1 F1200 X82.14 Y74.051 E297.62593
G0 F3600 X82.14 Y74.673
G1 F1200 X18.326 Y10.859 E302.09571
G0 F3600 X17.704 Y10.859
G1 F1200 X82.14 Y75.295 E306.60906
G0 F3600 X82.14 Y75.917
G1 F1200 X17.082 Y10.859 E311.16597
G0 F3600 X16.858 Y11.258
G1 F1200 X82.14 Y76.54 E315.73858
G0 F3600 X82.14 Y77.162
G1 F1200 X16.858 Y11.88 E320.31118
G0 F3600 X16.858 Y12.503
G1 F1200 X73.894 Y69.538 E324.30617
G1 F1680 E321.30617
G0 F3600 X73.099 Y69.366
G1 F1680 E324.30617
G1 F1200 X16.858 Y13.125 E328.24551
G0 F3600 X16.858 Y13.747
G1 F1200 X72.535 Y69.423 E332.1453
G0 F3600 X72.042 Y69.553
G1 F1200 X16.858 Y14.369 E336.01061
G0 F3600 X16.858 Y14.992
G1 F1200 X71.62 Y69.753 E339.84631
G0 F3600 X71.262 Y70.018
G1 F1200 X16.858 Y15.614 E343.65698
G0 F3600 X16.858 Y16.236
G1 F1200 X70.972 Y70.35 E347.44733
G0 F3600 X70.694 Y70.694
G1 F1200 X16.858 Y16.858 E351.21822
G0 F3600 X16.858 Y17.481
G1 F1200 X70.514 Y71.137 E354.97649
G0 F3600 X70.395 Y71.639
G1 F1200 X16.858 Y18.103 E358.72639
G0 F3600 X16.858 Y18.725
G1 F1200 X70.381 Y72.248 E362.47535
G1 X70.451 Y72.318
G1 F1680 E359.47535
G0 F3600 X70.613 Y73.102
G1 F1680 E362.47535
G1 F1200 X16.858 Y19.347 E366.24056
G0 F3600 X16.858 Y19.97
G1 F1200 X82.14 Y85.251 E370.81313
G0 F3600 X82.14 Y85.873
G1 F1200 X16.858 Y20.592 E375.3857
G0 F3600 X16.858 Y21.214
G1 F1200 X82.14 Y86.496 E379.9583
G0 F3600 X82.14 Y87.118
G1 F1200 X16.858 Y21.836 E384.53091
G0 F3600 X16.858 Y22.459
G1 F1200 X82.14 Y87.74 E389.10348
G0 F3600 X82.14 Y88.362
G1 F1200 X16.858 Y23.081 E393.67605
G0 F3600 X16.858 Y23.703
G1 F1200 X82.14 Y88.985 E398.24865
G0 F3600 X82.14 Y89.607
G1 F1200 X16.858 Y24.325 E402.82125
G0 F3600 X16.858 Y24.948
G1 F1200 X82.14 Y90.229 E407.39382
G0 F3600 X82.14 Y90.851
G1 F1200 X16.858 Y25.57 E411.96639
G0 F3600 X16.858 Y26.192
G1 F1200 X82.14 Y91.474 E416.539
G0 F3600 X82.14 Y92.096
G1 F1200 X16.858 Y26.814 E421.1116
G0 F3600 X16.858 Y27.437
G1 F1200 X82.14 Y92.718 E425.68417
G0 F3600 X82.14 Y93.34
G1 F1200 X16.858 Y28.059 E430.25674
G0 F3600 X16.858 Y28.681
G1 F1200 X82.14 Y93.963 E434.82934
G0 F3600 X82.14 Y94.585
G1 F1200 X16.858 Y29.303 E439.40195
G0 F3600 X16.858 Y29.926
G1 F1200 X82.14 Y95.207 E443.97452
G0 F3600 X82.14 Y95.829
G1 F1200 X16.858 Y30.548 E448.54709
G0 F3600 X16.858 Y31.17
G1 F1200 X82.14 Y96.452 E453.11969
G0 F3600 X82.14 Y97.074
