;FilamentType:PLA
;MachineType:ENTINA TINA2
;Extruder0Temperature:200
;BedTemperature:40
;InfillDensity:60
;FLAVOR:Marlin
;TIME:7381
;FilamentUsed: 5530.91
;Layer height: 0.15
;MINX:15.201
;MINY:11.656
;MINZ:0.3
;MAXX:84.799
;MAXY:108.317
;MAXZ:9
;Generated with Cura_SteamEngine 4.10.0
M82 ;absolute extrusion mode
;(**** start.gcode for TINA2****)
M104 S150
G28 Z
G28 X Y; Home extruder
G1 X55 Y55 F1000
G1 Z10 F200
G29
G1 Z15 F100
M107 ; Turn off fan
G90 ; Absolute positioning
M82 ; Extruder in absolute mode
M109 S215
G92 E0 ; Reset extruder position
G1 X90 Y6 Z0.27 F2000
G1 X20 Y6 Z0.27 E15 F1000 
G92 E0 ; Reset extruder position

M203 Z5
G92 E0
G92 E0
G1 F2100 E-3
;LAYER_COUNT:59
;LAYER:0
M107
G0 F3600 X15.242 Y91.217 Z0.3
;TYPE:SUPPORT
G1 F2100 E0
G1 F1320 X15.228 Y91.654 E0.02072
G1 X15.202 Y91.449 E0.03052
G1 X15.242 Y91.217 E0.04167
G0 F3600 X15.242 Y95.214
G1 F1320 X15.228 Y95.654 E0.06254
G1 X15.202 Y95.444 E0.07257
G1 X15.242 Y95.214 E0.08363
G0 F3600 X15.242 Y99.214
G1 F1320 X15.228 Y99.653 E0.10445
G1 X15.202 Y99.444 E0.11443
G1 X15.242 Y99.214 E0.1255
G0 F3600 X15.242 Y103.214
G1 F1320 X15.228 Y103.652 E0.14627
G1 X15.202 Y103.454 E0.15573
G1 X15.242 Y103.214 E0.16726
G1 F2100 E-2.83274
G0 F3600 X15.481 Y105.481
G0 X15.985 Y105.985
G0 X84.014 Y105.984
G0 X84.518 Y105.48
G0 X84.757 Y103.299
G1 F2100 E0.16726
G1 F1320 X84.796 Y103.519 E0.17785
G1 X84.757 Y103.635 E0.18365
G1 X84.757 Y103.299 E0.19958
G0 F3600 X84.757 Y99.694
G1 F1320 X84.757 Y99.217 E0.22219
G1 X84.798 Y99.465 E0.2341
G1 X84.757 Y99.694 E0.24513
G0 F3600 X84.757 Y95.695
G1 F1320 X84.757 Y95.217 E0.26778
G1 X84.798 Y95.462 E0.27955
G1 X84.757 Y95.695 E0.29077
G0 F3600 X84.757 Y91.695
G1 F1320 X84.757 Y91.215 E0.31352
G1 X84.798 Y91.462 E0.32538
G1 X84.757 Y91.695 E0.3366
G1 F2100 E-2.6634
;MESH:PiRTO_Cart-Top3D.stl
G0 F3600 X83.238 Y91.693
G0 X16.942 Y104.623
G0 X16.942 Y104.724
;TYPE:WALL-INNER
G1 F2100 E0.3366
G1 F1320 X16.742 Y104.724 E0.34608
G1 X16.742 Y104.524 E0.35221
G1 X16.742 Y12.056 E4.7348
G1 X83.058 Y12.056 E7.87789
G1 X83.258 Y12.056 E7.88737
G1 X83.258 Y12.256 E7.89351
G1 X83.257 Y104.723 E12.27605
G1 X16.942 Y104.724 E15.41909
G0 F3600 X16.542 Y105.124
;TYPE:WALL-OUTER
G1 F1320 X16.342 Y105.124 E15.42857
G1 X16.342 Y104.924 E15.43471
G1 X16.342 Y11.656 E19.85521
G1 X83.458 Y11.656 E23.03622
G1 X83.658 Y11.656 E23.0457
G1 X83.658 Y11.856 E23.05184
G1 X83.657 Y105.123 E27.47229
G1 X16.542 Y105.124 E30.65325
G0 F3600 X16.342 Y105.124
G0 X16.812 Y104.654
G0 X17.132 Y104.334
;TYPE:SKIN
G1 F1320 X17.132 Y12.446 E35.00835
G1 X82.868 Y12.446 E38.12395
G1 X82.867 Y104.333 E42.479
G1 X17.132 Y104.334 E45.59455
G0 F3600 X17.602 Y104.152
G1 F1320 X17.311 Y103.861 E45.61406
G0 F3600 X17.311 Y103.295
G1 F1320 X18.168 Y104.152 E45.6715
G0 F3600 X18.734 Y104.152
G1 F1320 X17.311 Y102.729 E45.76688
G0 F3600 X17.311 Y102.164
G1 F1320 X19.299 Y104.152 E45.90013
G0 F3600 X19.865 Y104.152
G1 F1320 X17.311 Y101.598 E46.07132
G0 F3600 X17.311 Y101.032
G1 F1320 X20.431 Y104.152 E46.28045
G0 F3600 X20.996 Y104.152
G1 F1320 X17.311 Y100.467 E46.52744
G0 F3600 X17.311 Y99.901
G1 F1320 X21.562 Y104.152 E46.81238
G0 F3600 X22.128 Y104.152
G1 F1320 X17.311 Y99.335 E47.13525
G0 F3600 X17.311 Y98.77
G1 F1320 X22.693 Y104.152 E47.49599
G0 F3600 X23.259 Y104.152
G1 F1320 X17.311 Y98.204 E47.89467
G0 F3600 X17.311 Y97.638
G1 F1320 X23.825 Y104.152 E48.33129
G0 F3600 X24.39 Y104.152
G1 F1320 X17.311 Y97.073 E48.80578
G0 F3600 X17.311 Y96.507
G1 F1320 X24.956 Y104.152 E49.31821
G0 F3600 X25.522 Y104.152
G1 F1320 X17.311 Y95.941 E49.86857
G0 F3600 X17.311 Y95.375
G1 F1320 X26.087 Y104.152 E50.45684
G0 F3600 X26.653 Y104.152
G1 F1320 X17.311 Y94.81 E51.08301
G0 F3600 X17.311 Y94.244
G1 F1320 X27.219 Y104.152 E51.74712
G0 F3600 X27.785 Y104.152
G1 F1320 X17.311 Y93.678 E52.44917
G0 F3600 X17.311 Y93.113
G1 F1320 X28.35 Y104.152 E53.18909
G0 F3600 X28.916 Y104.152
G1 F1320 X17.311 Y92.547 E53.96694
G0 F3600 X17.311 Y91.981
G1 F1320 X29.482 Y104.152 E54.78274
G0 F3600 X30.047 Y104.152
G1 F1320 X17.311 Y91.416 E55.6364
G0 F3600 X17.311 Y90.85
G1 F1320 X30.613 Y104.152 E56.528
G0 F3600 X31.179 Y104.152
G1 F1320 X17.311 Y90.284 E57.45754
G0 F3600 X17.311 Y89.719
G1 F1320 X31.744 Y104.152 E58.42495
G0 F3600 X32.31 Y104.152
G1 F1320 X17.311 Y89.153 E59.4303
G0 F3600 X17.311 Y88.587
G1 F1320 X32.876 Y104.152 E60.47358
G0 F3600 X33.441 Y104.152
G1 F1320 X17.311 Y88.022 E61.55474
G0 F3600 X17.311 Y87.456
G1 F1320 X34.007 Y104.152 E62.67383
G0 F3600 X34.573 Y104.152
G1 F1320 X17.311 Y86.89 E63.83086
G0 F3600 X17.311 Y86.325
G1 F1320 X35.138 Y104.152 E65.02576
G0 F3600 X35.704 Y104.152
G1 F1320 X17.311 Y85.759 E66.2586
G0 F3600 X17.311 Y85.193
G1 F1320 X36.27 Y104.152 E67.52938
G0 F3600 X36.836 Y104.152
G1 F1320 X17.311 Y84.627 E68.83809
G0 F3600 X17.311 Y84.062
G1 F1320 X37.401 Y104.152 E70.18468
G0 F3600 X37.967 Y104.152
G1 F1320 X17.311 Y83.496 E71.5692
G0 F3600 X17.311 Y82.93
G1 F1320 X38.533 Y104.152 E72.99166
G0 F3600 X39.098 Y104.152
G1 F1320 X17.311 Y82.365 E74.45199
G0 F3600 X17.311 Y81.799
G1 F1320 X39.664 Y104.152 E75.95026
G0 F3600 X40.23 Y104.152
G1 F1320 X17.311 Y81.233 E77.48647
G0 F3600 X17.311 Y80.668
G1 F1320 X40.795 Y104.152 E79.06055
G0 F3600 X41.361 Y104.152
G1 F1320 X17.311 Y80.102 E80.67256
G0 F3600 X17.311 Y79.536
G1 F1320 X41.927 Y104.152 E82.32251
G0 F3600 X42.492 Y104.152
G1 F1320 X17.311 Y78.971 E84.01034
G0 F3600 X17.311 Y78.405
G1 F1320 X43.058 Y104.152 E85.7361
G0 F3600 X43.624 Y104.152
G1 F1320 X17.311 Y77.839 E87.49979
G0 F3600 X17.311 Y77.274
G1 F1320 X44.189 Y104.152 E89.30136
G0 F3600 X44.755 Y104.152
G1 F1320 X17.311 Y76.708 E91.14087
G0 F3600 X17.311 Y76.142
G1 F1320 X45.321 Y104.152 E93.01831
G0 F3600 X45.886 Y104.152
G1 F1320 X17.311 Y75.576 E94.93366
G0 F3600 X17.311 Y75.011
G1 F1320 X46.452 Y104.152 E96.88691
G0 F3600 X47.018 Y104.152
G1 F1320 X17.311 Y74.445 E98.8781
G0 F3600 X17.311 Y73.879
G1 F1320 X47.584 Y104.152 E100.90723
G0 F3600 X48.149 Y104.152
G1 F1320 X17.311 Y73.314 E102.97423
G0 F3600 X17.311 Y72.748
G1 F1320 X48.715 Y104.152 E105.07916
G0 F3600 X49.281 Y104.152
G1 F1320 X17.311 Y72.182 E107.22204
G0 F3600 X17.311 Y71.617
G1 F1320 X49.846 Y104.152 E109.40278
G0 F3600 X50.411 Y104.151
G1 F1320 X17.311 Y71.051 E111.6214
G0 F3600 X17.311 Y70.485
G1 F1320 X50.977 Y104.151 E113.87795
G0 F3600 X51.543 Y104.151
G1 F1320 X17.311 Y69.92 E116.1724
G0 F3600 X17.311 Y69.354
G1 F1320 X52.108 Y104.151 E118.50476
G0 F3600 X52.674 Y104.151
G1 F1320 X17.311 Y68.788 E120.87506
G0 F3600 X17.311 Y68.223
G1 F1320 X53.24 Y104.151 E123.28327
G0 F3600 X53.805 Y104.151
G1 F1320 X17.311 Y67.657 E125.72937
G0 F3600 X17.311 Y67.091
G1 F1320 X54.371 Y104.151 E128.21342
G0 F3600 X54.937 Y104.151
G1 F1320 X17.311 Y66.526 E130.73536
G0 F3600 X17.311 Y65.96
G1 F1320 X55.502 Y104.151 E133.29522
G0 F3600 X56.068 Y104.151
G1 F1320 X17.311 Y65.394 E135.89301
G0 F3600 X17.311 Y64.828
G1 F1320 X56.634 Y104.151 E138.52873
G0 F3600 X57.199 Y104.151
G1 F1320 X17.311 Y64.263 E141.20233
G0 F3600 X17.311 Y63.697
G1 F1320 X57.765 Y104.151 E143.91387
G0 F3600 X58.331 Y104.151
G1 F1320 X17.311 Y63.131 E146.66334
G0 F3600 X17.311 Y62.566
G1 F1320 X58.897 Y104.151 E149.45072
G0 F3600 X59.462 Y104.151
G1 F1320 X17.311 Y62 E152.276
G0 F3600 X17.311 Y61.434
G1 F1320 X60.028 Y104.151 E155.13922
G0 F3600 X60.594 Y104.151
G1 F1320 X17.311 Y60.869 E158.04034
G0 F3600 X17.311 Y60.303
G1 F1320 X61.159 Y104.151 E160.97937
G0 F3600 X61.725 Y104.151
G1 F1320 X17.311 Y59.737 E163.95634
G0 F3600 X17.311 Y59.172
G1 F1320 X62.291 Y104.151 E166.9712
G0 F3600 X62.856 Y104.151
G1 F1320 X17.311 Y58.606 E170.02398
G0 F3600 X17.311 Y58.04
G1 F1320 X63.422 Y104.151 E173.11469
G0 F3600 X63.988 Y104.151
G1 F1320 X17.311 Y57.475 E176.2433
G0 F3600 X17.311 Y56.909
G1 F1320 X64.553 Y104.151 E179.40982
G0 F3600 X65.119 Y104.151
G1 F1320 X17.311 Y56.343 E182.61428
G0 F3600 X17.311 Y55.777
G1 F1320 X65.685 Y104.151 E185.85668
G0 F3600 X66.25 Y104.151
G1 F1320 X17.311 Y55.212 E189.13694
G0 F3600 X17.311 Y54.646
G1 F1320 X66.816 Y104.151 E192.45514
G0 F3600 X67.382 Y104.151
G1 F1320 X17.311 Y54.08 E195.81128
G0 F3600 X17.311 Y53.515
G1 F1320 X67.948 Y104.151 E199.20533
G0 F3600 X68.513 Y104.151
G1 F1320 X17.311 Y52.949 E202.63728
G0 F3600 X17.311 Y52.383
G1 F1320 X69.079 Y104.151 E206.10716
G0 F3600 X69.645 Y104.151
G1 F1320 X17.311 Y51.818 E209.61495
G0 F3600 X17.311 Y51.252
G1 F1320 X70.21 Y104.151 E213.16065
G0 F3600 X70.776 Y104.151
G1 F1320 X17.311 Y50.686 E216.74428
G0 F3600 X17.311 Y50.121
G1 F1320 X71.342 Y104.151 E220.36582
G0 F3600 X71.907 Y104.151
G1 F1320 X17.311 Y49.555 E224.02526
G0 F3600 X17.311 Y48.989
G1 F1320 X72.473 Y104.151 E227.72264
G0 F3600 X73.039 Y104.151
G1 F1320 X17.311 Y48.424 E231.45792
G0 F3600 X17.311 Y47.858
G1 F1320 X73.604 Y104.151 E235.23111
G0 F3600 X74.17 Y104.151
G1 F1320 X17.311 Y47.292 E239.04223
G0 F3600 X17.311 Y46.727
G1 F1320 X74.736 Y104.151 E242.89126
G0 F3600 X75.301 Y104.151
G1 F1320 X17.311 Y46.161 E246.77819
G0 F3600 X17.311 Y45.595
G1 F1320 X75.867 Y104.151 E250.70306
G0 F3600 X76.433 Y104.151
G1 F1320 X17.311 Y45.029 E254.66587
G0 F3600 X17.311 Y44.464
G1 F1320 X76.998 Y104.151 E258.66655
G0 F3600 X77.564 Y104.151
G1 F1320 X17.311 Y43.898 E262.70516
G0 F3600 X17.311 Y43.332
G1 F1320 X78.13 Y104.151 E266.78172
G0 F3600 X78.696 Y104.151
G1 F1320 X17.311 Y42.767 E270.89617
G0 F3600 X17.311 Y42.201
G1 F1320 X79.261 Y104.151 E275.04853
G0 F3600 X79.827 Y104.151
G1 F1320 X17.311 Y41.635 E279.23883
G0 F3600 X17.311 Y41.07
G1 F1320 X80.393 Y104.151 E283.46704
G0 F3600 X80.958 Y104.151
G1 F1320 X17.311 Y40.504 E287.73315
G0 F3600 X17.311 Y39.938
G1 F1320 X81.524 Y104.151 E292.03719
G0 F3600 X82.09 Y104.151
G1 F1320 X17.311 Y39.373 E296.37914
G0 F3600 X17.311 Y38.807
G1 F1320 X82.655 Y104.151 E300.75899
G0 F3600 X82.687 Y103.618
G1 F1320 X17.311 Y38.241 E305.14103
G0 F3600 X17.311 Y37.676
G1 F1320 X82.687 Y103.052 E309.52302
G0 F3600 X82.687 Y102.486
G1 F1320 X17.311 Y37.11 E313.90502
G0 F3600 X17.311 Y36.544
G1 F1320 X82.687 Y101.92 E318.28702
G0 F3600 X82.687 Y101.355
G1 F1320 X17.311 Y35.979 E322.66902
G0 F3600 X17.311 Y35.413
G1 F1320 X82.687 Y100.789 E327.05102
G0 F3600 X82.687 Y100.223
G1 F1320 X17.311 Y34.847 E331.43302
G0 F3600 X17.311 Y34.281
G1 F1320 X82.687 Y99.658 E335.81505
G0 F3600 X82.687 Y99.092
G1 F1320 X17.311 Y33.716 E340.19705
G0 F3600 X17.311 Y33.15
G1 F1320 X82.687 Y98.526 E344.57904
G0 F3600 X82.687 Y97.961
G1 F1320 X17.311 Y32.584 E348.96108
G0 F3600 X17.311 Y32.019
G1 F1320 X82.687 Y97.395 E353.34307
G0 F3600 X82.687 Y96.829
G1 F1320 X17.311 Y31.453 E357.72507
G0 F3600 X17.311 Y30.887
G1 F1320 X82.687 Y96.264 E362.10711
G0 F3600 X82.687 Y95.698
G1 F1320 X17.311 Y30.322 E366.4891
G0 F3600 X17.311 Y29.756
G1 F1320 X82.687 Y95.132 E370.8711
G0 F3600 X82.687 Y94.567
G1 F1320 X17.311 Y29.19 E375.25313
G0 F3600 X17.311 Y28.625
G1 F1320 X82.687 Y94.001 E379.63513
G0 F3600 X82.687 Y93.435
G1 F1320 X17.311 Y28.059 E384.01713
G0 F3600 X17.311 Y27.493
G1 F1320 X82.687 Y92.869 E388.39913
G0 F3600 X82.687 Y92.304
G1 F1320 X17.311 Y26.928 E392.78113
G0 F3600 X17.311 Y26.362
G1 F1320 X82.687 Y91.738 E397.16313
G0 F3600 X82.687 Y91.172
G1 F1320 X17.311 Y25.796 E401.54512
G0 F3600 X17.311 Y25.23
G1 F1320 X82.687 Y90.607 E405.92716
G0 F3600 X82.687 Y90.041
G1 F1320 X17.311 Y24.665 E410.30915
G0 F3600 X17.311 Y24.099
G1 F1320 X82.687 Y89.475 E414.69115
G0 F3600 X82.687 Y88.91
G1 F1320 X17.311 Y23.533 E419.07318
G0 F3600 X17.311 Y22.968
G1 F1320 X82.687 Y88.344 E423.45518
G0 F3600 X82.687 Y87.778
G1 F1320 X17.311 Y22.402 E427.83718
G0 F3600 X17.311 Y21.836
G1 F1320 X82.687 Y87.213 E432.21921
G0 F3600 X82.687 Y86.647
G1 F1320 X17.311 Y21.271 E436.60121
G0 F3600 X17.311 Y20.705
G1 F1320 X82.687 Y86.081 E440.98321
G0 F3600 X82.687 Y85.516
G1 F1320 X17.311 Y20.139 E445.36524
G0 F3600 X17.311 Y19.574
G1 F1320 X82.687 Y84.95 E449.74724
G0 F3600 X82.687 Y84.384
G1 F1320 X17.311 Y19.008 E454.12924
G0 F3600 X17.311 Y18.442
G1 F1320 X82.687 Y83.819 E458.51127
G0 F3600 X82.687 Y83.253
G1 F1320 X17.311 Y17.877 E462.89327
G0 F3600 X17.311 Y17.311
G1 F1320 X82.687 Y82.687 E467.27527
G0 F3600 X82.687 Y82.121
G1 F1320 X17.311 Y16.745 E471.65727
G0 F3600 X17.311 Y16.18
G1 F1320 X82.687 Y81.556 E476.03926
G0 F3600 X82.687 Y80.99
G1 F1320 X17.311 Y15.614 E480.42126
G0 F3600 X17.311 Y15.048
G1 F1320 X82.687 Y80.424 E484.80326
G0 F3600 X82.687 Y79.859
G1 F1320 X17.311 Y14.482 E489.18529
G0 F3600 X17.311 Y13.917
G1 F1320 X82.687 Y79.293 E493.56729
G0 F3600 X82.687 Y78.727
G1 F1320 X17.311 Y13.351 E497.94929
G0 F3600 X17.311 Y12.785
G1 F1320 X82.687 Y78.162 E502.33132
G0 F3600 X82.687 Y77.596
G1 F1320 X17.717 Y12.626 E506.68611
G0 F3600 X18.282 Y12.626
G1 F1320 X82.687 Y77.03 E511.00299
G0 F3600 X82.687 Y76.465
G1 F1320 X18.848 Y12.626 E515.28197
G0 F3600 X19.414 Y12.626
G1 F1320 X82.687 Y75.899 E519.523
G0 F3600 X82.687 Y75.333
G1 F1320 X19.98 Y12.626 E523.72611
G0 F3600 X20.545 Y12.626
G1 F1320 X82.687 Y74.768 E527.89134
G0 F3600 X82.687 Y74.202
G1 F1320 X21.111 Y12.626 E532.01863
G0 F3600 X21.677 Y12.626
G1 F1320 X82.687 Y73.636 E536.10799
G0 F3600 X82.687 Y73.071
G1 F1320 X22.242 Y12.626 E540.15947
G0 F3600 X22.808 Y12.626
G1 F1320 X82.687 Y72.505 E544.17302
G0 F3600 X82.687 Y71.939
G1 F1320 X23.374 Y12.626 E548.14863
G0 F3600 X23.939 Y12.626
G1 F1320 X82.687 Y71.373 E552.08633
G0 F3600 X82.687 Y70.808
G1 F1320 X24.505 Y12.626 E555.98614
G0 F3600 X25.071 Y12.626
G1 F1320 X82.687 Y70.242 E559.848
G0 F3600 X82.687 Y69.676
G1 F1320 X25.636 Y12.626 E563.67196
G0 F3600 X26.202 Y12.626
G1 F1320 X82.687 Y69.111 E567.45802
G0 F3600 X82.687 Y68.545
G1 F1320 X26.768 Y12.626 E571.20613
G0 F3600 X27.333 Y12.626
G1 F1320 X82.687 Y67.979 E574.91635
G0 F3600 X82.687 Y67.414
G1 F1320 X27.899 Y12.626 E578.58866
G0 F3600 X28.465 Y12.626
G1 F1320 X82.687 Y66.848 E582.22303
G0 F3600 X82.687 Y66.282
G1 F1320 X29.03 Y12.626 E585.8195
G0 F3600 X29.596 Y12.626
G1 F1320 X82.687 Y65.717 E589.37806
G0 F3600 X82.687 Y65.151
G1 F1320 X30.162 Y12.626 E592.89869
G0 F3600 X30.728 Y12.626
G1 F1320 X82.687 Y64.585 E596.38138
G0 F3600 X82.687 Y64.02
G1 F1320 X31.293 Y12.626 E599.8262
G0 F3600 X31.859 Y12.626
G1 F1320 X82.687 Y63.454 E603.23308
G0 F3600 X82.687 Y62.888
G1 F1320 X32.425 Y12.626 E606.60202
G0 F3600 X32.99 Y12.626
G1 F1320 X82.687 Y62.322 E609.93306
G0 F3600 X82.687 Y61.757
G1 F1320 X33.556 Y12.626 E613.22619
G0 F3600 X34.122 Y12.626
G1 F1320 X82.687 Y61.191 E616.48139
G0 F3600 X82.687 Y60.625
G1 F1320 X34.687 Y12.626 E619.69868
G0 F3600 X35.253 Y12.626
G1 F1320 X82.687 Y60.06 E622.87807
G0 F3600 X82.687 Y59.494
G1 F1320 X35.819 Y12.626 E626.01952
G0 F3600 X36.384 Y12.626
G1 F1320 X82.687 Y58.928 E629.12307
G0 F3600 X82.687 Y58.363
G1 F1320 X36.95 Y12.626 E632.18871
G0 F3600 X37.516 Y12.626
G1 F1320 X82.687 Y57.797 E635.21642
G0 F3600 X82.687 Y57.231
G1 F1320 X38.081 Y12.626 E638.20622
G0 F3600 X38.647 Y12.626
G1 F1320 X82.687 Y56.666 E641.15811
G0 F3600 X82.687 Y56.1
G1 F1320 X39.213 Y12.626 E644.07207
G0 F3600 X39.778 Y12.626
G1 F1320 X82.687 Y55.534 E646.94813
G0 F3600 X82.687 Y54.969
G1 F1320 X40.344 Y12.626 E649.78628
G0 F3600 X40.91 Y12.626
G1 F1320 X82.687 Y54.403 E652.58649
G0 F3600 X82.687 Y53.837
G1 F1320 X41.476 Y12.626 E655.34877
G0 F3600 X42.041 Y12.626
G1 F1320 X82.687 Y53.272 E658.07317
G0 F3600 X82.687 Y52.706
G1 F1320 X42.607 Y12.626 E660.75964
G0 F3600 X43.173 Y12.626
G1 F1320 X82.687 Y52.14 E663.40817
G0 F3600 X82.687 Y51.574
G1 F1320 X43.738 Y12.626 E666.0188
G0 F3600 X44.304 Y12.626
G1 F1320 X82.687 Y51.009 E668.59152
