;FLAVOR:Marlin
;TIME:10993
;Filament used: 5.49786m
;Layer height: 0.15
;MINX:12.84
;MINY:8.84
;MINZ:0.3
;MAXX:87.16
;MAXY:111.16
;MAXZ:9
;Generated with Cura_SteamEngine 5.3.0
M82 ;absolute extrusion mode
;MachineType:ENTINA TINA2
;FilamentType:PLA
;InfillDensity:30
;Extruder0Temperature:200

;(**** start.gcode for tina2****)
M203 Z15
M104 S150
G28 Z
G28 X Y; Home extruder
G1 X55 Y55 F1000
G29
M107 ; Turn off fan
G90 ; Absolute positioning
M82 ; Extruder in absolute mode
M109 S210
G92 E0 ; Reset extruder position
G1 X90 Y6 Z0.27 F2000
G1 X20 Y6 Z0.27 E15 F1000
G92 E0 ; Reset extruder position
M203 Z5
G92 E0
G92 E0
G1 F1680 E-3
;LAYER_COUNT:59
;LAYER:0
M107
G0 F3600 X13.934 Y10.576 Z0.3
;TYPE:SKIRT
G1 F1680 E0
G1 F1560 X14.27 Y10.196 E0.02512
G1 X14.661 Y9.873 E0.05024
G1 X15.098 Y9.616 E0.07535
G1 X15.57 Y9.43 E0.10048
G1 X16.065 Y9.321 E0.12558
G1 X16.523 Y9.282 E0.14835
G1 X82.839 Y9.28 E3.43288
G1 X83.537 Y9.29 E3.46745
G1 X84.042 Y9.338 E3.49258
G1 X84.533 Y9.463 E3.51767
G1 X84.999 Y9.665 E3.54283
G1 X85.427 Y9.937 E3.56795
G1 X85.807 Y10.273 E3.59307
G1 X86.129 Y10.664 E3.61816
G1 X86.386 Y11.101 E3.64327
G1 X86.572 Y11.573 E3.66839
G1 X86.681 Y12.069 E3.69354
G1 X86.719 Y12.526 E3.71626
G1 X86.72 Y106.541 E8.37268
G1 X86.711 Y107.235 E8.40706
G1 X86.664 Y107.74 E8.43218
G1 X86.493 Y108.401 E8.46599
G1 X86.224 Y109.014 E8.49915
G1 X85.949 Y109.44 E8.52426
G1 X85.611 Y109.818 E8.54938
G1 X85.217 Y110.138 E8.57451
G1 X84.779 Y110.392 E8.59959
G1 X84.305 Y110.575 E8.62476
G1 X83.696 Y110.704 E8.65559
G1 X82.676 Y110.72 E8.70611
G1 X17.163 Y110.72 E11.95088
G1 X16.465 Y110.71 E11.98545
G1 X15.96 Y110.662 E12.01057
G1 X15.469 Y110.537 E12.03567
G1 X15.003 Y110.335 E12.06082
G1 X14.575 Y110.063 E12.08594
G1 X14.195 Y109.727 E12.11106
G1 X13.873 Y109.336 E12.13615
G1 X13.616 Y108.899 E12.16126
G1 X13.43 Y108.427 E12.18639
G1 X13.321 Y107.931 E12.21154
G1 X13.282 Y107.451 E12.23539
G1 X13.28 Y13.13 E16.90697
G1 X13.289 Y12.466 E16.93986
G1 X13.336 Y11.961 E16.96498
G1 X13.462 Y11.47 E16.99009
G1 X13.663 Y11.004 E17.01522
G1 X13.934 Y10.576 E17.04031
G0 F3600 X13.604 Y10.285
G1 F1560 X13.94 Y9.905 E17.06543
G1 X14.381 Y9.534 E17.09398
G1 X14.903 Y9.22 E17.12415
G1 X15.475 Y9 E17.1545
G1 X15.97 Y8.891 E17.17961
G1 X16.523 Y8.842 E17.2071
G1 X82.845 Y8.84 E20.49193
G1 X83.579 Y8.852 E20.52829
G1 X84.084 Y8.9 E20.55342
G1 X84.677 Y9.046 E20.58366
G1 X85.174 Y9.261 E20.61048
G1 X85.694 Y9.585 E20.64083
G1 X86.147 Y9.993 E20.67102
G1 X86.469 Y10.384 E20.69611
G1 X86.782 Y10.907 E20.7263
G1 X87.002 Y11.479 E20.75665
G1 X87.111 Y11.975 E20.7818
G1 X87.159 Y12.526 E20.8092
G1 X87.16 Y106.547 E25.46592
G1 X87.151 Y107.241 E25.50029
G1 X87.099 Y107.817 E25.52894
G1 X86.896 Y108.578 E25.56795
G1 X86.594 Y109.253 E25.60457
G1 X86.319 Y109.679 E25.62969
G1 X85.914 Y110.139 E25.66004
G1 X85.438 Y110.519 E25.69021
G1 X85 Y110.773 E25.71528
G1 X84.431 Y110.998 E25.74559
G1 X83.743 Y111.143 E25.78041
G1 X82.683 Y111.16 E25.83292
G1 X17.157 Y111.16 E29.07832
G1 X16.423 Y111.148 E29.11468
G1 X15.918 Y111.1 E29.13981
G1 X15.325 Y110.954 E29.17006
G1 X14.828 Y110.739 E29.19688
G1 X14.308 Y110.415 E29.22722
G1 X13.855 Y110.007 E29.25742
G1 X13.533 Y109.616 E29.2825
G1 X13.22 Y109.093 E29.31269
G1 X13 Y108.521 E29.34304
G1 X12.882 Y107.967 E29.3711
G1 X12.843 Y107.487 E29.39495
G1 X12.84 Y13.124 E34.06861
G1 X12.849 Y12.46 E34.1015
G1 X12.901 Y11.885 E34.13009
G1 X13.058 Y11.296 E34.16028
G1 X13.291 Y10.769 E34.18882
G1 X13.604 Y10.285 E34.21737
G1 F1680 E31.21737
;MESH:PiRTO_Cart-Base3D.stl
G0 F3600 X30.012 Y58.114
;TYPE:WALL-INNER
G1 F1680 E34.21737
G1 F1320 X29.387 Y58.029 E34.24861
G1 X28.682 Y57.76 E34.28598
G1 X28.1 Y57.277 E34.32344
G1 X27.727 Y56.789 E34.35387
G1 X27.508 Y56.255 E34.38245
G1 X27.385 Y55.51 E34.41985
G1 X27.465 Y54.909 E34.44988
G1 X27.741 Y54.18 E34.48849
G1 X28.225 Y53.598 E34.52598
G1 X28.683 Y53.242 E34.55471
G1 X29.275 Y53 E34.58638
G1 X29.992 Y52.885 E34.62235
G1 X30.6 Y52.963 E34.65271
G1 X31.311 Y53.235 E34.69041
G1 X31.905 Y53.721 E34.72843
G1 X32.266 Y54.197 E34.75801
G1 X32.526 Y54.816 E34.79127
G1 X32.613 Y55.5 E34.82542
G1 X32.527 Y56.178 E34.85927
G1 X32.26 Y56.812 E34.89334
G1 X31.779 Y57.402 E34.93104
G1 X31.312 Y57.76 E34.96019
G1 X30.759 Y57.994 E34.98993
G1 X30.012 Y58.114 E35.0274
G1 F1680 E32.0274
G0 F3600 X69.008 Y58.115
G1 F1680 E35.0274
G1 F1320 X68.405 Y58.037 E35.05751
G1 X67.7 Y57.77 E35.09485
G1 X67.103 Y57.282 E35.13304
G1 X66.744 Y56.818 E35.1621
G1 X66.47 Y56.17 E35.19694
G1 X66.388 Y55.5 E35.23037
G1 X66.467 Y54.845 E35.26305
G1 X66.737 Y54.191 E35.29809
G1 X67.229 Y53.589 E35.3366
G1 X67.682 Y53.248 E35.36468
G1 X68.241 Y53.005 E35.39487
G1 X68.975 Y52.888 E35.43169
G1 X69.581 Y52.959 E35.46191
G1 X70.304 Y53.233 E35.5002
G1 X70.905 Y53.721 E35.53854
G1 X71.273 Y54.212 E35.56893
G1 X71.492 Y54.745 E35.59747
G1 X71.612 Y55.466 E35.63368
G1 X71.54 Y56.092 E35.66489
G1 X71.258 Y56.821 E35.7036
G1 X70.775 Y57.402 E35.74102
G1 X70.328 Y57.746 E35.76896
G1 X69.767 Y57.993 E35.79932
G1 X69.008 Y58.115 E35.83739
G1 F1680 E32.83739
G0 F3600 X82.84 Y106.84
G1 F1680 E35.83739
G1 F1320 X82.84 Y13.16 E40.47722
G1 X17.161 Y13.161 E43.7302
G1 X17.162 Y106.839 E48.36993
G1 X82.84 Y106.84 E51.62287
G0 F3600 X83.249 Y107.28
;TYPE:WALL-OUTER
G1 F1320 X83.28 Y107.196 E51.6273
G1 X83.28 Y12.72 E56.30655
G1 X16.721 Y12.721 E59.60312
G1 X16.722 Y107.279 E64.28644
G1 X83.249 Y107.28 E67.58142
G1 F1680 E64.58142
G0 F3600 X69.02 Y57.668
G1 F1680 E67.58142
G1 F1320 X68.522 Y57.61 E67.60625
G1 X67.907 Y57.374 E67.63888
G1 X67.426 Y56.982 E67.66961
G1 X67.123 Y56.589 E67.69419
G1 X66.9 Y56.054 E67.7229
G1 X66.831 Y55.48 E67.75153
G1 X66.9 Y54.946 E67.7782
G1 X67.122 Y54.414 E67.80675
G1 X67.521 Y53.924 E67.83805
G1 X67.897 Y53.633 E67.8616
G1 X68.365 Y53.431 E67.88684
G1 X69.002 Y53.331 E67.91878
G1 X69.475 Y53.39 E67.94239
G1 X70.084 Y53.618 E67.97459
G1 X70.566 Y54.012 E68.00543
G1 X70.878 Y54.414 E68.03063
G1 X71.069 Y54.867 E68.05498
G1 X71.166 Y55.464 E68.08494
G1 X71.108 Y55.985 E68.1109
G1 X70.878 Y56.59 E68.14296
G1 X70.47 Y57.085 E68.17473
G1 X70.093 Y57.374 E68.19826
G1 X69.64 Y57.567 E68.22264
G1 X69.02 Y57.668 E68.25376
G1 F1680 E65.25376
G0 F3600 X30.011 Y57.668
G1 F1680 E68.25376
G1 F1320 X29.525 Y57.61 E68.278
G1 X28.911 Y57.379 E68.31049
G1 X28.434 Y56.988 E68.34104
G1 X28.122 Y56.586 E68.36624
G1 X27.931 Y56.133 E68.39059
G1 X27.834 Y55.534 E68.42064
G1 X27.892 Y55.015 E68.44651
G1 X28.122 Y54.41 E68.47857
G1 X28.53 Y53.915 E68.51034
G1 X28.923 Y53.617 E68.53477
G1 X29.36 Y53.433 E68.55825
G1 X29.98 Y53.332 E68.58936
G1 X30.47 Y53.389 E68.61379
G1 X31.086 Y53.619 E68.64636
G1 X31.572 Y54.017 E68.67747
G1 X31.877 Y54.412 E68.70219
G1 X32.092 Y54.918 E68.72942
G1 X32.169 Y55.48 E68.75752
G1 X32.098 Y56.07 E68.78695
G1 X31.878 Y56.585 E68.81469
G1 X31.485 Y57.07 E68.8456
G1 X31.099 Y57.37 E68.86982
G1 X30.643 Y57.566 E68.8944
G1 X30.011 Y57.668 E68.92611
G1 F1680 E65.92611
G0 F3600 X17.655 Y106.638
;TYPE:SKIN
G1 F1680 E68.92611
G1 F1200 X17.36 Y106.343 E68.94677
G0 F3600 X17.36 Y105.72
G1 F1200 X18.278 Y106.638 E69.01107
G0 F3600 X18.9 Y106.638
G1 F1200 X17.36 Y105.098 E69.11894
G0 F3600 X17.36 Y104.476
G1 F1200 X19.522 Y106.638 E69.27037
G0 F3600 X20.144 Y106.638
G1 F1200 X17.36 Y103.854 E69.46537
G0 F3600 X17.36 Y103.231
G1 F1200 X20.767 Y106.638 E69.70401
G0 F3600 X21.389 Y106.638
G1 F1200 X17.36 Y102.609 E69.98622
G0 F3600 X17.36 Y101.987
G1 F1200 X22.011 Y106.638 E70.31199
G0 F3600 X22.633 Y106.638
G1 F1200 X17.36 Y101.365 E70.68134
G0 F3600 X17.36 Y100.742
G1 F1200 X23.256 Y106.638 E71.09431
G0 F3600 X23.878 Y106.638
G1 F1200 X17.36 Y100.12 E71.55086
G0 F3600 X17.36 Y99.498
G1 F1200 X24.5 Y106.638 E72.05097
G0 F3600 X25.122 Y106.638
G1 F1200 X17.36 Y98.876 E72.59465
G0 F3600 X17.36 Y98.253
G1 F1200 X25.745 Y106.638 E73.18197
G0 F3600 X26.367 Y106.638
G1 F1200 X17.36 Y97.631 E73.81286
G0 F3600 X17.36 Y97.009
G1 F1200 X26.989 Y106.638 E74.48731
G0 F3600 X27.611 Y106.638
G1 F1200 X17.36 Y96.387 E75.20533
G0 F3600 X17.36 Y95.764
G1 F1200 X28.234 Y106.638 E75.96699
G0 F3600 X28.856 Y106.638
G1 F1200 X17.36 Y95.142 E76.77221
G0 F3600 X17.36 Y94.52
G1 F1200 X29.478 Y106.638 E77.621
G0 F3600 X30.1 Y106.638
G1 F1200 X17.36 Y93.898 E78.51336
G0 F3600 X17.36 Y93.275
G1 F1200 X30.723 Y106.638 E79.44936
G0 F3600 X31.345 Y106.638
G1 F1200 X17.36 Y92.653 E80.42892
G0 F3600 X17.36 Y92.031
G1 F1200 X31.967 Y106.638 E81.45205
G0 F3600 X32.589 Y106.638
G1 F1200 X17.36 Y91.409 E82.51875
G0 F3600 X17.36 Y90.786
G1 F1200 X33.212 Y106.638 E83.62909
G0 F3600 X33.834 Y106.638
G1 F1200 X17.36 Y90.164 E84.78299
G0 F3600 X17.36 Y89.542
G1 F1200 X34.456 Y106.638 E85.98046
G0 F3600 X35.078 Y106.638
G1 F1200 X17.36 Y88.92 E87.2215
G0 F3600 X17.36 Y88.297
G1 F1200 X35.701 Y106.638 E88.50617
G0 F3600 X36.323 Y106.638
G1 F1200 X17.36 Y87.675 E89.83441
G0 F3600 X17.36 Y87.053
G1 F1200 X36.945 Y106.638 E91.20622
G0 F3600 X37.567 Y106.638
G1 F1200 X17.36 Y86.431 E92.6216
G0 F3600 X17.36 Y85.808
G1 F1200 X38.19 Y106.638 E94.08061
G0 F3600 X38.812 Y106.638
G1 F1200 X17.36 Y85.186 E95.58319
G0 F3600 X17.36 Y84.564
G1 F1200 X39.434 Y106.638 E97.12934
G0 F3600 X40.056 Y106.638
G1 F1200 X17.36 Y83.942 E98.71906
G0 F3600 X17.36 Y83.319
G1 F1200 X40.679 Y106.638 E100.35241
G0 F3600 X41.301 Y106.638
G1 F1200 X17.36 Y82.697 E102.02933
G0 F3600 X17.36 Y82.075
G1 F1200 X41.923 Y106.638 E103.74982
G0 F3600 X42.545 Y106.638
G1 F1200 X17.36 Y81.453 E105.51387
G0 F3600 X17.36 Y80.83
G1 F1200 X43.168 Y106.638 E107.32157
G0 F3600 X43.79 Y106.638
G1 F1200 X17.36 Y80.208 E109.17283
G0 F3600 X17.36 Y79.586
G1 F1200 X44.412 Y106.638 E111.06765
G0 F3600 X45.034 Y106.638
G1 F1200 X17.36 Y78.964 E113.00605
G0 F3600 X17.36 Y78.341
G1 F1200 X45.657 Y106.638 E114.98808
G0 F3600 X46.279 Y106.638
G1 F1200 X17.36 Y77.719 E117.01368
G0 F3600 X17.36 Y77.097
G1 F1200 X46.901 Y106.638 E119.08284
G0 F3600 X47.523 Y106.638
G1 F1200 X17.36 Y76.475 E121.19558
G0 F3600 X17.36 Y75.852
G1 F1200 X48.146 Y106.638 E123.35195
G0 F3600 X48.768 Y106.638
G1 F1200 X17.36 Y75.23 E125.55189
G0 F3600 X17.36 Y74.608
G1 F1200 X49.39 Y106.638 E127.79539
G0 F3600 X50.013 Y106.638
G1 F1200 X17.36 Y73.985 E130.08253
G0 F3600 X17.36 Y73.363
G1 F1200 X50.635 Y106.638 E132.41324
G0 F3600 X51.258 Y106.638
G1 F1200 X17.36 Y72.741 E134.78756
G0 F3600 X17.36 Y72.119
G1 F1200 X51.88 Y106.638 E137.20544
G0 F3600 X52.502 Y106.638
G1 F1200 X17.36 Y71.496 E139.66692
G0 F3600 X17.36 Y70.874
G1 F1200 X53.124 Y106.638 E142.17197
G0 F3600 X53.747 Y106.638
G1 F1200 X17.36 Y70.252 E144.72062
G0 F3600 X17.36 Y69.63
G1 F1200 X54.369 Y106.638 E147.31284
G0 F3600 X54.991 Y106.638
G1 F1200 X17.36 Y69.007 E149.94866
G0 F3600 X17.36 Y68.385
G1 F1200 X55.613 Y106.638 E152.62805
G0 F3600 X56.236 Y106.638
G1 F1200 X17.36 Y67.763 E155.35104
G0 F3600 X17.36 Y67.141
G1 F1200 X56.858 Y106.638 E158.11759
G0 F3600 X57.48 Y106.638
G1 F1200 X17.36 Y66.518 E160.92775
G0 F3600 X17.36 Y65.896
G1 F1200 X58.102 Y106.638 E163.78148
G0 F3600 X58.725 Y106.638
G1 F1200 X17.36 Y65.274 E166.67881
G0 F3600 X17.36 Y64.652
G1 F1200 X59.347 Y106.638 E169.61971
G0 F3600 X59.969 Y106.638
G1 F1200 X17.36 Y64.029 E172.60421
G0 F3600 X17.36 Y63.407
G1 F1200 X60.591 Y106.638 E175.63228
G0 F3600 X61.214 Y106.638
G1 F1200 X17.36 Y62.785 E178.70394
G0 F3600 X17.36 Y62.163
G1 F1200 X61.836 Y106.638 E181.81918
G0 F3600 X62.458 Y106.638
G1 F1200 X17.36 Y61.54 E184.97802
G0 F3600 X17.36 Y60.918
G1 F1200 X63.08 Y106.638 E188.18043
G0 F3600 X63.703 Y106.638
G1 F1200 X17.36 Y60.296 E191.42643
G0 F3600 X17.36 Y59.673
G1 F1200 X64.325 Y106.638 E194.71604
G0 F3600 X64.947 Y106.638
G1 F1200 X17.36 Y59.051 E198.04922
G0 F3600 X17.36 Y58.428
G1 F1200 X65.57 Y106.638 E201.42604
G0 F3600 X66.192 Y106.638
G1 F1200 X17.36 Y57.806 E204.84642
G0 F3600 X17.36 Y57.184
G1 F1200 X66.814 Y106.638 E208.31037
G0 F3600 X67.436 Y106.638
G1 F1200 X17.36 Y56.562 E211.81789
G0 F3600 X17.36 Y55.939
G1 F1200 X68.059 Y106.638 E215.36904
G0 F3600 X68.681 Y106.638
G1 F1200 X17.36 Y55.317 E218.96376
G0 F3600 X17.36 Y54.695
G1 F1200 X69.303 Y106.638 E222.60205
G0 F3600 X69.925 Y106.638
G1 F1200 X17.36 Y54.073 E226.28391
G0 F3600 X17.36 Y53.45
G1 F1200 X70.548 Y106.638 E230.0094
G0 F3600 X71.17 Y106.638
G1 F1200 X17.36 Y52.828 E233.77846
G0 F3600 X17.36 Y52.206
G1 F1200 X71.792 Y106.638 E237.59109
G0 F3600 X72.414 Y106.638
G1 F1200 X17.36 Y51.584 E241.44729
G0 F3600 X17.36 Y50.961
G1 F1200 X73.037 Y106.638 E245.34712
G0 F3600 X73.659 Y106.638
G1 F1200 X17.36 Y50.339 E249.29052
G0 F3600 X17.36 Y49.717
G1 F1200 X74.281 Y106.638 E253.27749
G0 F3600 X74.903 Y106.638
G1 F1200 X17.36 Y49.095 E257.30802
G0 F3600 X17.36 Y48.472
G1 F1200 X75.526 Y106.638 E261.38219
G0 F3600 X76.148 Y106.638
G1 F1200 X17.36 Y47.85 E265.49993
G0 F3600 X17.36 Y47.228
G1 F1200 X76.77 Y106.638 E269.66124
G0 F3600 X77.392 Y106.638
G1 F1200 X28.753 Y57.999 E273.0681
G1 X28.683 Y57.929
G1 F1680 E270.0681
G0 F3600 X29.639 Y58.263
G1 F1680 E273.0681
G1 F1200 X78.015 Y106.638 E276.45651
G0 F3600 X78.637 Y106.638
G1 F1200 X30.273 Y58.274 E279.84411
G0 F3600 X30.807 Y58.186
G1 F1200 X79.259 Y106.638 E283.23788
G0 F3600 X79.881 Y106.638
G1 F1200 X31.248 Y58.005 E286.64432
G0 F3600 X31.632 Y57.767
G1 F1200 X80.504 Y106.638 E290.06747
G0 F3600 X81.126 Y106.638
G1 F1200 X31.971 Y57.483 E293.51048
G0 F3600 X32.251 Y57.141
G1 F1200 X81.748 Y106.638 E296.97744
G0 F3600 X82.37 Y106.638
G1 F1200 X32.496 Y56.764 E300.47081
G0 F3600 X32.683 Y56.328
G1 F1200 X82.64 Y106.285 E303.96999
G0 F3600 X82.64 Y105.663
G1 F1200 X32.775 Y55.799 E307.46269
G0 F3600 X32.774 Y55.175
G1 F1200 X82.64 Y105.041 E310.9555
G0 F3600 X82.64 Y104.419
G1 F1200 X32.529 Y54.308 E314.46547
G1 X32.459 Y54.238
G1 F1680 E311.46547
G0 F3600 X31.197 Y52.976
G1 F1680 E314.46547
G1 F1200 X17.36 Y39.139 E315.43467
G0 F3600 X17.36 Y39.761
G1 F1200 X30.33 Y52.731 E316.34313
G0 F3600 X29.704 Y52.727
G1 F1200 X17.36 Y40.383 E317.20776
G0 F3600 X17.36 Y41.005
G1 F1200 X29.173 Y52.818 E318.03518
G0 F3600 X28.733 Y53.001
G1 F1200 X17.36 Y41.628 E318.83179
G0 F3600 X17.36 Y42.25
G1 F1200 X28.353 Y53.243 E319.60179
G0 F3600 X28.016 Y53.529
G1 F1200 X17.36 Y42.872 E320.34821
G0 F3600 X17.36 Y43.494
G1 F1200 X27.739 Y53.873 E321.07519
G0 F3600 X27.499 Y54.256
G1 F1200 X17.36 Y44.117 E321.78537
G0 F3600 X17.36 Y44.739
G1 F1200 X27.324 Y54.703 E322.48329
G0 F3600 X27.221 Y55.222
G1 F1200 X17.36 Y45.361 E323.17399
G0 F3600 X17.36 Y45.983
G1 F1200 X27.237 Y55.861 E323.86585
G1 X27.307 Y55.931
G1 F1680 E320.86585
G0 F3600 X27.493 Y56.738
G1 F1680 E323.86585
G1 F1200 X17.36 Y46.606 E324.57557
G1 X17.29 Y46.536
G1 F1680 E321.57557
G0 F3600 X17.36 Y38.516
G1 F1680 E324.57557
G1 F1200 X82.64 Y103.796 E329.14803
G0 F3600 X82.64 Y103.174
G1 F1200 X17.36 Y37.894 E333.72049
G0 F3600 X17.36 Y37.272
G1 F1200 X82.64 Y102.552 E338.29296
G0 F3600 X82.64 Y101.93
G1 F1200 X17.36 Y36.65 E342.86542
G0 F3600 X17.36 Y36.027
G1 F1200 X82.64 Y101.307 E347.43789
G0 F3600 X82.64 Y100.685
G1 F1200 X17.36 Y35.405 E352.01035
G0 F3600 X17.36 Y34.783
G1 F1200 X82.64 Y100.063 E356.58282
G0 F3600 X82.64 Y99.441
G1 F1200 X17.36 Y34.161 E361.15528
G0 F3600 X17.36 Y33.538
G1 F1200 X82.64 Y98.818 E365.72774
G0 F3600 X82.64 Y98.196
G1 F1200 X17.36 Y32.916 E370.30021
G0 F3600 X17.36 Y32.294
G1 F1200 X82.64 Y97.574 E374.87267
G0 F3600 X82.64 Y96.952
G1 F1200 X17.36 Y31.672 E379.44514
G0 F3600 X17.36 Y31.049
G1 F1200 X82.64 Y96.329 E384.0176
G0 F3600 X82.64 Y95.707
G1 F1200 X17.36 Y30.427 E388.59006
G0 F3600 X17.36 Y29.805
